%
(Header)
(Generated by gcodetools from Inkscape.)
(Using default header. To add your own header create file "header" in the output dir.)
M3
(Header end.)
G21 (All units in mm)

(Start cutting path id: path3040)
(Change tool to Default tool)

G00 Z5.000000
G00 X33.441221 Y6.202983

G01 Z-0.125000 F100.0(Penetrate)
G03 X33.574941 Y6.433223 Z-0.125000 I-0.811569 J0.625298 F400.000000
G01 X33.611603 Y6.611081 Z-0.125000
G01 X33.572719 Y6.779906 Z-0.125000
G01 X33.452157 Y6.925544 Z-0.125000
G01 X33.281741 Y7.004767 Z-0.125000
G01 X33.107525 Y6.999968 Z-0.125000
G01 X32.945703 Y6.918967 Z-0.125000
G03 X32.757116 Y6.730759 Z-0.125000 I0.629473 J-0.819329
G03 X32.623728 Y6.501676 Z-0.125000 I0.814750 J-0.627780
G01 X32.586484 Y6.324590 Z-0.125000
G01 X32.626088 Y6.154899 Z-0.125000
G01 X32.745932 Y6.010130 Z-0.125000
G01 X32.917368 Y5.930434 Z-0.125000
G01 X33.090561 Y5.935705 Z-0.125000
G01 X33.253362 Y6.016218 Z-0.125000
G03 X33.441221 Y6.202983 Z-0.125000 I-0.613677 J0.805133
G00 Z5.000000

(End cutting path id: path3040)


(Start cutting path id: path3040)
(Change tool to Default tool)

G00 Z5.000000
G00 X33.276661 Y5.574573

G01 Z-0.125000 F100.0(Penetrate)
G02 X33.005663 Y5.312598 Z-0.125000 I-1.032007 J0.796397 F400.000000
G02 X32.780352 Y5.217766 Z-0.125000 I-0.319823 J0.444793
G01 X32.539147 Y5.234038 Z-0.125000
G02 X32.238078 Y5.392455 Z-0.125000 I0.303462 J0.942026
G02 X32.135965 Y5.478156 Z-0.125000 I1.018892 J1.317699
G02 X32.051033 Y5.562857 Z-0.125000 I0.882069 J0.969405
G02 X31.973565 Y5.654046 Z-0.125000 I0.905955 J0.848136
G02 X31.905860 Y5.751435 Z-0.125000 I0.969346 J0.746112
G01 X32.056630 Y5.946667 Z-0.125000
G03 X32.114084 Y5.834100 Z-0.125000 I1.035163 J0.457403
G03 X32.176489 Y5.741067 Z-0.125000 I0.768047 J0.447745
G03 X32.250204 Y5.656838 Z-0.125000 I0.683495 J0.523805
G03 X32.334476 Y5.582631 Z-0.125000 I0.613414 J0.611658
G03 X32.542655 Y5.471994 Z-0.125000 I0.429325 J0.556660
G01 X32.710123 Y5.458170 Z-0.125000
G01 X32.866564 Y5.520461 Z-0.125000
G03 X33.048219 Y5.693372 Z-0.125000 I-0.470070 J0.675713
G01 X33.124744 Y5.792716 Z-0.125000
G02 X32.976812 Y5.752858 Z-0.125000 I-0.228711 J0.554404
G01 X32.840866 Y5.754132 Z-0.125000
G01 X32.710193 Y5.793470 Z-0.125000
G02 X32.567222 Y5.879959 Z-0.125000 I0.309395 J0.672858
G02 X32.399493 Y6.082101 Z-0.125000 I0.367408 J0.475520
G02 X32.337138 Y6.330719 Z-0.125000 I0.508086 J0.259559
G02 X32.382395 Y6.591377 Z-0.125000 I0.696305 J0.013363
G02 X32.549831 Y6.890669 Z-0.125000 I1.094002 J-0.415547
G02 X32.797691 Y7.129614 Z-0.125000 I0.930187 J-0.716867
G02 X33.038315 Y7.239587 Z-0.125000 I0.404250 J-0.566278
G02 X33.294649 Y7.242409 Z-0.125000 I0.134292 J-0.555012
G02 X33.532706 Y7.131427 Z-0.125000 I-0.128122 J-0.585627
G02 X33.652654 Y7.015090 Z-0.125000 I-0.451294 J-0.585310
G01 X33.723859 Y6.898672 Z-0.125000
G01 X33.759590 Y6.767501 Z-0.125000
G02 X33.758578 Y6.614297 Z-0.125000 I-0.595260 J-0.072675
G01 X33.901598 Y6.799840 Z-0.125000
G01 X34.102305 Y6.644893 Z-0.125000
G01 X33.276545 Y5.574547 Z-0.125000
G00 Z5.000000

(End cutting path id: path3040)


(Start cutting path id: path3038)
(Change tool to Default tool)

G00 Z5.000000
G00 X31.808128 Y7.434034

G01 Z-0.125000 F100.0(Penetrate)
G03 X31.555120 Y7.598121 Z-0.125000 I-1.124409 J-1.456639 F400.000000
G01 X31.428056 Y7.638489 Z-0.125000
G01 X31.306804 Y7.618123 Z-0.125000
G01 X31.187758 Y7.521032 Z-0.125000
G01 X31.131257 Y7.407763 Z-0.125000
G01 X31.126276 Y7.296953 Z-0.125000
G01 X31.169933 Y7.192856 Z-0.125000
G01 X31.270324 Y7.086614 Z-0.125000
G01 X31.447159 Y7.001254 Z-0.125000
G01 X31.628548 Y6.998221 Z-0.125000
G01 X31.800918 Y7.072085 Z-0.125000
G03 X31.973283 Y7.235261 Z-0.125000 I-0.433703 J0.630750
G01 X32.007783 Y7.280003 Z-0.125000
G01 X31.808171 Y7.434115 Z-0.125000
G00 Z5.000000

(End cutting path id: path3038)


(Start cutting path id: path3038)
(Change tool to Default tool)

G00 Z5.000000
G00 X32.272570 Y7.208117

G01 Z-0.125000 F100.0(Penetrate)
G01 X31.734701 Y6.510910 Z-0.125000 F400.000000
G01 X31.533995 Y6.665857 Z-0.125000
G01 X31.677013 Y6.851398 Z-0.125000
G02 X31.520496 Y6.813990 Z-0.125000 I-0.226164 J0.600133
G01 X31.378610 Y6.818800 Z-0.125000
G02 X31.243580 Y6.863275 Z-0.125000 I0.098479 J0.526204
G02 X31.087259 Y6.960030 Z-0.125000 I0.390424 J0.805444
G02 X30.934530 Y7.125572 Z-0.125000 I0.410481 J0.531933
G01 X30.869111 Y7.295413 Z-0.125000
G01 X30.881457 Y7.475631 Z-0.125000
G02 X30.976925 Y7.663017 Z-0.125000 I0.545882 J-0.160099
G02 X31.160360 Y7.819301 Z-0.125000 I0.461229 J-0.355565
G01 X31.354298 Y7.867914 Z-0.125000
G02 X31.559346 Y7.824399 Z-0.125000 I-0.005208 J-0.529404
G02 X31.847533 Y7.654478 Z-0.125000 I-0.535580 J-1.237687
G01 X32.128962 Y7.437216 Z-0.125000
G01 X32.144115 Y7.456858 Z-0.125000
G01 X32.215621 Y7.603179 Z-0.125000
G01 X32.217446 Y7.741415 Z-0.125000
G01 X32.159785 Y7.871217 Z-0.125000
G03 X32.021058 Y8.014760 Z-0.125000 I-0.559715 J-0.402130
G03 X31.912216 Y8.088618 Z-0.125000 I-0.648686 J-0.838810
G03 X31.797665 Y8.147070 Z-0.125000 I-0.525626 J-0.888631
G03 X31.676703 Y8.190617 Z-0.125000 I-0.399968 J-0.921232
G03 X31.548646 Y8.219093 Z-0.125000 I-0.290824 J-1.005645
G01 X31.691665 Y8.404636 Z-0.125000
G02 X31.832486 Y8.356556 Z-0.125000 I-0.524470 J-1.766370
G02 X31.954336 Y8.302935 Z-0.125000 I-0.532491 J-1.375300
G02 X32.071314 Y8.239109 Z-0.125000 I-0.580327 J-1.202713
G02 X32.173017 Y8.169027 Z-0.125000 I-0.597770 J-0.976321
G02 X32.388121 Y7.936585 Z-0.125000 I-0.581104 J-0.753510
G01 X32.463018 Y7.725996 Z-0.125000
G01 X32.435066 Y7.502505 Z-0.125000
G02 X32.272401 Y7.208196 Z-0.125000 I-1.040786 J0.383140
G00 Z5.000000

(End cutting path id: path3038)


(Start cutting path id: path3036)
(Change tool to Default tool)

G00 Z5.000000
G00 X31.307115 Y9.336141

G01 Z-0.125000 F100.0(Penetrate)
G01 X31.039469 Y8.989157 Z-0.125000 F400.000000
G01 X31.452935 Y8.670065 Z-0.125000
G01 X31.332488 Y8.514100 Z-0.125000
G01 X30.919023 Y8.833192 Z-0.125000
G01 X30.407250 Y8.169809 Z-0.125000
G03 X30.311463 Y8.014755 Z-0.125000 I0.702308 J-0.540977
G01 X30.299472 Y7.946635 Z-0.125000
G01 X30.325944 Y7.882180 Z-0.125000
G03 X30.433578 Y7.775295 Z-0.125000 I0.479835 J0.375564
G01 X30.639763 Y7.616167 Z-0.125000
G01 X30.510121 Y7.448153 Z-0.125000
G01 X30.303935 Y7.607281 Z-0.125000
G02 X30.105862 Y7.806570 Z-0.125000 I0.658332 J0.852394
G01 X30.049655 Y7.940949 Z-0.125000
G01 X30.067888 Y8.085915 Z-0.125000
G02 X30.205385 Y8.325544 Z-0.125000 I0.943103 J-0.381883
G01 X30.717180 Y8.988910 Z-0.125000
G01 X30.569805 Y9.102447 Z-0.125000
G01 X30.690251 Y9.258411 Z-0.125000
G01 X30.837624 Y9.144877 Z-0.125000
G01 X31.105270 Y9.491861 Z-0.125000
G01 X31.307073 Y9.336077 Z-0.125000
G00 Z5.000000

(End cutting path id: path3036)


(Start cutting path id: path3034)
(Change tool to Default tool)

G00 Z5.000000
G00 X30.422153 Y9.398237

G01 Z-0.125000 F100.0(Penetrate)
G01 X30.275790 Y9.208312 Z-0.125000 F400.000000
G03 X30.218250 Y9.313784 Z-0.125000 I-0.913143 J-0.429727
G03 X30.149540 Y9.410140 Z-0.125000 I-0.830042 J-0.519209
G03 X30.069756 Y9.497583 Z-0.125000 I-0.772957 J-0.625141
G03 X29.976529 Y9.578424 Z-0.125000 I-0.752116 J-0.773177
G03 X29.819827 Y9.675879 Z-0.125000 I-0.564107 J-0.732336
G01 X29.716413 Y9.705999 Z-0.125000
G01 X29.618426 Y9.690437 Z-0.125000
G01 X29.536159 Y9.625761 Z-0.125000
G01 X29.502223 Y9.551989 Z-0.125000
G01 X29.504604 Y9.474317 Z-0.125000
G01 X29.538728 Y9.399602 Z-0.125000
G03 X29.661468 Y9.233210 Z-0.125000 I1.475572 J0.959993
G01 X29.718415 Y9.164898 Z-0.125000
G02 X29.872314 Y8.942774 Z-0.125000 I-1.068207 J-0.904482
G01 X29.921566 Y8.801053 Z-0.125000
G01 X29.913393 Y8.656862 Z-0.125000
G01 X29.832836 Y8.498789 Z-0.125000
G01 X29.679558 Y8.374619 Z-0.125000
G01 X29.489629 Y8.333669 Z-0.125000
G02 X29.291987 Y8.375280 Z-0.125000 I0.010926 J0.542085
G02 X29.043155 Y8.519735 Z-0.125000 I0.423249 J1.015615
G02 X28.949017 Y8.599871 Z-0.125000 I0.813415 J1.050892
G02 X28.853186 Y8.697623 Z-0.125000 I1.073578 J1.148344
G02 X28.765648 Y8.800980 Z-0.125000 I1.335602 J1.219926
G02 X28.673285 Y8.926919 Z-0.125000 I1.891762 J1.484240
G01 X28.833249 Y9.134199 Z-0.125000
G03 X28.906752 Y8.994615 Z-0.125000 I1.425544 J0.661527
G03 X28.985216 Y8.877721 Z-0.125000 I1.076969 J0.638126
G03 X29.077589 Y8.772262 Z-0.125000 I0.889813 J0.686215
G03 X29.177181 Y8.684372 Z-0.125000 I0.715027 J0.709858
G03 X29.326257 Y8.593234 Z-0.125000 I0.495330 J0.642727
G01 X29.432436 Y8.564029 Z-0.125000
G01 X29.535074 Y8.580635 Z-0.125000
G01 X29.614869 Y8.642582 Z-0.125000
G01 X29.656369 Y8.728898 Z-0.125000
G01 X29.656025 Y8.810985 Z-0.125000
G01 X29.621825 Y8.889956 Z-0.125000
G03 X29.479711 Y9.081024 Z-0.125000 I-1.633246 J-1.066401
G01 X29.422513 Y9.151267 Z-0.125000
G02 X29.289772 Y9.345104 Z-0.125000 I0.846789 J0.722252
G01 X29.245608 Y9.479198 Z-0.125000
G01 X29.257123 Y9.616635 Z-0.125000
G01 X29.335245 Y9.766839 Z-0.125000
G01 X29.489341 Y9.896205 Z-0.125000
G01 X29.662831 Y9.938789 Z-0.125000
G01 X29.845085 Y9.902293 Z-0.125000
G02 X30.082185 Y9.764947 Z-0.125000 I-0.398468 J-0.961202
G02 X30.189760 Y9.675016 Z-0.125000 I-1.116454 J-1.444800
G02 X30.279038 Y9.586953 Z-0.125000 I-0.959171 J-1.061700
G02 X30.359590 Y9.491068 Z-0.125000 I-0.923609 J-0.857685
G02 X30.422277 Y9.398125 Z-0.125000 I-0.803245 J-0.609377
G00 Z5.000000

(End cutting path id: path3034)


(Start cutting path id: path3032)
(Change tool to Default tool)

G00 Z5.000000
G00 X29.256394 Y10.901176

G01 Z-0.125000 F100.0(Penetrate)
G01 X28.988748 Y10.554192 Z-0.125000 F400.000000
G01 X29.402215 Y10.235099 Z-0.125000
G01 X29.281769 Y10.079134 Z-0.125000
G01 X28.868303 Y10.398226 Z-0.125000
G01 X28.356531 Y9.734842 Z-0.125000
G03 X28.260745 Y9.579789 Z-0.125000 I0.702284 J-0.540959
G01 X28.248755 Y9.511667 Z-0.125000
G01 X28.275226 Y9.447213 Z-0.125000
G03 X28.382861 Y9.340327 Z-0.125000 I0.479831 J0.375558
G01 X28.589046 Y9.181199 Z-0.125000
G01 X28.459403 Y9.013185 Z-0.125000
G01 X28.253218 Y9.172313 Z-0.125000
G02 X28.055145 Y9.371602 Z-0.125000 I0.658332 J0.852394
G01 X27.998938 Y9.505981 Z-0.125000
G01 X28.017172 Y9.650945 Z-0.125000
G02 X28.154670 Y9.890575 Z-0.125000 I0.943117 J-0.381892
G01 X28.666442 Y10.553958 Z-0.125000
G01 X28.519070 Y10.667492 Z-0.125000
G01 X28.639516 Y10.823457 Z-0.125000
G01 X28.786889 Y10.709922 Z-0.125000
G01 X29.054535 Y11.056907 Z-0.125000
G01 X29.256336 Y10.901124 Z-0.125000
G00 Z5.000000

(End cutting path id: path3032)


(Start cutting path id: path3030)
(Change tool to Default tool)

G00 Z5.000000
G00 X28.428897 Y10.679055

G01 Z-0.125000 F100.0(Penetrate)
G01 X28.406816 Y10.722727 Z-0.125000 F400.000000
G01 X28.376587 Y10.764663 Z-0.125000
G01 X28.342491 Y10.802362 Z-0.125000
G03 X28.296878 Y10.841825 Z-0.125000 I-0.376119 J-0.388632
G03 X28.117215 Y10.930020 Z-0.125000 I-0.305768 J-0.395788
G01 X27.949162 Y10.932552 Z-0.125000
G01 X27.793560 Y10.861034 Z-0.125000
G03 X27.613655 Y10.684915 Z-0.125000 I0.539840 J-0.731393
G01 X27.117020 Y10.041182 Z-0.125000
G01 X26.915217 Y10.196966 Z-0.125000
G01 X27.857965 Y11.418978 Z-0.125000
G01 X28.059768 Y11.263194 Z-0.125000
G01 X27.913405 Y11.073269 Z-0.125000
G02 X28.064996 Y11.113997 Z-0.125000 I0.226652 J-0.541123
G01 X28.205263 Y11.110918 Z-0.125000
G02 X28.340797 Y11.068756 Z-0.125000 I-0.084267 J-0.509801
G02 X28.493935 Y10.975237 Z-0.125000 I-0.351283 J-0.747373
G01 X28.514018 Y10.958515 Z-0.125000
G02 X28.537237 Y10.936617 Z-0.125000 I-0.432159 J-0.481485
G02 X28.560076 Y10.914516 Z-0.125000 I-0.452998 J-0.490980
G02 X28.586986 Y10.886047 Z-0.125000 I-0.671603 J-0.661782
G01 X28.428990 Y10.678991 Z-0.125000
G00 Z5.000000

(End cutting path id: path3030)


(Start cutting path id: path3028)
(Change tool to Default tool)

G00 Z5.000000
G00 X25.850020 Y11.776087

G01 Z-0.125000 F100.0(Penetrate)
G01 X26.420724 Y12.515838 Z-0.125000 F400.000000
G01 X26.621432 Y12.360890 Z-0.125000
G01 X26.056621 Y11.628777 Z-0.125000
G03 X25.949592 Y11.446190 Z-0.125000 I0.662076 J-0.510759
G01 X25.923090 Y11.315821 Z-0.125000
G01 X25.955759 Y11.193096 Z-0.125000
G01 X26.059532 Y11.073062 Z-0.125000
G03 X26.231619 Y10.986672 Z-0.125000 I0.307307 J0.397552
G01 X26.395902 Y10.978903 Z-0.125000
G01 X26.551535 Y11.041232 Z-0.125000
G03 X26.708839 Y11.188261 Z-0.125000 I-0.371079 J0.554674
G01 X27.243340 Y11.881100 Z-0.125000
G01 X27.444049 Y11.726152 Z-0.125000
G01 X26.501299 Y10.504137 Z-0.125000
G01 X26.300592 Y10.659084 Z-0.125000
G01 X26.445283 Y10.846817 Z-0.125000
G02 X26.284601 Y10.810227 Z-0.125000 I-0.248138 J0.718575
G02 X26.147128 Y10.812287 Z-0.125000 I-0.060878 J0.525668
G01 X26.017339 Y10.850420 Z-0.125000
G02 X25.882213 Y10.931382 Z-0.125000 I0.275894 J0.613712
G02 X25.718671 Y11.118056 Z-0.125000 I0.391534 J0.507993
G01 X25.663537 Y11.308943 Z-0.125000
G01 X25.698305 Y11.510327 Z-0.125000
G02 X25.849882 Y11.776086 Z-0.125000 I1.027161 J-0.409739
G00 Z5.000000

(End cutting path id: path3028)


(Start cutting path id: path3028)
(Change tool to Default tool)

G00 Z5.000000
G00 X26.948482 Y12.155569

G01 Z-0.125000 F100.0(Penetrate)
G01 X26.948482 Y12.155569 Z-0.125000 F400.000000
G00 Z5.000000

(End cutting path id: path3028)


(Start cutting path id: path3026)
(Change tool to Default tool)

G00 Z5.000000
G00 X25.422350 Y12.297815

G01 Z-0.125000 F100.0(Penetrate)
G03 X25.558690 Y12.531582 Z-0.125000 I-0.831639 J0.641675 F400.000000
G03 X25.598375 Y12.715484 Z-0.125000 I-0.468054 J0.197239
G01 X25.561896 Y12.891469 Z-0.125000
G01 X25.446161 Y13.034809 Z-0.125000
G01 X25.278014 Y13.110558 Z-0.125000
G01 X25.097570 Y13.101845 Z-0.125000
G03 X24.930700 Y13.016356 Z-0.125000 I0.145064 J-0.488761
G03 X24.739335 Y12.824748 Z-0.125000 I0.650718 J-0.841256
G03 X24.602423 Y12.590995 Z-0.125000 I0.844557 J-0.651642
G03 X24.561377 Y12.406828 Z-0.125000 I0.476364 J-0.202826
G01 X24.599187 Y12.231071 Z-0.125000
G01 X24.715525 Y12.087754 Z-0.125000
G01 X24.883604 Y12.011860 Z-0.125000
G01 X25.062182 Y12.020467 Z-0.125000
G03 X25.230834 Y12.106472 Z-0.125000 I-0.145927 J0.494521
G03 X25.422350 Y12.297815 Z-0.125000 I-0.643303 J0.835401
G00 Z5.000000

(End cutting path id: path3026)


(Start cutting path id: path3026)
(Change tool to Default tool)

G00 Z5.000000
G00 X25.068459 Y13.251361

G01 Z-0.125000 F100.0(Penetrate)
G02 X25.218249 Y13.291464 Z-0.125000 I0.232556 J-0.568830 F400.000000
G01 X25.352335 Y13.289944 Z-0.125000
G01 X25.483034 Y13.250670 Z-0.125000
G02 X25.624888 Y13.164956 Z-0.125000 I-0.304847 J-0.664749
G02 X25.789215 Y12.964349 Z-0.125000 I-0.349924 J-0.454248
G02 X25.849673 Y12.709584 Z-0.125000 I-0.525781 J-0.259329
G02 X25.801887 Y12.442167 Z-0.125000 I-0.725209 J-0.008387
G02 X25.630745 Y12.137040 Z-0.125000 I-1.123523 J0.429608
G02 X25.379037 Y11.894066 Z-0.125000 I-0.952347 J0.734720
G02 X25.132504 Y11.779986 Z-0.125000 I-0.422440 J0.589486
G02 X24.870764 Y11.773853 Z-0.125000 I-0.144244 J0.567720
G02 X24.634993 Y11.881848 Z-0.125000 I0.115283 J0.563042
G02 X24.515724 Y11.997122 Z-0.125000 I0.455149 J0.590261
G02 X24.444090 Y12.112672 Z-0.125000 I0.386451 J0.319557
G01 X24.409172 Y12.242945 Z-0.125000
G02 X24.410212 Y12.398137 Z-0.125000 I0.618897 J0.073449
G01 X24.268798 Y12.214837 Z-0.125000
G01 X24.066995 Y12.370621 Z-0.125000
G01 X25.376753 Y14.068338 Z-0.125000
G01 X25.578556 Y13.912554 Z-0.125000
G01 X25.068459 Y13.251361 Z-0.125000
G00 Z5.000000

(End cutting path id: path3026)


(Start cutting path id: path3024)
(Change tool to Default tool)

G00 Z5.000000
G00 X24.249646 Y13.272855

G01 Z-0.125000 F100.0(Penetrate)
G01 X24.173888 Y13.174657 Z-0.125000 F400.000000
G01 X23.250831 Y13.886769 Z-0.125000
G03 X23.144525 Y13.659960 Z-0.125000 I0.669112 J-0.451934
G01 X23.131108 Y13.474397 Z-0.125000
G01 X23.197082 Y13.301361 Z-0.125000
G03 X23.359824 Y13.125641 Z-0.125000 I0.603755 J0.395943
G03 X23.480122 Y13.044371 Z-0.125000 I0.698947 J0.904931
G03 X23.605380 Y12.981451 Z-0.125000 I0.545115 J0.929049
G03 X23.738799 Y12.933908 Z-0.125000 I0.459081 J1.077340
G03 X23.887069 Y12.899889 Z-0.125000 I0.376136 J1.299224
G01 X23.740616 Y12.710032 Z-0.125000
G02 X23.599696 Y12.754211 Z-0.125000 I0.390211 J1.491526
G02 X23.465256 Y12.811079 Z-0.125000 I0.518999 J1.414287
G02 X23.337293 Y12.881145 Z-0.125000 I0.606567 J1.259670
G02 X23.216520 Y12.964683 Z-0.125000 I0.742597 J1.202670
G02 X22.981459 Y13.223323 Z-0.125000 I0.611673 J0.792043
G02 X22.884123 Y13.492633 Z-0.125000 I0.566965 J0.357162
G02 X22.909021 Y13.776882 Z-0.125000 I0.661247 J0.085296
G02 X23.069133 Y14.084381 Z-0.125000 I0.939385 J-0.293696
G02 X23.333160 Y14.330378 Z-0.125000 I0.877063 J-0.676659
G02 X23.597614 Y14.435512 Z-0.125000 I0.381227 J-0.573769
G02 X23.880171 Y14.420934 Z-0.125000 I0.108929 J-0.634305
G02 X24.171500 Y14.274728 Z-0.125000 I-0.230455 J-0.822555
G02 X24.363805 Y14.055260 Z-0.125000 I-0.462496 J-0.599241
G02 X24.438120 Y13.814926 Z-0.125000 I-0.486228 J-0.282004
G02 X24.405882 Y13.561659 Z-0.125000 I-0.616152 J-0.050257
G02 X24.249652 Y13.272839 Z-0.125000 I-0.965899 J0.335816
G00 Z5.000000

(End cutting path id: path3024)


(Start cutting path id: path3024)
(Change tool to Default tool)

G00 Z5.000000
G00 X24.094347 Y13.486639

G01 Z-0.125000 F100.0(Penetrate)
G03 X24.186133 Y13.662529 Z-0.125000 I-0.488945 J0.367043 F400.000000
G01 X24.204468 Y13.821138 Z-0.125000
G01 X24.157931 Y13.970521 Z-0.125000
G01 X24.042370 Y14.102836 Z-0.125000
G03 X23.864227 Y14.197387 Z-0.125000 I-0.364640 J-0.471918
G01 X23.699640 Y14.215822 Z-0.125000
G01 X23.541899 Y14.166533 Z-0.125000
G03 X23.377759 Y14.037734 Z-0.125000 I0.317038 J-0.573020
G01 X24.094346 Y13.486636 Z-0.125000
G00 Z5.000000

(End cutting path id: path3024)


(Start cutting path id: path3022)
(Change tool to Default tool)

G00 Z5.000000
G00 X22.253425 Y14.114426

G01 Z-0.125000 F100.0(Penetrate)
G01 X22.590965 Y14.551948 Z-0.125000 F400.000000
G01 X22.230835 Y14.829627 Z-0.125000
G01 X22.370555 Y15.010754 Z-0.125000
G01 X22.948818 Y14.564617 Z-0.125000
G01 X22.409258 Y13.865236 Z-0.125000
G02 X22.214944 Y13.888953 Z-0.125000 I0.048284 J1.203494
G02 X22.021699 Y13.944931 Z-0.125000 I0.256231 J1.246079
G02 X21.840010 Y14.031142 Z-0.125000 I0.479466 J1.245045
G02 X21.657932 Y14.152472 Z-0.125000 I0.782691 J1.371855
G02 X21.352389 Y14.490138 Z-0.125000 I0.784825 J1.017232
G02 X21.231737 Y14.836329 Z-0.125000 I0.706579 J0.440371
G02 X21.271452 Y15.202715 Z-0.125000 I0.853262 J0.092855
G02 X21.496591 Y15.624067 Z-0.125000 I1.367088 J-0.459642
G02 X21.847890 Y15.949579 Z-0.125000 I1.144671 J-0.883035
G02 X22.191329 Y16.080158 Z-0.125000 I0.467045 J-0.711451
G02 X22.557649 Y16.051990 Z-0.125000 I0.120878 J-0.824051
G02 X22.961797 Y15.842551 Z-0.125000 I-0.376742 J-1.221644
G02 X23.111801 Y15.710464 Z-0.125000 I-0.959038 J-1.240348
G02 X23.233723 Y15.570108 Z-0.125000 I-0.942576 J-0.941912
G02 X23.335408 Y15.413157 Z-0.125000 I-1.029374 J-0.778322
G02 X23.409629 Y15.249908 Z-0.125000 I-1.039844 J-0.571260
G01 X23.228653 Y15.015327 Z-0.125000
G03 X23.171110 Y15.207144 Z-0.125000 I-1.207225 J-0.257614
G03 X23.089346 Y15.371688 Z-0.125000 I-0.967855 J-0.378351
G03 X22.979466 Y15.518620 Z-0.125000 I-0.847867 J-0.519510
G03 X22.840615 Y15.647123 Z-0.125000 I-0.784745 J-0.708667
G03 X22.525421 Y15.810977 Z-0.125000 I-0.612794 J-0.793701
G03 X22.262303 Y15.826987 Z-0.125000 I-0.164191 J-0.528299
G03 X22.016473 Y15.722292 Z-0.125000 I0.112049 J-0.604055
G03 X21.728989 Y15.444775 Z-0.125000 I0.800356 J-1.116764
G03 X21.534278 Y15.097385 Z-0.125000 I1.082282 J-0.834878
G03 X21.495472 Y14.833015 Z-0.125000 I0.574706 J-0.219393
G03 X21.577750 Y14.582597 Z-0.125000 I0.551322 J0.042418
G03 X21.816209 Y14.319281 Z-0.125000 I0.851950 J0.531894
G03 X21.936574 Y14.235107 Z-0.125000 I0.948616 J1.228316
G03 X22.039755 Y14.178146 Z-0.125000 I0.537640 J0.851973
G03 X22.149787 Y14.136411 Z-0.125000 I0.343597 J0.739969
G03 X22.253330 Y14.114325 Z-0.125000 I0.189197 J0.633207
G00 Z5.000000

(End cutting path id: path3022)


(Start cutting path id: path3020)
(Change tool to Default tool)

G00 Z5.000000
G00 X19.767083 Y17.212870

G01 Z-0.125000 F100.0(Penetrate)
G02 X19.950068 Y17.268061 Z-0.125000 I0.334722 J-0.778827 F400.000000
G02 X20.101150 Y17.273648 Z-0.125000 I0.094942 J-0.521850
G02 X20.246966 Y17.235811 Z-0.125000 I-0.054105 J-0.508405
G02 X20.397398 Y17.147788 Z-0.125000 I-0.267625 J-0.629925
G02 X20.541046 Y16.977224 Z-0.125000 I-0.321135 J-0.416231
G01 X20.588454 Y16.786314 Z-0.125000
G02 X20.549440 Y16.586760 Z-0.125000 I-0.518004 J-0.002318
G02 X20.399177 Y16.326651 Z-0.125000 I-1.045434 J0.430482
G01 X19.830158 Y15.589084 Z-0.125000
G01 X19.628355 Y15.744867 Z-0.125000
G01 X20.192325 Y16.475890 Z-0.125000
G03 X20.302937 Y16.660407 Z-0.125000 I-0.729646 J0.562811
G01 X20.331311 Y16.784636 Z-0.125000
G01 X20.303267 Y16.902740 Z-0.125000
G01 X20.207119 Y17.016204 Z-0.125000
G01 X20.041923 Y17.097619 Z-0.125000
G01 X19.880570 Y17.102787 Z-0.125000
G01 X19.728813 Y17.038699 Z-0.125000
G03 X19.571998 Y16.890062 Z-0.125000 I0.397012 J-0.575894
G01 X19.039173 Y16.199409 Z-0.125000
G01 X18.837369 Y16.355193 Z-0.125000
G01 X19.401340 Y17.086215 Z-0.125000
G03 X19.512603 Y17.271804 Z-0.125000 I-0.733025 J0.565602
G01 X19.540326 Y17.394961 Z-0.125000
G01 X19.512044 Y17.512952 Z-0.125000
G01 X19.413953 Y17.628214 Z-0.125000
G01 X19.251018 Y17.707814 Z-0.125000
G01 X19.088744 Y17.712022 Z-0.125000
G01 X18.936938 Y17.648014 Z-0.125000
G03 X18.781013 Y17.500388 Z-0.125000 I0.392500 J-0.570723
G01 X18.248189 Y16.809736 Z-0.125000
G01 X18.046386 Y16.965520 Z-0.125000
G01 X18.989141 Y18.187527 Z-0.125000
G01 X19.190944 Y18.031743 Z-0.125000
G01 X19.044490 Y17.841887 Z-0.125000
G02 X19.202031 Y17.881807 Z-0.125000 I0.249200 J-0.652633
G01 X19.337189 Y17.880628 Z-0.125000
G01 X19.466861 Y17.842224 Z-0.125000
G02 X19.606470 Y17.758165 Z-0.125000 I-0.293602 J-0.645596
G02 X19.719154 Y17.641543 Z-0.125000 I-0.341142 J-0.442373
G01 X19.780135 Y17.516277 Z-0.125000
G01 X19.797423 Y17.376649 Z-0.125000
G02 X19.767188 Y17.212982 Z-0.125000 I-0.595784 J0.025435
G00 Z5.000000

(End cutting path id: path3020)


(Start cutting path id: path3018)
(Change tool to Default tool)

G00 Z5.000000
G00 X16.981093 Y18.544527

G01 Z-0.125000 F100.0(Penetrate)
G01 X17.551796 Y19.284278 Z-0.125000 F400.000000
G01 X17.752504 Y19.129331 Z-0.125000
G01 X17.187691 Y18.397219 Z-0.125000
G03 X17.080661 Y18.214631 Z-0.125000 I0.662076 J-0.510759
G01 X17.054160 Y18.084263 Z-0.125000
G01 X17.086830 Y17.961537 Z-0.125000
G01 X17.190603 Y17.841503 Z-0.125000
G03 X17.362689 Y17.755113 Z-0.125000 I0.307304 J0.397549
G01 X17.526972 Y17.747345 Z-0.125000
G01 X17.682606 Y17.809674 Z-0.125000
G03 X17.839909 Y17.956703 Z-0.125000 I-0.371085 J0.554678
G01 X18.374419 Y18.649535 Z-0.125000
G01 X18.575126 Y18.494588 Z-0.125000
G01 X17.632370 Y17.272578 Z-0.125000
G01 X17.431662 Y17.427526 Z-0.125000
G01 X17.576443 Y17.615191 Z-0.125000
G02 X17.415761 Y17.578600 Z-0.125000 I-0.248141 J0.718580
G02 X17.278289 Y17.580659 Z-0.125000 I-0.060880 J0.525665
G01 X17.148499 Y17.618793 Z-0.125000
G02 X17.013373 Y17.699755 Z-0.125000 I0.275897 J0.613717
G02 X16.849831 Y17.886428 Z-0.125000 I0.391532 J0.507990
G01 X16.794697 Y18.077316 Z-0.125000
G01 X16.829465 Y18.278700 Z-0.125000
G02 X16.981042 Y18.544459 Z-0.125000 I1.027161 J-0.409739
G00 Z5.000000

(End cutting path id: path3018)


(Start cutting path id: path3018)
(Change tool to Default tool)

G00 Z5.000000
G00 X18.079643 Y18.923941

G01 Z-0.125000 F100.0(Penetrate)
G01 X18.079643 Y18.923941 Z-0.125000 F400.000000
G00 Z5.000000

(End cutting path id: path3018)


(Start cutting path id: path3016)
(Change tool to Default tool)

G00 Z5.000000
G00 X16.306515 Y20.235185

G01 Z-0.125000 F100.0(Penetrate)
G01 X17.260125 Y19.499508 Z-0.125000 F400.000000
G01 X17.118711 Y19.316208 Z-0.125000
G01 X15.686078 Y19.020379 Z-0.125000
G01 X16.441103 Y18.437888 Z-0.125000
G01 X16.317357 Y18.277507 Z-0.125000
G01 X15.336481 Y19.034242 Z-0.125000
G01 X15.477895 Y19.217542 Z-0.125000
G01 X16.910528 Y19.513371 Z-0.125000
G01 X16.182770 Y20.074804 Z-0.125000
G01 X16.306517 Y20.235187 Z-0.125000
G00 Z5.000000

(End cutting path id: path3016)


(Start cutting path id: path3014)
(Change tool to Default tool)

G00 Z5.000000
G00 X14.911856 Y20.399113

G01 Z-0.125000 F100.0(Penetrate)
G01 X14.836099 Y20.300915 Z-0.125000 F400.000000
G01 X13.913042 Y21.013026 Z-0.125000
G03 X13.806736 Y20.786218 Z-0.125000 I0.669114 J-0.451936
G01 X13.793318 Y20.600655 Z-0.125000
G01 X13.859293 Y20.427618 Z-0.125000
G03 X14.022034 Y20.251899 Z-0.125000 I0.603755 J0.395944
G03 X14.142333 Y20.170629 Z-0.125000 I0.698949 J0.904934
G03 X14.267591 Y20.107709 Z-0.125000 I0.545111 J0.929041
G03 X14.401010 Y20.060166 Z-0.125000 I0.459081 J1.077340
G03 X14.549280 Y20.026147 Z-0.125000 I0.376136 J1.299224
G01 X14.402827 Y19.836290 Z-0.125000
G02 X14.261907 Y19.880469 Z-0.125000 I0.390212 J1.491529
G02 X14.127467 Y19.937337 Z-0.125000 I0.519000 J1.414291
G02 X13.999504 Y20.007403 Z-0.125000 I0.606567 J1.259669
G02 X13.878730 Y20.090941 Z-0.125000 I0.742600 J1.202673
G02 X13.643670 Y20.349581 Z-0.125000 I0.611673 J0.792043
G02 X13.546334 Y20.618891 Z-0.125000 I0.566965 J0.357162
G02 X13.571232 Y20.903140 Z-0.125000 I0.661247 J0.085296
G02 X13.731344 Y21.210639 Z-0.125000 I0.939385 J-0.293696
G02 X13.995371 Y21.456636 Z-0.125000 I0.877063 J-0.676659
G02 X14.259825 Y21.561770 Z-0.125000 I0.381227 J-0.573769
G02 X14.542382 Y21.547192 Z-0.125000 I0.108929 J-0.634305
G02 X14.833711 Y21.400985 Z-0.125000 I-0.230455 J-0.822555
G02 X15.026016 Y21.181518 Z-0.125000 I-0.462496 J-0.599241
G02 X15.100330 Y20.941184 Z-0.125000 I-0.486228 J-0.282004
G02 X15.068093 Y20.687917 Z-0.125000 I-0.616153 J-0.050257
G02 X14.911863 Y20.399097 Z-0.125000 I-0.965893 J0.335813
G00 Z5.000000

(End cutting path id: path3014)


(Start cutting path id: path3014)
(Change tool to Default tool)

G00 Z5.000000
G00 X14.756558 Y20.612896

G01 Z-0.125000 F100.0(Penetrate)
G03 X14.848344 Y20.788787 Z-0.125000 I-0.488945 J0.367043 F400.000000
G01 X14.866679 Y20.947396 Z-0.125000
G01 X14.820142 Y21.096778 Z-0.125000
G01 X14.704581 Y21.229094 Z-0.125000
G03 X14.526438 Y21.323645 Z-0.125000 I-0.364640 J-0.471918
G01 X14.361851 Y21.342080 Z-0.125000
G01 X14.204110 Y21.292791 Z-0.125000
G03 X14.039970 Y21.163992 Z-0.125000 I0.317041 J-0.573024
G01 X14.756557 Y20.612894 Z-0.125000
G00 Z5.000000

(End cutting path id: path3014)


(Start cutting path id: path3012)
(Change tool to Default tool)

G00 Z5.000000
G00 X13.884755 Y22.632247

G01 Z-0.125000 F100.0(Penetrate)
G01 X13.617087 Y22.285279 Z-0.125000 F400.000000
G01 X14.030552 Y21.966188 Z-0.125000
G01 X13.910173 Y21.810171 Z-0.125000
G01 X13.496708 Y22.129263 Z-0.125000
G01 X12.984926 Y21.465887 Z-0.125000
G03 X12.889123 Y21.310848 Z-0.125000 I0.698161 J-0.538531
G01 X12.877148 Y21.242712 Z-0.125000
G01 X12.903620 Y21.178258 Z-0.125000
G03 X13.011255 Y21.071373 Z-0.125000 I0.479838 J0.375566
G01 X13.217440 Y20.912245 Z-0.125000
G01 X13.087820 Y20.744213 Z-0.125000
G01 X12.881635 Y20.903341 Z-0.125000
G02 X12.683561 Y21.102630 Z-0.125000 I0.658327 J0.852388
G01 X12.627355 Y21.237009 Z-0.125000
G01 X12.645588 Y21.381974 Z-0.125000
G02 X12.783085 Y21.621604 Z-0.125000 I0.943099 J-0.381879
G01 X13.294869 Y22.284978 Z-0.125000
G01 X13.147496 Y22.398513 Z-0.125000
G01 X13.267875 Y22.554529 Z-0.125000
G01 X13.415248 Y22.440994 Z-0.125000
G01 X13.682916 Y22.787962 Z-0.125000
G01 X13.884719 Y22.632178 Z-0.125000
G00 Z5.000000

(End cutting path id: path3012)


(Start cutting path id: path3010)
(Change tool to Default tool)

G00 Z5.000000
G00 X11.402957 Y22.801555

G01 Z-0.125000 F100.0(Penetrate)
G01 X11.973661 Y23.541306 Z-0.125000 F400.000000
G01 X12.174369 Y23.386358 Z-0.125000
G01 X11.609556 Y22.654246 Z-0.125000
G03 X11.502527 Y22.471659 Z-0.125000 I0.662076 J-0.510759
G01 X11.476025 Y22.341291 Z-0.125000
G01 X11.508695 Y22.218565 Z-0.125000
G01 X11.612468 Y22.098531 Z-0.125000
G03 X11.784554 Y22.012141 Z-0.125000 I0.307304 J0.397549
G01 X11.948837 Y22.004373 Z-0.125000
G01 X12.104471 Y22.066702 Z-0.125000
G03 X12.261774 Y22.213730 Z-0.125000 I-0.371083 J0.554676
G01 X12.796281 Y22.906565 Z-0.125000
G01 X12.996989 Y22.751617 Z-0.125000
G01 X12.054232 Y21.529608 Z-0.125000
G01 X11.853525 Y21.684556 Z-0.125000
G01 X11.998305 Y21.872220 Z-0.125000
G02 X11.837624 Y21.835630 Z-0.125000 I-0.248141 J0.718578
G02 X11.700151 Y21.837689 Z-0.125000 I-0.060879 J0.525664
G01 X11.570362 Y21.875823 Z-0.125000
G02 X11.435235 Y21.956785 Z-0.125000 I0.275896 J0.613715
G02 X11.271694 Y22.143458 Z-0.125000 I0.391532 J0.507990
G01 X11.216559 Y22.334346 Z-0.125000
G01 X11.251327 Y22.535729 Z-0.125000
G02 X11.402904 Y22.801489 Z-0.125000 I1.027159 J-0.409737
G00 Z5.000000

(End cutting path id: path3010)


(Start cutting path id: path3010)
(Change tool to Default tool)

G00 Z5.000000
G00 X12.501506 Y23.180971

G01 Z-0.125000 F100.0(Penetrate)
G01 X12.501506 Y23.180971 Z-0.125000 F400.000000
G00 Z5.000000

(End cutting path id: path3010)


(Start cutting path id: path3008)
(Change tool to Default tool)

G00 Z5.000000
G00 X10.610766 Y22.999676

G01 Z-0.125000 F100.0(Penetrate)
G01 X10.948306 Y23.437198 Z-0.125000 F400.000000
G01 X10.588176 Y23.714876 Z-0.125000
G01 X10.727897 Y23.896004 Z-0.125000
G01 X11.306159 Y23.449867 Z-0.125000
G01 X10.766599 Y22.750486 Z-0.125000
G02 X10.572285 Y22.774202 Z-0.125000 I0.048284 J1.203494
G02 X10.379041 Y22.830181 Z-0.125000 I0.256231 J1.246079
G02 X10.197351 Y22.916391 Z-0.125000 I0.479466 J1.245045
G02 X10.015273 Y23.037722 Z-0.125000 I0.782691 J1.371855
G02 X9.709730 Y23.375388 Z-0.125000 I0.784825 J1.017232
G02 X9.589079 Y23.721579 Z-0.125000 I0.706579 J0.440371
G02 X9.628793 Y24.087965 Z-0.125000 I0.853262 J0.092855
G02 X9.853932 Y24.509317 Z-0.125000 I1.367088 J-0.459642
G02 X10.205231 Y24.834828 Z-0.125000 I1.144672 J-0.883035
G02 X10.548670 Y24.965408 Z-0.125000 I0.467046 J-0.711452
G02 X10.914990 Y24.937240 Z-0.125000 I0.120878 J-0.824053
G02 X11.319139 Y24.727801 Z-0.125000 I-0.376742 J-1.221644
G02 X11.469142 Y24.595714 Z-0.125000 I-0.959038 J-1.240348
G02 X11.591064 Y24.455358 Z-0.125000 I-0.942575 J-0.941912
G02 X11.692749 Y24.298407 Z-0.125000 I-1.029373 J-0.778321
G02 X11.766970 Y24.135158 Z-0.125000 I-1.039835 J-0.571254
G01 X11.585994 Y23.900577 Z-0.125000
G03 X11.528451 Y24.092393 Z-0.125000 I-1.207225 J-0.257614
G03 X11.446687 Y24.256937 Z-0.125000 I-0.967855 J-0.378351
G03 X11.336807 Y24.403870 Z-0.125000 I-0.847873 J-0.519514
G03 X11.197956 Y24.532373 Z-0.125000 I-0.784743 J-0.708665
G03 X10.882762 Y24.696227 Z-0.125000 I-0.612794 J-0.793701
G03 X10.619644 Y24.712237 Z-0.125000 I-0.164191 J-0.528299
G03 X10.373814 Y24.607542 Z-0.125000 I0.112049 J-0.604056
G03 X10.086330 Y24.330025 Z-0.125000 I0.800351 J-1.116759
G03 X9.891619 Y23.982635 Z-0.125000 I1.082282 J-0.834878
G03 X9.852813 Y23.718265 Z-0.125000 I0.574706 J-0.219393
G03 X9.935091 Y23.467847 Z-0.125000 I0.551322 J0.042418
G03 X10.173550 Y23.204531 Z-0.125000 I0.851950 J0.531894
G03 X10.293915 Y23.120356 Z-0.125000 I0.948616 J1.228316
G03 X10.397096 Y23.063396 Z-0.125000 I0.537640 J0.851973
G03 X10.507127 Y23.021661 Z-0.125000 I0.343599 J0.739975
G03 X10.610671 Y22.999575 Z-0.125000 I0.189197 J0.633206
G00 Z5.000000

(End cutting path id: path3008)


(Start cutting path id: path3006)
(Change tool to Default tool)

G00 Z5.000000
G00 X9.121828 Y25.653863

G01 Z-0.125000 F100.0(Penetrate)
G01 X8.975375 Y25.464006 Z-0.125000 F400.000000
G03 X8.917835 Y25.569480 Z-0.125000 I-0.913224 J-0.429774
G03 X8.849126 Y25.665835 Z-0.125000 I-0.830030 J-0.519200
G03 X8.769340 Y25.753278 Z-0.125000 I-0.772997 J-0.625180
G03 X8.676113 Y25.834120 Z-0.125000 I-0.752115 J-0.773177
G03 X8.519411 Y25.931575 Z-0.125000 I-0.564107 J-0.732336
G01 X8.415997 Y25.961694 Z-0.125000
G01 X8.318011 Y25.946133 Z-0.125000
G01 X8.235743 Y25.881457 Z-0.125000
G01 X8.201799 Y25.807691 Z-0.125000
G01 X8.204189 Y25.730012 Z-0.125000
G01 X8.238313 Y25.655297 Z-0.125000
G03 X8.361052 Y25.488905 Z-0.125000 I1.475621 J0.960029
G01 X8.418000 Y25.420593 Z-0.125000
G02 X8.571898 Y25.198470 Z-0.125000 I-1.068222 J-0.904490
G01 X8.621151 Y25.056748 Z-0.125000
G01 X8.612978 Y24.912557 Z-0.125000
G01 X8.532420 Y24.754484 Z-0.125000
G01 X8.379167 Y24.630294 Z-0.125000
G01 X8.189214 Y24.589364 Z-0.125000
G02 X7.991571 Y24.630975 Z-0.125000 I0.010926 J0.542086
G02 X7.742740 Y24.775429 Z-0.125000 I0.423249 J1.015611
G02 X7.648600 Y24.855567 Z-0.125000 I0.813438 J1.050923
G02 X7.552770 Y24.953318 Z-0.125000 I1.073538 J1.148303
G02 X7.465231 Y25.056677 Z-0.125000 I1.335586 J1.219914
G02 X7.372871 Y25.182613 Z-0.125000 I1.891490 J1.484025
G01 X7.532812 Y25.389911 Z-0.125000
G03 X7.606315 Y25.250326 Z-0.125000 I1.425660 J0.661587
G03 X7.684779 Y25.133433 Z-0.125000 I1.076908 J0.638083
G03 X7.777151 Y25.027974 Z-0.125000 I0.889779 J0.686184
G03 X7.876745 Y24.940083 Z-0.125000 I0.715042 J0.709874
G03 X8.025821 Y24.848945 Z-0.125000 I0.495330 J0.642726
G01 X8.131998 Y24.819742 Z-0.125000
G01 X8.234637 Y24.836347 Z-0.125000
G01 X8.314432 Y24.898294 Z-0.125000
G01 X8.355955 Y24.984600 Z-0.125000
G01 X8.355588 Y25.066697 Z-0.125000
G01 X8.321387 Y25.145668 Z-0.125000
G03 X8.179274 Y25.336735 Z-0.125000 I-1.633239 J-1.066394
G01 X8.122075 Y25.406979 Z-0.125000
G02 X7.989336 Y25.600816 Z-0.125000 I0.846771 J0.722236
G01 X7.945172 Y25.734909 Z-0.125000
G01 X7.956686 Y25.872347 Z-0.125000
G01 X8.034807 Y26.022552 Z-0.125000
G01 X8.188879 Y26.151936 Z-0.125000
G01 X8.362395 Y26.194500 Z-0.125000
G01 X8.544648 Y26.158004 Z-0.125000
G02 X8.781748 Y26.020658 Z-0.125000 I-0.398466 J-0.961200
G02 X8.889323 Y25.930727 Z-0.125000 I-1.116465 J-1.444814
G02 X8.978601 Y25.842665 Z-0.125000 I-0.959101 J-1.061624
G02 X9.059153 Y25.746779 Z-0.125000 I-0.923570 J-0.857654
G02 X9.121840 Y25.653836 Z-0.125000 I-0.803313 J-0.609426
G00 Z5.000000

(End cutting path id: path3006)


(Start cutting path id: path3004)
(Change tool to Default tool)

G00 Z5.000000
G00 X7.602878 Y25.977056

G01 Z-0.125000 F100.0(Penetrate)
G01 X7.527121 Y25.878859 Z-0.125000 F400.000000
G01 X6.604064 Y26.590970 Z-0.125000
G03 X6.497758 Y26.364162 Z-0.125000 I0.669114 J-0.451936
G01 X6.484340 Y26.178599 Z-0.125000
G01 X6.550315 Y26.005562 Z-0.125000
G03 X6.713056 Y25.829843 Z-0.125000 I0.603755 J0.395944
G03 X6.833355 Y25.748573 Z-0.125000 I0.698949 J0.904934
G03 X6.958613 Y25.685653 Z-0.125000 I0.545111 J0.929041
G03 X7.092032 Y25.638110 Z-0.125000 I0.459081 J1.077340
G03 X7.240302 Y25.604090 Z-0.125000 I0.376136 J1.299224
G01 X7.093849 Y25.414234 Z-0.125000
G02 X6.952929 Y25.458413 Z-0.125000 I0.390212 J1.491529
G02 X6.818489 Y25.515281 Z-0.125000 I0.519000 J1.414291
G02 X6.690526 Y25.585347 Z-0.125000 I0.606567 J1.259669
G02 X6.569752 Y25.668885 Z-0.125000 I0.742600 J1.202673
G02 X6.334692 Y25.927525 Z-0.125000 I0.611673 J0.792043
G02 X6.237356 Y26.196835 Z-0.125000 I0.566965 J0.357162
G02 X6.262253 Y26.481084 Z-0.125000 I0.661247 J0.085296
G02 X6.422366 Y26.788583 Z-0.125000 I0.939385 J-0.293696
G02 X6.686393 Y27.034580 Z-0.125000 I0.877063 J-0.676659
G02 X6.950846 Y27.139714 Z-0.125000 I0.381227 J-0.573769
G02 X7.233404 Y27.125136 Z-0.125000 I0.108929 J-0.634305
G02 X7.524733 Y26.978929 Z-0.125000 I-0.230455 J-0.822555
G02 X7.717038 Y26.759462 Z-0.125000 I-0.462496 J-0.599241
G02 X7.791352 Y26.519128 Z-0.125000 I-0.486228 J-0.282004
G02 X7.759115 Y26.265861 Z-0.125000 I-0.616153 J-0.050257
G02 X7.602884 Y25.977041 Z-0.125000 I-0.965893 J0.335813
G00 Z5.000000

(End cutting path id: path3004)


(Start cutting path id: path3004)
(Change tool to Default tool)

G00 Z5.000000
G00 X7.447580 Y26.190840

G01 Z-0.125000 F100.0(Penetrate)
G03 X7.539366 Y26.366731 Z-0.125000 I-0.488945 J0.367043 F400.000000
G01 X7.557700 Y26.525340 Z-0.125000
G01 X7.511164 Y26.674722 Z-0.125000
G01 X7.395603 Y26.807037 Z-0.125000
G03 X7.217460 Y26.901589 Z-0.125000 I-0.364640 J-0.471918
G01 X7.052873 Y26.920024 Z-0.125000
G01 X6.895132 Y26.870734 Z-0.125000
G03 X6.730991 Y26.741936 Z-0.125000 I0.317041 J-0.573024
G01 X7.447578 Y26.190838 Z-0.125000
G00 Z5.000000

(End cutting path id: path3004)


(Start cutting path id: path3002)
(Change tool to Default tool)

G00 Z5.000000
G00 X6.735058 Y28.294835

G01 Z-0.125000 F100.0(Penetrate)
G01 X6.935766 Y28.139887 Z-0.125000 F400.000000
G01 X5.626006 Y26.442168 Z-0.125000
G01 X5.425299 Y26.597116 Z-0.125000
G01 X6.735057 Y28.294833 Z-0.125000
G00 Z5.000000

(End cutting path id: path3002)


(Start cutting path id: path3000)
(Change tool to Default tool)

G00 Z5.000000
G00 X6.112831 Y28.769696

G01 Z-0.125000 F100.0(Penetrate)
G01 X6.313539 Y28.614748 Z-0.125000 F400.000000
G01 X5.003779 Y26.917029 Z-0.125000
G01 X4.803071 Y27.071977 Z-0.125000
G01 X6.112829 Y28.769694 Z-0.125000
G00 Z5.000000

(End cutting path id: path3000)


(Start cutting path id: path2998)
(Change tool to Default tool)

G00 Z5.000000
G00 X4.911812 Y29.227500

G01 Z-0.125000 F100.0(Penetrate)
G01 X3.987437 Y28.647466 Z-0.125000 F400.000000
G01 X4.586445 Y28.185355 Z-0.125000
G01 X4.911817 Y29.227507 Z-0.125000
G00 Z5.000000

(End cutting path id: path2998)


(Start cutting path id: path2998)
(Change tool to Default tool)

G00 Z5.000000
G00 X4.954941 Y29.540590

G01 Z-0.125000 F100.0(Penetrate)
G01 X5.204773 Y29.347797 Z-0.125000 F400.000000
G01 X4.568869 Y27.239865 Z-0.125000
G01 X4.339680 Y27.416549 Z-0.125000
G01 X4.513683 Y27.948910 Z-0.125000
G01 X3.779386 Y28.515405 Z-0.125000
G01 X3.308611 Y28.212000 Z-0.125000
G01 X3.076135 Y28.391193 Z-0.125000
G01 X4.954779 Y29.540377 Z-0.125000
G00 Z5.000000

(End cutting path id: path2998)


(Footer)
M5
G00 X0.0000 Y0.0000
M2
(Using default footer. To add your own footer create file "footer" in the output dir.)
(end)
%