%
(Header)
(Generated by gcodetools from Inkscape.)
(Using default header. To add your own header create file "header" in the output dir.)
M3
(Header end.)
G21 (All units in mm)

(Start cutting path id: path3000)
(Change tool to Default tool)

G00 Z5.000000
G00 X166.706085 Y179.966127

G01 Z-0.125000 F100.0(Penetrate)
G02 X165.990524 Y178.095474 Z-0.125000 I-3.283787 J0.183927 F400.000000
G02 X164.721710 Y177.485659 Z-0.125000 I-1.268795 J1.015036
G02 X163.549559 Y178.020072 Z-0.125000 I-0.000019 J1.552631
G02 X163.015146 Y179.450188 Z-0.125000 I1.646266 J1.430093
G03 X163.007064 Y179.826963 Z-0.125000 I-8.808831 J-0.000495
G03 X162.955617 Y180.839252 Z-0.125000 I-63.797652 J-2.734868
G01 X162.896085 Y182.506127 Z-0.125000
G03 X159.889075 Y181.805315 Z-0.125000 I1.690051 J-14.053162
G03 X157.875617 Y180.740034 Z-0.125000 I2.556532 J-7.267461
G03 X156.359187 Y179.247609 Z-0.125000 I4.294760 J-5.880461
G03 X154.938742 Y176.850659 Z-0.125000 I9.965537 J-7.524987
G01 X154.978428 Y165.976284 Z-0.125000
G02 X154.397284 Y164.553203 Z-0.125000 I-2.032983 J0.000009
G02 X153.013896 Y163.972063 Z-0.125000 I-1.383392 J1.355998
G02 X151.813755 Y164.518176 Z-0.125000 I0.000004 J1.591784
G02 X151.267646 Y165.976284 Z-0.125000 I1.673504 J1.458103
G01 X151.267646 Y179.906595 Z-0.125000
G02 X151.274259 Y180.561315 Z-0.125000 I32.392204 J0.000209
G02 X151.307335 Y181.871127 Z-0.125000 I129.963081 J-2.626544
G03 X151.356948 Y183.181014 Z-0.125000 I-86.584725 J3.935326
G03 X151.366867 Y183.835659 Z-0.125000 I-21.606628 J0.654785
G02 X151.912968 Y185.293750 Z-0.125000 I2.219589 J0.000005
G02 X153.113117 Y185.839877 Z-0.125000 I1.200176 J-1.045696
G02 X154.356094 Y185.133916 Z-0.125000 I-0.000022 J-1.447267
G02 X155.077646 Y182.545813 Z-0.125000 I-4.391313 J-2.618913
G02 X159.246693 Y185.326754 Z-0.125000 I9.788438 J-10.158854
G02 X163.531085 Y186.216909 Z-0.125000 I4.284471 J-9.865867
G02 X164.955469 Y185.878160 Z-0.125000 I-0.000067 J-3.164298
G02 X165.932178 Y185.006438 Z-0.125000 I-1.138864 J-2.259059
G02 X166.471830 Y183.720072 Z-0.125000 I-3.202485 J-2.099875
G02 X166.725928 Y181.355188 Z-0.125000 I-10.878986 J-2.365000
G02 X166.718547 Y180.323497 Z-0.125000 I-72.352863 J0.001781
G02 X166.706088 Y179.966127 Z-0.125000 I-8.694025 J0.124196
G00 Z5.000000

(End cutting path id: path3000)


(Start cutting path id: path2998)
(Change tool to Default tool)

G00 Z5.000000
G00 X146.346396 Y176.890345

G01 Z-0.125000 F100.0(Penetrate)
G03 X146.349692 Y175.461591 Z-0.125000 I307.313602 J-0.005464 F400.000000
G03 X146.366236 Y172.604095 Z-0.125000 I1233.465199 J5.712733
G02 X146.382751 Y169.746578 Z-0.125000 I-1238.236061 J-8.585077
G02 X146.386077 Y168.317845 Z-0.125000 I-310.871940 J-1.437944
G03 X146.395821 Y167.881605 Z-0.125000 I9.740564 J-0.000661
G03 X146.445609 Y166.988313 Z-0.125000 I40.832242 J1.827769
G02 X146.511966 Y166.094767 Z-0.125000 I-30.784508 J-2.735386
G02 X146.524984 Y165.658784 Z-0.125000 I-7.311060 J-0.436480
G02 X146.368741 Y164.873500 Z-0.125000 I-2.051919 J0.000071
G02 X145.949513 Y164.269720 Z-0.125000 I-1.597680 J0.661899
G02 X145.314593 Y163.861201 Z-0.125000 I-1.345716 J1.393855
G02 X144.540609 Y163.714095 Z-0.125000 I-0.773995 J1.962628
G02 X143.387722 Y164.181175 Z-0.125000 I0.000005 J1.656377
G02 X142.595920 Y165.599252 Z-0.125000 I1.965481 J2.027549
G02 X140.029650 Y164.660322 Z-0.125000 I-4.908728 J9.439950
G02 X136.880920 Y164.309409 Z-0.125000 I-3.148730 J13.951280
G02 X134.381720 Y164.637642 Z-0.125000 I0.000000 J9.678703
G02 X132.574827 Y165.460345 Z-0.125000 I1.550440 J5.800793
G02 X131.112605 Y166.996468 Z-0.125000 I2.749350 J4.081080
G02 X130.332484 Y169.171127 Z-0.125000 I4.998107 J3.020243
G02 X129.727478 Y174.442070 Z-0.125000 I82.438550 J12.132590
G02 X129.558577 Y178.537377 Z-0.125000 I49.563116 J4.095256
G02 X129.688445 Y181.244895 Z-0.125000 I28.287508 J0.000044
G02 X130.153888 Y184.728627 Z-0.125000 I47.341257 J-4.552058
G02 X130.831558 Y185.985658 Z-0.125000 I2.144944 J-0.345164
G02 X132.039045 Y186.455034 Z-0.125000 I1.207524 J-1.318561
G02 X132.832215 Y186.306218 Z-0.125000 I-0.000087 J-2.188620
G02 X133.467795 Y185.899409 Z-0.125000 I-0.693610 J-1.783569
G02 X133.887036 Y185.295601 Z-0.125000 I-1.178549 J-1.265751
G02 X134.043263 Y184.510345 Z-0.125000 I-1.895491 J-0.785276
G02 X133.996980 Y183.600925 Z-0.125000 I-8.959473 J0.000083
G02 X133.745609 Y181.593313 Z-0.125000 I-44.004554 J4.490230
G03 X133.515347 Y179.585793 Z-0.125000 I42.516048 J-5.893527
G03 X133.467795 Y178.537377 Z-0.125000 I11.531612 J-1.048323
G03 X133.531439 Y175.226394 Z-0.125000 I86.143753 J-0.000220
G03 X133.686077 Y172.862063 Z-0.125000 I44.064571 J1.694786
G03 X133.996316 Y170.518754 Z-0.125000 I29.833508 J2.757578
G03 X134.340920 Y169.071909 Z-0.125000 I11.688870 J2.019546
G03 X135.009254 Y168.746545 Z-0.125000 I3.844678 J7.048295
G03 X135.630763 Y168.516284 Z-0.125000 I2.525408 J5.862558
G03 X136.271722 Y168.380981 Z-0.125000 I1.341817 J4.770641
G03 X136.880920 Y168.337688 Z-0.125000 I0.609168 J4.264122
G03 X139.511861 Y168.536424 Z-0.125000 I0.000028 J17.513746
G03 X142.496702 Y169.190970 Z-0.125000 I-3.529066 J23.226077
G01 X142.476861 Y173.219252 Z-0.125000
G01 X142.437173 Y177.068938 Z-0.125000
G02 X142.545513 Y181.348715 Z-0.125000 I84.569519 J0.000418
G02 X142.814205 Y184.510345 Z-0.125000 I46.395841 J-2.350718
G02 X143.478606 Y185.833289 Z-0.125000 I2.164602 J-0.258788
G02 X144.739048 Y186.335970 Z-0.125000 I1.260473 J-1.328975
G02 X145.532199 Y186.187160 Z-0.125000 I-0.000076 J-2.188538
G02 X146.167798 Y185.780345 Z-0.125000 I-0.693653 J-1.783678
G02 X146.579348 Y185.159674 Z-0.125000 I-1.199290 J-1.241996
G02 X146.703580 Y184.391284 Z-0.125000 I-1.759701 J-0.678742
G01 X146.346391 Y176.890345 Z-0.125000
G00 Z5.000000

(End cutting path id: path2998)


(Start cutting path id: path2996)
(Change tool to Default tool)

G00 Z5.000000
G00 X123.268117 Y164.071284

G01 Z-0.125000 F100.0(Penetrate)
G02 X122.157008 Y164.467542 Z-0.125000 I0.000000 J1.755906 F400.000000
G02 X121.422646 Y165.579409 Z-0.125000 I1.417675 J1.734789
G02 X121.045009 Y167.222508 Z-0.125000 I17.069904 J4.788156
G02 X120.589210 Y170.203002 Z-0.125000 I55.802084 J10.058769
G02 X120.301535 Y173.084634 Z-0.125000 I59.842441 J7.429272
G02 X120.232021 Y174.925813 Z-0.125000 I24.340861 J1.840899
G02 X120.238537 Y175.441614 Z-0.125000 I20.352727 J0.000835
G02 X120.271710 Y176.493470 Z-0.125000 I84.537140 J-2.139649
G03 X120.321442 Y177.545448 Z-0.125000 I-56.633583 J3.204479
G03 X120.331242 Y178.061127 Z-0.125000 I-13.597373 J0.516349
G03 X119.618746 Y181.079261 Z-0.125000 I-6.748852 J-0.000046
G03 X118.465928 Y181.791752 Z-0.125000 I-1.152836 J-0.576418
G03 X116.193099 Y181.248869 Z-0.125000 I0.000051 J-5.029350
G03 X113.961396 Y179.509720 Z-0.125000 I3.332073 J-6.577223
G03 X113.048889 Y178.270464 Z-0.125000 I7.461583 J-6.449805
G03 X111.183271 Y175.044877 Z-0.125000 I49.092659 J-30.546567
G02 X110.917434 Y167.542287 Z-0.125000 I-106.007090 J0.000119
G02 X110.548271 Y166.095345 Z-0.125000 I-4.183762 J0.296852
G02 X109.792241 Y165.175423 Z-0.125000 I-2.081536 J0.940063
G02 X108.821867 Y164.865034 Z-0.125000 I-0.970374 J1.361655
G02 X108.063040 Y165.007391 Z-0.125000 I-0.000000 J2.093626
G02 X107.393117 Y165.420659 Z-0.125000 I0.788748 J2.028209
G02 X106.935181 Y166.046137 Z-0.125000 I1.280946 J1.418205
G02 X106.777960 Y166.770034 Z-0.125000 I1.587880 J0.723888
G02 X106.805667 Y167.043775 Z-0.125000 I1.365891 J0.000021
G02 X106.956553 Y167.643159 Z-0.125000 I6.753427 J-1.381388
G03 X107.055198 Y168.149393 Z-0.125000 I-2.099565 J0.671852
G03 X107.174835 Y170.540345 Z-0.125000 I-47.360890 J3.568278
G01 X107.234367 Y173.477220 Z-0.125000
G01 X107.293896 Y188.062377 Z-0.125000
G03 X107.414935 Y190.523467 Z-0.125000 I-169.662933 J9.577749
G03 X107.432803 Y191.376284 Z-0.125000 I-20.348292 J0.852918
G03 X107.380533 Y192.382536 Z-0.125000 I-9.712591 J-0.000041
G03 X107.234367 Y193.281284 Z-0.125000 I-7.889472 J-0.821828
G02 X107.101517 Y194.198488 Z-0.125000 I9.212213 J1.802537
G02 X107.055771 Y195.166438 Z-0.125000 I10.216647 J0.967905
G02 X107.210231 Y195.932600 Z-0.125000 I1.977363 J0.000010
G02 X107.631242 Y196.535659 Z-0.125000 I1.614236 J-0.678451
G02 X108.266125 Y196.944149 Z-0.125000 I1.345657 J-1.393828
G02 X109.040146 Y197.091284 Z-0.125000 I0.774150 J-1.963021
G02 X110.261770 Y196.616071 Z-0.125000 I-0.000056 J-1.807958
G02 X110.945146 Y195.345034 Z-0.125000 I-1.480731 J-1.615346
G02 X111.192297 Y193.414385 Z-0.125000 I-26.570566 J-4.382556
G02 X111.262646 Y191.872377 Z-0.125000 I-16.866714 J-1.542100
G02 X111.229367 Y189.789769 Z-0.125000 I-65.198446 J0.000265
G02 X111.123742 Y187.526595 Z-0.125000 I-77.102870 J2.464438
G03 X111.039503 Y185.362798 Z-0.125000 I67.217966 J-3.700412
G03 X111.024521 Y183.180813 Z-0.125000 I68.337746 J-1.560258
G01 X111.044361 Y181.434563 Z-0.125000
G02 X112.832933 Y183.436327 Z-0.125000 I12.158317 J-9.063508
G02 X114.517015 Y184.688938 Z-0.125000 I6.339193 J-6.764379
G02 X116.456202 Y185.507716 Z-0.125000 I4.104161 J-7.014498
G02 X118.465922 Y185.780345 Z-0.125000 I2.009828 J-7.271925
G02 X121.380505 Y185.124940 Z-0.125000 I-0.000061 J-6.808542
G02 X122.990297 Y183.637220 Z-0.125000 I-1.569203 J-3.312762
G02 X123.585788 Y182.049530 Z-0.125000 I-4.442066 J-2.571592
G02 X123.982486 Y178.557220 Z-0.125000 I-21.642935 J-4.227151
G01 X124.141236 Y174.767063 Z-0.125000
G01 X124.538111 Y170.639563 Z-0.125000
G03 X124.867179 Y168.326651 Z-0.125000 I52.135110 J6.237623
G03 X125.212797 Y166.551752 Z-0.125000 I31.038031 J5.122796
G02 X125.275942 Y166.212525 Z-0.125000 I-3.576877 J-0.841299
G02 X125.292172 Y165.976284 Z-0.125000 I-1.714309 J-0.236456
G02 X125.135379 Y165.232505 Z-0.125000 I-1.842841 J0.000067
G02 X124.696861 Y164.626909 Z-0.125000 I-1.631367 J0.719722
G02 X124.044136 Y164.216868 Z-0.125000 I-1.392379 J1.491920
G02 X123.268111 Y164.071284 Z-0.125000 I-0.776024 J1.995486
G00 Z5.000000

(End cutting path id: path2996)


(Start cutting path id: path2994)
(Change tool to Default tool)

G00 Z5.000000
G00 X100.804992 Y182.208470

G01 Z-0.125000 F100.0(Penetrate)
G02 X100.388537 Y182.216782 Z-0.125000 I-0.000634 J10.405348 F400.000000
G02 X99.812803 Y182.248159 Z-0.125000 I0.796082 J19.904944
G03 X99.256853 Y182.279340 Z-0.125000 I-1.300867 J-18.222549
G03 X98.840460 Y182.287845 Z-0.125000 I-0.417017 J-10.218736
G03 X98.385687 Y182.262829 Z-0.125000 I0.000231 J-4.150398
G03 X96.141710 Y181.990188 Z-0.125000 I11.207016 J-101.610520
G01 X96.518742 Y170.262534 Z-0.125000
G01 X96.538582 Y169.389409 Z-0.125000
G01 X96.558422 Y168.377377 Z-0.125000
G02 X95.792780 Y164.861306 Z-0.125000 I-7.802000 J-0.142472
G02 X94.474829 Y164.031595 Z-0.125000 I-1.317954 J0.631896
G02 X93.730937 Y164.165286 Z-0.125000 I0.000011 J2.136517
G02 X93.085765 Y164.547534 Z-0.125000 I0.732312 J1.971619
G02 X92.660792 Y165.130672 Z-0.125000 I1.154639 J1.287890
G02 X92.510297 Y165.837377 Z-0.125000 I1.583926 J0.706677
G02 X92.520210 Y166.591244 Z-0.125000 I28.634740 J0.000482
G02 X92.569829 Y168.099563 Z-0.125000 I114.774657 J-3.020783
G03 X92.619437 Y169.607878 Z-0.125000 I-114.788794 J4.530344
G03 X92.629361 Y170.361752 Z-0.125000 I-28.665902 J0.754357
G01 X92.232486 Y181.950502 Z-0.125000
G02 X90.785609 Y182.035592 Z-0.125000 I1.681998 J40.944934
G02 X87.827172 Y182.287845 Z-0.125000 I13.129618 J171.459096
G02 X86.556842 Y182.959357 Z-0.125000 I0.278213 J2.063637
G02 X86.061079 Y184.252377 Z-0.125000 I1.438298 J1.293016
G02 X86.207084 Y185.068029 Z-0.125000 I2.351241 J0.000011
G02 X86.596861 Y185.700970 Z-0.125000 I1.774677 J-0.656391
G02 X87.199870 Y186.121953 Z-0.125000 I1.281372 J-1.193053
G02 X87.966079 Y186.276438 Z-0.125000 I0.766280 J-1.823217
G01 X92.133265 Y185.939095 Z-0.125000
G03 X92.114674 Y186.950549 Z-0.125000 I-27.536195 J-0.000230
G03 X92.034047 Y188.637845 Z-0.125000 I-76.732343 J-2.821062
G02 X91.966823 Y190.344654 Z-0.125000 I119.849204 J5.575087
G02 X91.954672 Y191.098470 Z-0.125000 I23.360143 J0.753554
G02 X92.109129 Y191.864635 Z-0.125000 I1.977359 J0.000020
G02 X92.530140 Y192.467688 Z-0.125000 I1.614173 J-0.678418
G02 X93.165021 Y192.876183 Z-0.125000 I1.345628 J-1.393756
G02 X93.939047 Y193.023313 Z-0.125000 I0.774123 J-1.962953
G02 X95.158300 Y192.395848 Z-0.125000 I-0.000032 J-1.498383
G02 X96.022640 Y190.106284 Z-0.125000 I-3.883730 J-2.774091
G02 X96.064790 Y189.371327 Z-0.125000 I-15.551976 J-1.260595
G02 X96.082172 Y188.340188 Z-0.125000 I-30.605745 J-1.031641
G01 X96.042486 Y187.189252 Z-0.125000
G01 X96.022646 Y185.958938 Z-0.125000
G02 X98.484536 Y186.256435 Z-0.125000 I19.697815 J-152.671268
G02 X98.840460 Y186.276438 Z-0.125000 I0.356188 J-3.161168
G02 X100.892689 Y186.201077 Z-0.125000 I-0.000402 J-27.991544
G02 X101.539210 Y186.078002 Z-0.125000 I-0.210810 J-2.867050
G02 X102.391734 Y185.421786 Z-0.125000 I-0.503776 J-1.536368
G02 X102.749678 Y184.212688 Z-0.125000 I-1.863260 J-1.209136
G02 X102.599212 Y183.400314 Z-0.125000 I-2.268615 J0.000066
G02 X102.194053 Y182.764095 Z-0.125000 I-1.765433 J0.677152
G02 X101.593705 Y182.360350 Z-0.125000 I-1.240213 J1.195917
G02 X100.804992 Y182.208470 Z-0.125000 I-0.788649 J1.971625
G00 Z5.000000

(End cutting path id: path2994)


(Start cutting path id: path2992)
(Change tool to Default tool)

G00 Z5.000000
G00 X83.441710 Y179.966127

G01 Z-0.125000 F100.0(Penetrate)
G02 X82.726149 Y178.095474 Z-0.125000 I-3.283787 J0.183927 F400.000000
G02 X81.457335 Y177.485659 Z-0.125000 I-1.268795 J1.015036
G02 X80.285183 Y178.020072 Z-0.125000 I-0.000019 J1.552631
G02 X79.750771 Y179.450188 Z-0.125000 I1.646266 J1.430093
G03 X79.742688 Y179.826963 Z-0.125000 I-8.808831 J-0.000495
G03 X79.691242 Y180.839252 Z-0.125000 I-63.797652 J-2.734868
G01 X79.631710 Y182.506127 Z-0.125000
G03 X76.624699 Y181.805315 Z-0.125000 I1.690051 J-14.053162
G03 X74.611242 Y180.740034 Z-0.125000 I2.556532 J-7.267461
G03 X73.094812 Y179.247609 Z-0.125000 I4.294760 J-5.880461
G03 X71.674367 Y176.850659 Z-0.125000 I9.965537 J-7.524987
G01 X71.714053 Y165.976284 Z-0.125000
G02 X71.132908 Y164.553203 Z-0.125000 I-2.032983 J0.000009
G02 X69.749521 Y163.972063 Z-0.125000 I-1.383392 J1.355998
G02 X68.549380 Y164.518176 Z-0.125000 I0.000004 J1.591784
G02 X68.003271 Y165.976284 Z-0.125000 I1.673504 J1.458103
G01 X68.003271 Y179.906595 Z-0.125000
G02 X68.009884 Y180.561315 Z-0.125000 I32.392204 J0.000209
G02 X68.042960 Y181.871127 Z-0.125000 I129.963081 J-2.626544
G03 X68.092572 Y183.181014 Z-0.125000 I-86.584725 J3.935326
G03 X68.102492 Y183.835659 Z-0.125000 I-21.606628 J0.654785
G02 X68.648593 Y185.293750 Z-0.125000 I2.219589 J0.000005
G02 X69.848742 Y185.839877 Z-0.125000 I1.200176 J-1.045696
G02 X71.091719 Y185.133916 Z-0.125000 I-0.000022 J-1.447267
G02 X71.813271 Y182.545813 Z-0.125000 I-4.391313 J-2.618913
G02 X75.982317 Y185.326754 Z-0.125000 I9.788438 J-10.158854
G02 X80.266710 Y186.216909 Z-0.125000 I4.284471 J-9.865867
G02 X81.691093 Y185.878160 Z-0.125000 I-0.000067 J-3.164298
G02 X82.667803 Y185.006438 Z-0.125000 I-1.138864 J-2.259059
G02 X83.207455 Y183.720072 Z-0.125000 I-3.202485 J-2.099875
G02 X83.461553 Y181.355188 Z-0.125000 I-10.878986 J-2.365000
G02 X83.454172 Y180.323497 Z-0.125000 I-72.352863 J0.001781
G02 X83.441713 Y179.966127 Z-0.125000 I-8.694025 J0.124196
G00 Z5.000000

(End cutting path id: path2992)


(Start cutting path id: path2990)
(Change tool to Default tool)

G00 Z5.000000
G00 X60.284053 Y164.706284

G01 Z-0.125000 F100.0(Penetrate)
G02 X58.979075 Y165.398169 Z-0.125000 I0.000000 J1.576616 F400.000000
G02 X57.109053 Y169.389409 Z-0.125000 I11.620315 J7.878186
G02 X56.663505 Y171.191561 Z-0.125000 I22.942727 J6.628311
G02 X55.819210 Y175.640188 Z-0.125000 I139.141388 J28.711760
G03 X53.803814 Y175.313364 Z-0.125000 I5.699826 J-41.526010
G03 X50.520928 Y174.648002 Z-0.125000 I20.767418 J-110.897749
G01 X45.242492 Y173.556595 Z-0.125000
G02 X44.179613 Y170.987449 Z-0.125000 I-46.977497 J17.930575
G02 X41.849210 Y165.956438 Z-0.125000 I-182.588226 J81.521048
G02 X41.055125 Y165.119309 Z-0.125000 I-2.108457 J1.204849
G02 X40.122803 Y164.845188 Z-0.125000 I-0.932329 J1.448445
G02 X39.384262 Y164.988336 Z-0.125000 I0.000011 J1.976797
G02 X38.694053 Y165.420659 Z-0.125000 I0.865584 J2.149043
G02 X38.240344 Y166.066174 Z-0.125000 I1.317102 J1.407946
G02 X38.078896 Y166.849409 Z-0.125000 I1.819128 J0.783235
G02 X38.260008 Y167.760972 Z-0.125000 I2.384562 J0.000000
G02 X41.075303 Y174.092377 Z-0.125000 I122.478774 J-50.669243
G02 X40.827967 Y174.635119 Z-0.125000 I1.653854 J1.081413
G02 X40.737960 Y175.283002 Z-0.125000 I2.286538 J0.647854
G02 X41.223282 Y176.505720 Z-0.125000 I1.782890 J0.000009
G02 X42.682646 Y177.346752 Z-0.125000 I2.127216 J-2.004492
G02 X45.028370 Y181.544970 Z-0.125000 I105.805756 J-56.363778
G02 X48.397646 Y187.109877 Z-0.125000 I189.322521 J-110.822987
G02 X53.345904 Y194.187904 Z-0.125000 I71.419048 J-44.660478
G02 X54.251553 Y194.630659 Z-0.125000 I0.905695 J-0.704961
G02 X55.436186 Y194.133569 Z-0.125000 I-0.000049 J-1.660232
G02 X56.394678 Y192.447845 Z-0.125000 I-2.699165 J-2.650087
G01 X57.644835 Y185.780345 Z-0.125000
G01 X60.601553 Y171.988938 Z-0.125000
G01 X61.732646 Y168.853627 Z-0.125000
G02 X62.238996 Y167.234286 Z-0.125000 I-19.616808 J-7.022802
G02 X62.308117 Y166.710502 Z-0.125000 I-1.951231 J-0.523944
G02 X62.146646 Y165.927260 Z-0.125000 I-1.980844 J0.000098
G02 X61.692960 Y165.281752 Z-0.125000 I-1.770914 J0.762476
G02 X61.020662 Y164.850919 Z-0.125000 I-1.505766 J1.609723
G02 X60.284053 Y164.706284 Z-0.125000 I-0.736609 J1.803419
G00 Z5.000000

(End cutting path id: path2990)


(Start cutting path id: path2990)
(Change tool to Default tool)

G00 Z5.000000
G00 X53.279210 Y187.387688

G01 Z-0.125000 F100.0(Penetrate)
G01 X47.603896 Y178.239720 Z-0.125000 F400.000000
G02 X50.017915 Y178.795257 Z-0.125000 I12.492855 J-48.763558
G02 X54.886553 Y179.728002 Z-0.125000 I40.363494 J-197.511992
G01 X53.279210 Y187.387688 Z-0.125000
G00 Z5.000000

(End cutting path id: path2990)


(Footer)
M5
G00 X0.0000 Y0.0000
M2
(Using default footer. To add your own footer create file "footer" in the output dir.)
(end)
%