( Made using CamBam - http://www.cambam.co.uk )
( coaster 8/15/2012 12:48:26 PM )
( T0 : 0.125 )
G20 G90 G64 G40
G0 Z0.125
( T0 : 0.125 )
T0 M6
( Pocket1 )
G17
M3 S1000
G0 X2.5464 Y2.1839
G1 F8.0 Z-0.1
G3 F20.0 X2.495 Y2.2756 I-0.9907 J-0.4953
G3 X2.4936 Y2.2778 I-0.1802 J-0.1126
G3 X2.2902 Y2.5163 I-0.9783 J-0.6283
G1 Y2.5164
G3 X2.2162 Y2.5782 I-0.9909 J-1.109
G1 X2.24 Y2.6244
G2 X2.4663 Y2.3546 I-0.5744 J-0.7114
G3 X2.4681 Y2.3513 I0.1861 J0.1026
G2 X2.5464 Y2.1839 I-0.9522 J-0.5473
G1 F8.0 X2.5017 Y2.1615
G3 F20.0 X2.4526 Y2.2491 I-0.946 J-0.4729
G3 X2.4515 Y2.2508 I-0.1378 J-0.0861
G3 X2.2569 Y2.479 I-0.9363 J-0.6013
G1 X2.2568 Y2.4791
G3 X2.1526 Y2.5638 I-0.9576 J-1.0718
G1 X2.2227 Y2.7002
G2 X2.5101 Y2.3787 I-0.5571 J-0.7872
G3 X2.5115 Y2.3762 I0.1423 J0.0785
G2 X2.6642 Y1.7954 I-0.9955 J-0.5722
G3 Y1.7933 I0.1625 J-0.0012
G2 X2.5746 Y1.3611 I-1.0625 J-0.0052
G3 X2.6132 Y1.6726 I-1.118 J0.2966
G3 X2.5017 Y2.1615 I-1.0575 J0.016
G0 Z0.125
G0 X2.2164 Y0.8621
G1 F8.0 Z-0.1
G3 F20.0 X2.2326 Y0.792 I0.1625 J0.0007
G1 X2.1419 Y0.7676
G1 X2.1508 Y0.863
G3 X2.2164 Y0.8621 I0.035 J0.1587
G1 F8.0 X2.2664 Y0.8623
G3 F20.0 X2.3095 Y0.7742 I0.1125 J0.0005
G1 X2.3222 Y0.7643
G1 X2.0855 Y0.7006
G1 X2.1077 Y0.94
G1 X2.1161 Y0.9334
G3 X2.26 Y0.9371 I0.0697 J0.0883
G3 X2.4961 Y1.278 I-0.5641 J0.6429
G3 X2.4966 Y1.2792 I-0.1053 J0.0397
G3 X2.5632 Y1.6727 I-1.0399 J0.3785
G3 X2.4102 Y2.2226 I-1.0075 J0.0159
G3 X2.4094 Y2.2238 I-0.0954 J-0.0596
G3 X2.2236 Y2.4418 I-0.8942 J-0.5743
G1 X2.2235
G3 X2.0884 Y2.5483 I-0.9243 J-1.0345
G1 X2.2038 Y2.7728
G2 X2.5538 Y2.4029 I-0.5382 J-0.8598
G3 X2.5548 Y2.4012 I0.0985 J0.0543
G2 X2.7142 Y1.795 I-1.0389 J-0.5971
G3 Y1.7936 I0.1125 J-0.0008
G2 X2.6117 Y1.3218 I-1.1125 J-0.0055
G3 X2.6115 Y1.3214 I0.1021 J-0.0472
G2 X2.3123 Y0.9534 I-0.8577 J0.3919
G3 X2.2664 Y0.8623 I0.0666 J-0.0907
G1 F8.0 X2.3164 Y0.8625
G3 F20.0 X2.3404 Y0.8136 I0.0625 J0.0003
G1 X2.4317 Y0.742
G1 X2.029 Y0.6337
G1 X2.0665 Y1.0363
G1 X2.147 Y0.9726
G3 X2.227 Y0.9747 I0.0387 J0.049
G3 X2.4493 Y1.2956 I-0.5311 J0.6053
G3 X2.4496 Y1.2963 I-0.0585 J0.0221
G3 X2.5132 Y1.6727 I-0.9929 J0.3614
G3 X2.3678 Y2.1961 I-0.9574 J0.0159
G3 X2.3674 Y2.1968 I-0.053 J-0.0331
G3 X2.1902 Y2.4045 I-0.8521 J-0.5472
G3 X2.0235 Y2.5315 I-0.891 J-0.9972
G1 X2.1836 Y2.8428
G2 X2.5976 Y2.427 I-0.518 J-0.9298
G3 X2.5982 Y2.4261 I0.0547 J0.0302
G2 X2.7642 Y1.7946 I-1.0822 J-0.6221
G3 Y1.7938 I0.0625 J-0.0005
G2 X2.6571 Y1.3008 I-1.1625 J-0.0057
G3 X2.657 Y1.3006 I0.0567 J-0.0262
G2 X2.3419 Y0.9131 I-0.9032 J0.4127
G3 X2.3164 Y0.8625 I0.037 J-0.0504
G0 Z0.125
G0 X2.2164 Y0.8621
G1 F8.0 Z-0.2
G3 F20.0 X2.2326 Y0.792 I0.1625 J0.0007
G1 X2.1419 Y0.7676
G1 X2.1508 Y0.863
G3 X2.2164 Y0.8621 I0.035 J0.1587
G0 Z0.125
G0 X2.5464 Y2.1839
G1 F8.0 Z-0.2
G3 F20.0 X2.495 Y2.2756 I-0.9907 J-0.4953
G3 X2.4936 Y2.2778 I-0.1802 J-0.1126
G3 X2.2902 Y2.5163 I-0.9783 J-0.6283
G1 Y2.5164
G3 X2.2162 Y2.5782 I-0.9909 J-1.109
G1 X2.24 Y2.6244
G2 X2.4663 Y2.3546 I-0.5744 J-0.7114
G3 X2.4681 Y2.3513 I0.1861 J0.1026
G2 X2.5464 Y2.1839 I-0.9522 J-0.5473
G1 F8.0 X2.5017 Y2.1615
G3 F20.0 X2.4526 Y2.2491 I-0.946 J-0.4729
G3 X2.4515 Y2.2508 I-0.1378 J-0.0861
G3 X2.2569 Y2.479 I-0.9363 J-0.6013
G1 X2.2568 Y2.4791
G3 X2.1526 Y2.5638 I-0.9576 J-1.0718
G1 X2.2227 Y2.7002
G2 X2.5101 Y2.3787 I-0.5571 J-0.7872
G3 X2.5115 Y2.3762 I0.1423 J0.0785
G2 X2.6642 Y1.7954 I-0.9955 J-0.5722
G3 Y1.7933 I0.1625 J-0.0012
G2 X2.5746 Y1.3611 I-1.0625 J-0.0052
G3 X2.6132 Y1.6726 I-1.118 J0.2966
G3 X2.5017 Y2.1615 I-1.0575 J0.016
G1 F8.0 X2.457 Y2.1392
G3 F20.0 X2.4102 Y2.2226 I-0.9012 J-0.4506
G3 X2.4094 Y2.2238 I-0.0954 J-0.0596
G3 X2.2236 Y2.4418 I-0.8942 J-0.5743
G1 X2.2235
G3 X2.0884 Y2.5483 I-0.9243 J-1.0345
G1 X2.2038 Y2.7728
G2 X2.5538 Y2.4029 I-0.5382 J-0.8598
G3 X2.5548 Y2.4012 I0.0985 J0.0543
G2 X2.7142 Y1.795 I-1.0389 J-0.5971
G3 Y1.7936 I0.1125 J-0.0008
G2 X2.6117 Y1.3218 I-1.1125 J-0.0055
G3 X2.6115 Y1.3214 I0.1021 J-0.0472
G2 X2.3123 Y0.9534 I-0.8577 J0.3919
G3 X2.3095 Y0.7742 I0.0666 J-0.0907
G1 X2.3222 Y0.7643
G1 X2.0855 Y0.7006
G1 X2.1077 Y0.94
G1 X2.1161 Y0.9334
G3 X2.26 Y0.9371 I0.0697 J0.0883
G3 X2.4961 Y1.278 I-0.5641 J0.6429
G3 X2.4966 Y1.2792 I-0.1053 J0.0397
G3 X2.5632 Y1.6727 I-1.0399 J0.3785
G3 X2.457 Y2.1392 I-1.0075 J0.0159
G1 F8.0 X2.4122 Y2.1168
G3 F20.0 X2.3678 Y2.1961 I-0.8565 J-0.4282
G3 X2.3674 Y2.1968 I-0.053 J-0.0331
G3 X2.1902 Y2.4045 I-0.8521 J-0.5472
G3 X2.0235 Y2.5315 I-0.891 J-0.9972
G1 X2.1836 Y2.8428
G2 X2.5976 Y2.427 I-0.518 J-0.9298
G3 X2.5982 Y2.4261 I0.0547 J0.0302
G2 X2.7642 Y1.7946 I-1.0822 J-0.6221
G3 Y1.7938 I0.0625 J-0.0005
G2 X2.6571 Y1.3008 I-1.1625 J-0.0057
G3 X2.657 Y1.3006 I0.0567 J-0.0262
G2 X2.3419 Y0.9131 I-0.9032 J0.4127
G3 X2.3404 Y0.8136 I0.037 J-0.0504
G1 X2.4317 Y0.742
G1 X2.029 Y0.6337
G1 X2.0665 Y1.0363
G1 X2.147 Y0.9726
G3 X2.227 Y0.9747 I0.0387 J0.049
G3 X2.4493 Y1.2956 I-0.5311 J0.6053
G3 X2.4496 Y1.2963 I-0.0585 J0.0221
G3 X2.5132 Y1.6727 I-0.9929 J0.3614
G3 X2.4122 Y2.1168 I-0.9574 J0.0159
G0 Z0.125
G0 X2.5464 Y2.1839
G1 F8.0 Z-0.24
G3 F20.0 X2.495 Y2.2756 I-0.9907 J-0.4953
G3 X2.4936 Y2.2778 I-0.1802 J-0.1126
G3 X2.2902 Y2.5163 I-0.9783 J-0.6283
G1 Y2.5164
G3 X2.2162 Y2.5782 I-0.9909 J-1.109
G1 X2.24 Y2.6244
G2 X2.4663 Y2.3546 I-0.5744 J-0.7114
G3 X2.4681 Y2.3513 I0.1861 J0.1026
G2 X2.5464 Y2.1839 I-0.9522 J-0.5473
G1 F8.0 X2.5017 Y2.1615
G3 F20.0 X2.4526 Y2.2491 I-0.946 J-0.4729
G3 X2.4515 Y2.2508 I-0.1378 J-0.0861
G3 X2.2569 Y2.479 I-0.9363 J-0.6013
G1 X2.2568 Y2.4791
G3 X2.1526 Y2.5638 I-0.9576 J-1.0718
G1 X2.2227 Y2.7002
G2 X2.5101 Y2.3787 I-0.5571 J-0.7872
G3 X2.5115 Y2.3762 I0.1423 J0.0785
G2 X2.6642 Y1.7954 I-0.9955 J-0.5722
G3 Y1.7933 I0.1625 J-0.0012
G2 X2.5746 Y1.3611 I-1.0625 J-0.0052
G3 X2.6132 Y1.6726 I-1.118 J0.2966
G3 X2.5017 Y2.1615 I-1.0575 J0.016
G0 Z0.125
G0 X2.2164 Y0.8621
G1 F8.0 Z-0.24
G3 F20.0 X2.2326 Y0.792 I0.1625 J0.0007
G1 X2.1419 Y0.7676
G1 X2.1508 Y0.863
G3 X2.2164 Y0.8621 I0.035 J0.1587
G1 F8.0 X2.2664 Y0.8623
G3 F20.0 X2.3095 Y0.7742 I0.1125 J0.0005
G1 X2.3222 Y0.7643
G1 X2.0855 Y0.7006
G1 X2.1077 Y0.94
G1 X2.1161 Y0.9334
G3 X2.26 Y0.9371 I0.0697 J0.0883
G3 X2.4961 Y1.278 I-0.5641 J0.6429
G3 X2.4966 Y1.2792 I-0.1053 J0.0397
G3 X2.5632 Y1.6727 I-1.0399 J0.3785
G3 X2.4102 Y2.2226 I-1.0075 J0.0159
G3 X2.4094 Y2.2238 I-0.0954 J-0.0596
G3 X2.2236 Y2.4418 I-0.8942 J-0.5743
G1 X2.2235
G3 X2.0884 Y2.5483 I-0.9243 J-1.0345
G1 X2.2038 Y2.7728
G2 X2.5538 Y2.4029 I-0.5382 J-0.8598
G3 X2.5548 Y2.4012 I0.0985 J0.0543
G2 X2.7142 Y1.795 I-1.0389 J-0.5971
G3 Y1.7936 I0.1125 J-0.0008
G2 X2.6117 Y1.3218 I-1.1125 J-0.0055
G3 X2.6115 Y1.3214 I0.1021 J-0.0472
G2 X2.3123 Y0.9534 I-0.8577 J0.3919
G3 X2.2664 Y0.8623 I0.0666 J-0.0907
G1 F8.0 X2.3164 Y0.8625
G3 F20.0 X2.3404 Y0.8136 I0.0625 J0.0003
G1 X2.4317 Y0.742
G1 X2.029 Y0.6337
G1 X2.0665 Y1.0363
G1 X2.147 Y0.9726
G3 X2.227 Y0.9747 I0.0387 J0.049
G3 X2.4493 Y1.2956 I-0.5311 J0.6053
G3 X2.4496 Y1.2963 I-0.0585 J0.0221
G3 X2.5132 Y1.6727 I-0.9929 J0.3614
G3 X2.3678 Y2.1961 I-0.9574 J0.0159
G3 X2.3674 Y2.1968 I-0.053 J-0.0331
G3 X2.1902 Y2.4045 I-0.8521 J-0.5472
G3 X2.0235 Y2.5315 I-0.891 J-0.9972
G1 X2.1836 Y2.8428
G2 X2.5976 Y2.427 I-0.518 J-0.9298
G3 X2.5982 Y2.4261 I0.0547 J0.0302
G2 X2.7642 Y1.7946 I-1.0822 J-0.6221
G3 Y1.7938 I0.0625 J-0.0005
G2 X2.6571 Y1.3008 I-1.1625 J-0.0057
G3 X2.657 Y1.3006 I0.0567 J-0.0262
G2 X2.3419 Y0.9131 I-0.9032 J0.4127
G3 X2.3164 Y0.8625 I0.037 J-0.0504
G0 Z0.125
G0 X1.2462 Y0.899
G1 F8.0 Z-0.1
G1 F20.0 X1.2227 Y0.8534
G2 X0.9979 Y1.1225 I0.5779 J0.7113
G3 X0.9955 Y1.1267 I-0.1861 J-0.1025
G2 X0.919 Y1.2873 I0.9411 J0.5468
G3 X0.9674 Y1.2016 I0.9876 J0.5013
G3 X0.9688 Y1.1994 I0.1802 J0.1126
G3 X1.1722 Y0.9609 I0.9783 J0.6283
G1 Y0.9608
G3 X1.2462 Y0.899 I0.9909 J1.109
G1 F8.0 X1.2906 Y0.8761
G1 F20.0 X1.2399 Y0.7775
G2 X0.9541 Y1.0984 I0.5607 J0.7872
G3 X0.9523 Y1.1016 I-0.1423 J-0.0784
G2 X0.7982 Y1.6819 I0.9843 J0.5719
G3 Y1.6838 I-0.1625 J0.0012
G2 X0.8855 Y2.1074 I1.0471 J0.005
G3 X0.8492 Y1.8046 I1.1203 J-0.288
G3 X1.0098 Y1.2281 I1.0575 J-0.016
G3 X1.0109 Y1.2264 I0.1378 J0.0861
G3 X1.2055 Y0.9982 I0.9363 J0.6013
G1 X1.2056 Y0.9981
G3 X1.3098 Y0.9134 I0.9576 J1.0718
G1 X1.2906 Y0.8761
G0 Z0.125
G0 X1.3116 Y2.6142
G1 F8.0 Z-0.1
G3 F20.0 X1.246 Y2.6151 I-0.035 J-0.1587
G3 X1.2294 Y2.686 I-0.1625 J-0.0007
G1 X1.3205 Y2.7102
G1 X1.3116 Y2.6142
G1 F8.0 X1.3008 Y2.5654
G3 F20.0 X1.2024 Y2.5401 I-0.0242 J-0.1099
G3 X0.9663 Y2.1992 I0.5641 J-0.6429
G3 X0.9659 Y2.198 I0.1053 J-0.0397
G3 X0.8992 Y1.8045 I1.0399 J-0.3785
G3 X1.0522 Y1.2546 I1.0075 J-0.0159
G3 X1.053 Y1.2534 I0.0954 J0.0596
G3 X1.2388 Y1.0354 I0.8942 J0.5743
G1 X1.2389
G3 X1.374 Y0.9289 I0.9243 J1.0345
G1 X1.2587 Y0.7047
G2 X0.9103 Y1.0743 I0.542 J0.86
G3 X0.909 Y1.0765 I-0.0985 J-0.0543
G2 X0.7482 Y1.6822 I1.0276 J0.597
G3 Y1.6836 I-0.1125 J0.0008
G2 X0.8521 Y2.1548 I1.0971 J0.0053
G3 X0.8526 Y2.1559 I-0.1018 J0.0478
G2 X1.1505 Y2.5241 I0.8636 J-0.3941
G3 X1.1534 Y2.7026 I-0.067 J0.0903
G1 X1.1393 Y2.7138
G1 X1.377 Y2.777
G1 X1.3547 Y2.5372
G1 X1.3463 Y2.5438
G3 X1.3008 Y2.5654 I-0.0697 J-0.0883
G1 F8.0 X1.2901 Y2.5166
G3 F20.0 X1.2354 Y2.5025 I-0.0135 J-0.061
G3 X1.0131 Y2.1816 I0.5311 J-0.6053
G3 X1.0128 Y2.1809 I0.0585 J-0.0221
G3 X0.9492 Y1.8045 I0.9929 J-0.3614
G3 X1.0946 Y1.2811 I0.9574 J-0.0159
G3 X1.095 Y1.2804 I0.053 J0.0331
G3 X1.2722 Y1.0727 I0.8521 J0.5472
G3 X1.4389 Y0.9457 I0.891 J0.9972
G1 X1.2789 Y0.6346
G2 X0.8665 Y1.0501 I0.5218 J0.9302
G3 X0.8658 Y1.0514 I-0.0547 J-0.0302
G2 X0.6982 Y1.6826 I1.0708 J0.6221
G3 Y1.6834 I-0.0625 J0.0005
G2 X0.8068 Y2.176 I1.1471 J0.0055
G3 X0.8071 Y2.1766 I-0.0566 J0.0265
G2 X1.1207 Y2.5643 I0.909 J-0.4148
G3 X1.1223 Y2.6634 I-0.0372 J0.0502
G1 X1.0302 Y2.7365
G1 X1.4334 Y2.8438
G1 X1.3959 Y2.4409
G1 X1.3154 Y2.5046
G3 X1.2901 Y2.5166 I-0.0387 J-0.049
G0 Z0.125
G0 X1.3116 Y2.6142
G1 F8.0 Z-0.2
G3 F20.0 X1.246 Y2.6151 I-0.035 J-0.1587
G3 X1.2294 Y2.686 I-0.1625 J-0.0007
G1 X1.3205 Y2.7102
G1 X1.3116 Y2.6142
G0 Z0.125
G0 X0.919 Y1.2873
G1 F8.0 Z-0.2
G3 F20.0 X0.9674 Y1.2016 I0.9876 J0.5013
G3 X0.9688 Y1.1994 I0.1802 J0.1126
G3 X1.1722 Y0.9609 I0.9783 J0.6283
G1 Y0.9608
G3 X1.2462 Y0.899 I0.9909 J1.109
G1 X1.2227 Y0.8534
G2 X0.9979 Y1.1225 I0.5779 J0.7113
G3 X0.9955 Y1.1267 I-0.1861 J-0.1025
G2 X0.919 Y1.2873 I0.9411 J0.5468
G1 F8.0 X0.9636 Y1.3099
G3 F20.0 X1.0098 Y1.2281 I0.943 J0.4787
G3 X1.0109 Y1.2264 I0.1378 J0.0861
G3 X1.2055 Y0.9982 I0.9363 J0.6013
G1 X1.2056 Y0.9981
G3 X1.3098 Y0.9134 I0.9576 J1.0718
G1 X1.2399 Y0.7775
G2 X0.9541 Y1.0984 I0.5607 J0.7872
G3 X0.9523 Y1.1016 I-0.1423 J-0.0784
G2 X0.7982 Y1.6819 I0.9843 J0.5719
G3 Y1.6838 I-0.1625 J0.0012
G2 X0.8855 Y2.1074 I1.0471 J0.005
G3 X0.8492 Y1.8046 I1.1203 J-0.288
G3 X0.9636 Y1.3099 I1.0575 J-0.016
G1 F8.0 X1.0082 Y1.3325
G3 F20.0 X1.0522 Y1.2546 I0.8985 J0.4561
G3 X1.053 Y1.2534 I0.0954 J0.0596
G3 X1.2388 Y1.0354 I0.8942 J0.5743
G1 X1.2389
G3 X1.374 Y0.9289 I0.9243 J1.0345
G1 X1.2587 Y0.7047
G2 X0.9103 Y1.0743 I0.542 J0.86
G3 X0.909 Y1.0765 I-0.0985 J-0.0543
G2 X0.7482 Y1.6822 I1.0276 J0.597
G3 Y1.6836 I-0.1125 J0.0008
G2 X0.8521 Y2.1548 I1.0971 J0.0053
G3 X0.8526 Y2.1559 I-0.1018 J0.0478
G2 X1.1505 Y2.5241 I0.8636 J-0.3941
G3 X1.1534 Y2.7026 I-0.067 J0.0903
G1 X1.1393 Y2.7138
G1 X1.377 Y2.777
G1 X1.3547 Y2.5372
G1 X1.3463 Y2.5438
G3 X1.2024 Y2.5401 I-0.0697 J-0.0883
G3 X0.9663 Y2.1992 I0.5641 J-0.6429
G3 X0.9659 Y2.198 I0.1053 J-0.0397
G3 X0.8992 Y1.8045 I1.0399 J-0.3785
G3 X1.0082 Y1.3325 I1.0075 J-0.0159
G1 F8.0 X1.0528 Y1.3552
G3 F20.0 X1.0946 Y1.2811 I0.8539 J0.4334
G3 X1.095 Y1.2804 I0.053 J0.0331
G3 X1.2722 Y1.0727 I0.8521 J0.5472
G3 X1.4389 Y0.9457 I0.891 J0.9972
G1 X1.2789 Y0.6346
G2 X0.8665 Y1.0501 I0.5218 J0.9302
G3 X0.8658 Y1.0514 I-0.0547 J-0.0302
G2 X0.6982 Y1.6826 I1.0708 J0.6221
G3 Y1.6834 I-0.0625 J0.0005
G2 X0.8068 Y2.176 I1.1471 J0.0055
G3 X0.8071 Y2.1766 I-0.0566 J0.0265
G2 X1.1207 Y2.5643 I0.909 J-0.4148
G3 X1.1223 Y2.6634 I-0.0372 J0.0502
G1 X1.0302 Y2.7365
G1 X1.4334 Y2.8438
G1 X1.3959 Y2.4409
G1 X1.3154 Y2.5046
G3 X1.2354 Y2.5025 I-0.0387 J-0.049
G3 X1.0131 Y2.1816 I0.5311 J-0.6053
G3 X1.0128 Y2.1809 I0.0585 J-0.0221
G3 X0.9492 Y1.8045 I0.9929 J-0.3614
G3 X1.0528 Y1.3552 I0.9574 J-0.0159
G0 Z0.125
G0 X0.919 Y1.2873
G1 F8.0 Z-0.24
G3 F20.0 X0.9674 Y1.2016 I0.9876 J0.5013
G3 X0.9688 Y1.1994 I0.1802 J0.1126
G3 X1.1722 Y0.9609 I0.9783 J0.6283
G1 Y0.9608
G3 X1.2462 Y0.899 I0.9909 J1.109
G1 X1.2227 Y0.8534
G2 X0.9979 Y1.1225 I0.5779 J0.7113
G3 X0.9955 Y1.1267 I-0.1861 J-0.1025
G2 X0.919 Y1.2873 I0.9411 J0.5468
G1 F8.0 X0.9636 Y1.3099
G3 F20.0 X1.0098 Y1.2281 I0.943 J0.4787
G3 X1.0109 Y1.2264 I0.1378 J0.0861
G3 X1.2055 Y0.9982 I0.9363 J0.6013
G1 X1.2056 Y0.9981
G3 X1.3098 Y0.9134 I0.9576 J1.0718
G1 X1.2399 Y0.7775
G2 X0.9541 Y1.0984 I0.5607 J0.7872
G3 X0.9523 Y1.1016 I-0.1423 J-0.0784
G2 X0.7982 Y1.6819 I0.9843 J0.5719
G3 Y1.6838 I-0.1625 J0.0012
G2 X0.8855 Y2.1074 I1.0471 J0.005
G3 X0.8492 Y1.8046 I1.1203 J-0.288
G3 X0.9636 Y1.3099 I1.0575 J-0.016
G0 Z0.125
G0 X1.246 Y2.6151
G1 F8.0 Z-0.24
G3 F20.0 X1.2294 Y2.686 I-0.1625 J-0.0007
G1 X1.3205 Y2.7102
G1 X1.3116 Y2.6142
G3 X1.246 Y2.6151 I-0.035 J-0.1587
G1 F8.0 X1.196 Y2.6149
G3 F20.0 X1.1534 Y2.7026 I-0.1125 J-0.0005
G1 X1.1393 Y2.7138
G1 X1.377 Y2.777
G1 X1.3547 Y2.5372
G1 X1.3463 Y2.5438
G3 X1.2024 Y2.5401 I-0.0697 J-0.0883
G3 X0.9663 Y2.1992 I0.5641 J-0.6429
G3 X0.9659 Y2.198 I0.1053 J-0.0397
G3 X0.8992 Y1.8045 I1.0399 J-0.3785
G3 X1.0522 Y1.2546 I1.0075 J-0.0159
G3 X1.053 Y1.2534 I0.0954 J0.0596
G3 X1.2388 Y1.0354 I0.8942 J0.5743
G1 X1.2389
G3 X1.374 Y0.9289 I0.9243 J1.0345
G1 X1.2587 Y0.7047
G2 X0.9103 Y1.0743 I0.542 J0.86
G3 X0.909 Y1.0765 I-0.0985 J-0.0543
G2 X0.7482 Y1.6822 I1.0276 J0.597
G3 Y1.6836 I-0.1125 J0.0008
G2 X0.8521 Y2.1548 I1.0971 J0.0053
G3 X0.8526 Y2.1559 I-0.1018 J0.0478
G2 X1.1505 Y2.5241 I0.8636 J-0.3941
G3 X1.196 Y2.6149 I-0.067 J0.0903
G1 F8.0 X1.146 Y2.6147
G3 F20.0 X1.1223 Y2.6634 I-0.0625 J-0.0003
G1 X1.0302 Y2.7365
G1 X1.4334 Y2.8438
G1 X1.3959 Y2.4409
G1 X1.3154 Y2.5046
G3 X1.2354 Y2.5025 I-0.0387 J-0.049
G3 X1.0131 Y2.1816 I0.5311 J-0.6053
G3 X1.0128 Y2.1809 I0.0585 J-0.0221
G3 X0.9492 Y1.8045 I0.9929 J-0.3614
G3 X1.0946 Y1.2811 I0.9574 J-0.0159
G3 X1.095 Y1.2804 I0.053 J0.0331
G3 X1.2722 Y1.0727 I0.8521 J0.5472
G3 X1.4389 Y0.9457 I0.891 J0.9972
G1 X1.2789 Y0.6346
G2 X0.8665 Y1.0501 I0.5218 J0.9302
G3 X0.8658 Y1.0514 I-0.0547 J-0.0302
G2 X0.6982 Y1.6826 I1.0708 J0.6221
G3 Y1.6834 I-0.0625 J0.0005
G2 X0.8068 Y2.176 I1.1471 J0.0055
G3 X0.8071 Y2.1766 I-0.0566 J0.0265
G2 X1.1207 Y2.5643 I0.909 J-0.4148
G3 X1.146 Y2.6147 I-0.0372 J0.0502
( Engrave1 )
S1000
G0 Z0.125
G0 X3.3125 Y1.75
G1 F8.0 Z-0.05
G3 F20.0 X0.9688 Y3.1032 I-1.5625 J0.0
G3 X0.9687 Y0.3968 I0.7813 J-1.3532
G3 X3.3125 Y1.75 I0.7813 J1.3532
( Profile1 )
S1000
G0 Z0.125
G0 X3.5625
G1 F8.0 Z-0.1
G3 F20.0 X0.8438 Y3.3197 I-1.8125 J0.0
G3 X0.8437 Y0.1803 I0.9062 J-1.5697
G3 X3.5625 Y1.75 I0.9063 J1.5697
G1 F8.0 Z-0.2
G3 F20.0 X0.8438 Y3.3197 I-1.8125 J0.0
G3 X0.8437 Y0.1803 I0.9062 J-1.5697
G3 X3.5625 Y1.75 I0.9063 J1.5697
G1 F8.0 Z-0.24
G3 F20.0 X0.8438 Y3.3197 I-1.8125 J0.0
G3 X0.8437 Y0.1803 I0.9062 J-1.5697
G3 X3.5625 Y1.75 I0.9063 J1.5697
G0 Z0.125
M5
M30
