%
(Header)
(Generated by gcodetools from Inkscape.)
(Using default header. To add your own header create file "header" in the output dir.)
M3
(Header end.)
G21 (All units in mm)

(Start cutting path id: path3016)
(Change tool to Default tool)

G00 Z5.000000
G00 X24.228232 Y35.844677

G01 Z-0.125000 F100.0(Penetrate)
G01 X24.990007 Y35.009182 Z-0.125000 F400.000000
G01 X24.916287 Y34.591435 Z-0.125000
G01 X24.965433 Y34.591435 Z-0.125000
G03 X26.799212 Y33.043182 Z-0.125000 I19.892279 J21.700668
G03 X27.594784 Y32.551845 Z-0.125000 I2.681820 J3.452635
G03 X28.097109 Y32.137591 Z-0.125000 I3.958372 J4.288237
G03 X28.602292 Y31.790071 Z-0.125000 I5.815094 J7.912340
G01 X28.577719 Y31.642631 Z-0.125000
G01 X28.479425 Y31.642631 Z-0.125000
G01 X27.914238 Y31.863791 Z-0.125000
G01 X27.471917 Y32.281538 Z-0.125000
G01 X27.471917 Y32.306112 Z-0.125000
G01 X27.570211 Y32.306112 Z-0.125000
G01 X27.766798 Y32.109525 Z-0.125000
G01 X27.791371 Y32.109525 Z-0.125000
G01 X27.742759 Y32.223067 Z-0.125000
G03 X27.471917 Y32.404405 Z-0.125000 I-0.658099 J-0.689990
G01 X27.349050 Y32.355258 Z-0.125000
G01 X27.349050 Y32.428978 Z-0.125000
G01 X26.882156 Y32.428978 Z-0.125000
G03 X26.047062 Y32.133331 Z-0.125000 I0.000000 J-1.327238
G03 X24.793420 Y30.757989 Z-0.125000 I3.888458 J-4.803409
G03 X24.454642 Y29.791247 Z-0.125000 I3.200665 J-1.664346
G03 X24.301952 Y28.226932 Z-0.125000 I7.936888 J-1.564315
G01 X24.301952 Y27.268570 Z-0.125000
G01 X24.481079 Y27.146329 Z-0.125000
G01 X24.547686 Y26.949117 Z-0.125000
G01 X24.647267 Y26.889915 Z-0.125000
G02 X24.719700 Y26.605089 Z-0.125000 I-0.523789 J-0.284826
G01 X24.783490 Y26.555284 Z-0.125000
G02 X24.867140 Y26.015329 Z-0.125000 I-2.907644 J-0.726911
G01 X24.793420 Y25.646728 Z-0.125000
G03 X25.033387 Y24.531427 Z-0.125000 I6.774450 J0.874123
G03 X25.407754 Y23.680858 Z-0.125000 I3.741497 J1.139099
G01 X25.407754 Y23.607138 Z-0.125000
G01 X25.356489 Y23.549426 Z-0.125000
G02 X24.670553 Y23.508845 Z-0.125000 I-0.685936 J5.776849
G01 X24.154512 Y23.508845 Z-0.125000
G01 X23.908778 Y23.213964 Z-0.125000
G02 X25.664213 Y23.113610 Z-0.125000 I-0.473844 J-23.692183
G01 X25.751781 Y23.017377 Z-0.125000
G03 X25.867363 Y22.764573 Z-0.125000 I0.737578 J0.184394
G01 X25.948368 Y22.722497 Z-0.125000
G02 X26.549963 Y22.191616 Z-0.125000 I-2.411571 J-3.339099
G01 X26.611849 Y22.034442 Z-0.125000
G02 X26.883555 Y21.662917 Z-0.125000 I-1.061192 J-1.061192
G02 X27.324477 Y20.633760 Z-0.125000 I-6.843905 J-3.541166
G01 X27.417047 Y20.494128 Z-0.125000
G01 X27.447344 Y20.338880 Z-0.125000
G02 X27.760381 Y20.069887 Z-0.125000 I-0.629597 J-1.049329
G01 X27.840518 Y19.847412 Z-0.125000
G01 X27.961204 Y19.797422 Z-0.125000
G02 X28.282838 Y19.405092 Z-0.125000 I-1.820261 J-1.820261
G01 X28.995466 Y18.692464 Z-0.125000
G01 X28.995466 Y18.643317 Z-0.125000
G01 X28.798879 Y18.692464 Z-0.125000
G01 X28.454852 Y18.692464 Z-0.125000
G01 X28.454852 Y18.766184 Z-0.125000
G01 X28.651439 Y18.766184 Z-0.125000
G01 X28.651439 Y18.839904 Z-0.125000
G01 X28.528572 Y18.962771 Z-0.125000
G01 X27.668504 Y18.962771 Z-0.125000
G03 X27.716892 Y18.533689 Z-0.125000 I1.926651 J0.000000
G01 X27.791371 Y18.373010 Z-0.125000
G01 X27.717651 Y18.274717 Z-0.125000
G01 X27.717651 Y18.127276 Z-0.125000
G01 X27.802227 Y18.101273 Z-0.125000
G01 X27.840518 Y18.028983 Z-0.125000
G01 X27.717651 Y18.004410 Z-0.125000
G01 X27.717651 Y17.439222 Z-0.125000
G03 X28.098215 Y17.500979 Z-0.125000 I-0.000000 J1.203448
G01 X28.159972 Y17.586662 Z-0.125000
G01 X28.135398 Y17.709529 Z-0.125000
G01 X28.405705 Y17.709529 Z-0.125000
G01 X28.405705 Y17.635809 Z-0.125000
G01 X27.717651 Y16.800314 Z-0.125000
G01 X27.717651 Y15.719086 Z-0.125000
G01 X27.766798 Y15.719086 Z-0.125000
G01 X28.331985 Y16.431714 Z-0.125000
G02 X28.899278 Y17.163337 Z-0.125000 I3.175129 J-1.876213
G02 X30.101268 Y18.200996 Z-0.125000 I7.672087 J-7.672087
G01 X30.322428 Y18.471304 Z-0.125000
G01 X30.371575 Y18.471304 Z-0.125000
G01 X30.371575 Y18.446730 Z-0.125000
G01 X28.651439 Y16.677447 Z-0.125000
G01 X28.629150 Y16.611135 Z-0.125000
G02 X27.766798 Y15.522499 Z-0.125000 I-25.854392 J19.594432
G01 X27.840518 Y14.416697 Z-0.125000
G01 X27.791371 Y14.392124 Z-0.125000
G01 X27.766798 Y14.392124 Z-0.125000
G01 X27.398197 Y14.711578 Z-0.125000
G01 X27.349050 Y14.711578 Z-0.125000
G01 X27.294794 Y14.683701 Z-0.125000
G03 X27.127890 Y14.392124 Z-0.125000 I1.345586 J-0.963795
G01 X27.054170 Y14.392124 Z-0.125000
G02 X26.840791 Y13.993421 Z-0.125000 I-2.163821 J0.901592
G01 X26.759289 Y13.949803 Z-0.125000
G01 X26.759289 Y14.023523 Z-0.125000
G03 X27.156348 Y14.755186 Z-0.125000 I-3.346066 J2.289413
G03 X27.226183 Y15.104752 Z-0.125000 I-0.839973 J0.349566
G01 X27.201610 Y15.104752 Z-0.125000
G01 X27.060355 Y15.146564 Z-0.125000
G02 X26.808436 Y15.350485 Z-0.125000 I0.842368 J1.298208
G01 X26.513556 Y15.104752 Z-0.125000
G01 X25.579768 Y15.866526 Z-0.125000
G01 X25.579768 Y15.915673 Z-0.125000
G01 X25.628914 Y15.915673 Z-0.125000
G01 X25.751781 Y15.866526 Z-0.125000
G01 X26.267822 Y15.940246 Z-0.125000
G01 X26.267822 Y16.063113 Z-0.125000
G01 X26.194102 Y16.161407 Z-0.125000
G01 X25.432327 Y16.161407 Z-0.125000
G03 X25.194150 Y16.089452 Z-0.125000 I0.116582 J-0.816073
G01 X25.162020 Y16.038540 Z-0.125000
G01 X24.867140 Y16.063113 Z-0.125000
G01 X24.301952 Y16.063113 Z-0.125000
G01 X24.301952 Y15.940246 Z-0.125000
G01 X24.400246 Y15.940246 Z-0.125000
G01 X24.400246 Y15.915673 Z-0.125000
G01 X24.424819 Y15.940246 Z-0.125000
G01 X24.621406 Y15.940246 Z-0.125000
G01 X25.039153 Y15.989393 Z-0.125000
G02 X24.820306 Y15.446623 Z-0.125000 I-3.478367 J1.086990
G01 X24.744273 Y15.399632 Z-0.125000
G01 X24.842566 Y14.908165 Z-0.125000
G01 X24.793420 Y14.662431 Z-0.125000
G01 X24.719700 Y14.662431 Z-0.125000
G01 X24.685128 Y14.796802 Z-0.125000
G01 X24.621406 Y14.834445 Z-0.125000
G01 X24.400246 Y14.834445 Z-0.125000
G01 X24.313108 Y14.793631 Z-0.125000
G03 X24.031645 Y14.392124 Z-0.125000 I2.262775 J-1.885646
G01 X24.007072 Y14.392124 Z-0.125000
G01 X23.884205 Y14.416697 Z-0.125000
G01 X23.884205 Y14.514991 Z-0.125000
G01 X24.056219 Y14.539564 Z-0.125000
G01 X24.031645 Y14.760725 Z-0.125000
G01 X23.663045 Y14.760725 Z-0.125000
G01 X23.638471 Y14.514991 Z-0.125000
G01 X23.761338 Y14.465844 Z-0.125000
G01 X23.761338 Y14.269257 Z-0.125000
G01 X23.613325 Y14.222862 Z-0.125000
G03 X23.392738 Y14.023523 Z-0.125000 I0.668230 J-0.961181
G03 X23.187244 Y13.948589 Z-0.125000 I0.074977 J-0.524837
G01 X23.147004 Y13.876083 Z-0.125000
G01 X22.950417 Y13.900657 Z-0.125000
G01 X22.901270 Y13.900657 Z-0.125000
G01 X22.778403 Y13.581203 Z-0.125000
G01 X22.827550 Y13.581203 Z-0.125000
G01 X22.950417 Y13.630349 Z-0.125000
G01 X22.999564 Y13.581203 Z-0.125000
G01 X22.950417 Y13.384616 Z-0.125000
G01 X22.901270 Y13.384616 Z-0.125000
G01 X22.532670 Y13.581203 Z-0.125000
G01 X22.188642 Y13.507483 Z-0.125000
G01 X22.188642 Y13.310896 Z-0.125000
G02 X22.399818 Y13.282480 Z-0.125000 I0.000000 J-0.798908
G01 X22.434376 Y13.237176 Z-0.125000
G01 X22.434376 Y13.188029 Z-0.125000
G01 X22.237789 Y13.237176 Z-0.125000
G01 X21.992055 Y13.237176 Z-0.125000
G02 X21.961177 Y13.046894 Z-0.125000 I-0.601724 J0.000000
G01 X21.918335 Y13.016015 Z-0.125000
G01 X21.869189 Y13.065162 Z-0.125000
G03 X21.497066 Y12.813255 Z-0.125000 I0.226090 J-0.734792
G03 X21.377721 Y12.475401 Z-0.125000 I0.418543 J-0.337854
G01 X21.353148 Y12.426254 Z-0.125000
G01 X21.254854 Y12.426254 Z-0.125000
G02 X21.383312 Y12.910938 Z-0.125000 I1.969345 J-0.262579
G01 X21.476015 Y12.991442 Z-0.125000
G01 X21.549735 Y12.991442 Z-0.125000
G01 X21.549735 Y13.016015 Z-0.125000
G03 X21.493454 Y13.291475 Z-0.125000 I-0.702252 J-0.000000
G01 X21.426868 Y13.335469 Z-0.125000
G01 X21.377721 Y13.335469 Z-0.125000
G01 X21.353148 Y13.310896 Z-0.125000
G01 X21.304001 Y13.310896 Z-0.125000
G01 X21.254854 Y13.335469 Z-0.125000
G01 X21.254854 Y13.384616 Z-0.125000
G01 X21.500588 Y13.900657 Z-0.125000
G01 X21.795468 Y14.465844 Z-0.125000
G01 X21.869189 Y14.760725 Z-0.125000
G01 X21.746322 Y14.760725 Z-0.125000
G01 X21.671523 Y14.724943 Z-0.125000
G01 X21.623455 Y14.588711 Z-0.125000
G01 X21.426868 Y14.637858 Z-0.125000
G01 X21.009121 Y14.637858 Z-0.125000
G01 X20.810438 Y14.558672 Z-0.125000
G01 X20.738813 Y14.392124 Z-0.125000
G01 X21.058267 Y14.392124 Z-0.125000
G01 X21.549735 Y14.465844 Z-0.125000
G01 X21.439365 Y14.327797 Z-0.125000
G03 X21.131987 Y13.507483 Z-0.125000 I6.340603 J-2.843612
G01 X21.181134 Y13.138882 Z-0.125000
G01 X21.181134 Y13.016015 Z-0.125000
G01 X21.131987 Y12.868575 Z-0.125000
G01 X21.181134 Y12.745708 Z-0.125000
G01 X20.345640 Y12.352534 Z-0.125000
G01 X20.345640 Y12.426254 Z-0.125000
G01 X20.361400 Y12.454362 Z-0.125000
G02 X20.787960 Y12.671988 Z-0.125000 I1.624136 J-2.656556
G03 X20.691116 Y12.943732 Z-0.125000 I-1.439463 J-0.359866
G01 X20.615947 Y12.991442 Z-0.125000
G01 X20.419360 Y12.991442 Z-0.125000
G01 X20.372873 Y12.961849 Z-0.125000
G03 X20.296493 Y12.770281 Z-0.125000 I1.621667 J-0.757583
G01 X20.345640 Y12.745708 Z-0.125000
G01 X20.345640 Y12.721135 Z-0.125000
G01 X20.275562 Y12.533192 Z-0.125000
G01 X20.149053 Y12.475401 Z-0.125000
G01 X20.149053 Y12.180521 Z-0.125000
G01 X20.222773 Y12.180521 Z-0.125000
G01 X20.247008 Y12.274237 Z-0.125000
G01 X20.296493 Y12.303387 Z-0.125000
G01 X20.222773 Y11.934787 Z-0.125000
G01 X20.173626 Y11.934787 Z-0.125000
G01 X20.123382 Y11.969031 Z-0.125000
G02 X20.050759 Y12.254241 Z-0.125000 I1.098790 J0.431636
G01 X19.854172 Y12.229667 Z-0.125000
G01 X19.854172 Y12.303387 Z-0.125000
G01 X19.971436 Y12.333563 Z-0.125000
G01 X20.026186 Y12.426254 Z-0.125000
G01 X19.657585 Y12.426254 Z-0.125000
G01 X19.387278 Y12.475401 Z-0.125000
G01 X19.387278 Y12.549121 Z-0.125000
G01 X19.436425 Y12.549121 Z-0.125000
G03 X20.154645 Y12.594641 Z-0.125000 I0.000000 J5.688887
G01 X20.222773 Y12.671988 Z-0.125000
G01 X20.222773 Y12.819428 Z-0.125000
G01 X19.952466 Y12.819428 Z-0.125000
G01 X19.952466 Y12.893148 Z-0.125000
G01 X20.050759 Y12.893148 Z-0.125000
G01 X20.050759 Y13.016015 Z-0.125000
G01 X19.977039 Y13.237176 Z-0.125000
G01 X19.657585 Y13.237176 Z-0.125000
G01 X19.657585 Y13.310896 Z-0.125000
G01 X19.952466 Y13.310896 Z-0.125000
G01 X19.952466 Y13.507483 Z-0.125000
G01 X18.060316 Y13.507483 Z-0.125000
G01 X18.060316 Y13.335469 Z-0.125000
G01 X18.084889 Y13.138882 Z-0.125000
G01 X18.011169 Y13.138882 Z-0.125000
G01 X18.060316 Y12.942295 Z-0.125000
G01 X18.060316 Y12.819428 Z-0.125000
G01 X18.453490 Y12.819428 Z-0.125000
G01 X18.453490 Y12.745708 Z-0.125000
G01 X18.084889 Y12.745708 Z-0.125000
G01 X18.011169 Y12.671988 Z-0.125000
G01 X18.011169 Y12.598268 Z-0.125000
G01 X18.404343 Y12.499974 Z-0.125000
G01 X18.404343 Y12.426254 Z-0.125000
G01 X18.060316 Y12.426254 Z-0.125000
G01 X17.962023 Y12.352534 Z-0.125000
G01 X17.962023 Y12.155947 Z-0.125000
G01 X19.067824 Y12.180521 Z-0.125000
G01 X19.387278 Y12.155947 Z-0.125000
G01 X19.731305 Y12.180521 Z-0.125000
G01 X19.780452 Y12.180521 Z-0.125000
G01 X19.780452 Y12.155947 Z-0.125000
G02 X19.354452 Y11.847137 Z-0.125000 I-2.850197 J3.483574
G02 X18.895811 Y11.615333 Z-0.125000 I-1.375295 J2.151495
G03 X18.439259 Y11.146826 Z-0.125000 I4.195704 J-4.545346
G03 X17.937449 Y10.534105 Z-0.125000 I8.928147 J-7.823865
G01 X17.912876 Y10.534105 Z-0.125000
G01 X17.863729 Y10.583251 Z-0.125000
G01 X17.863729 Y11.541613 Z-0.125000
G01 X17.912876 Y11.664480 Z-0.125000
G01 X17.863729 Y11.861067 Z-0.125000
G01 X17.863729 Y12.180521 Z-0.125000
G01 X17.937449 Y18.078130 Z-0.125000
G01 X17.962023 Y18.274717 Z-0.125000
G01 X17.937449 Y18.323863 Z-0.125000
G01 X17.912876 Y18.323863 Z-0.125000
G01 X17.937449 Y18.987344 Z-0.125000
G01 X17.937449 Y19.405092 Z-0.125000
G01 X17.740862 Y19.429665 Z-0.125000
G01 X17.347688 Y19.429665 Z-0.125000
G01 X17.347688 Y18.250143 Z-0.125000
G01 X17.298542 Y16.382567 Z-0.125000
G01 X17.347688 Y16.357994 Z-0.125000
G01 X17.298542 Y16.161407 Z-0.125000
G01 X17.298542 Y14.981885 Z-0.125000
G01 X17.249395 Y14.023523 Z-0.125000
G01 X17.298542 Y13.998950 Z-0.125000
G01 X17.249395 Y13.777790 Z-0.125000
G01 X17.249395 Y10.656972 Z-0.125000
G01 X17.175675 Y10.583251 Z-0.125000
G03 X16.783764 Y11.080055 Z-0.125000 I-2.133729 J-1.280238
G03 X15.897859 Y11.811920 Z-0.125000 I-4.741623 J-4.837506
G03 X13.772331 Y12.847998 Z-0.125000 I-12.679816 J-23.314500
G03 X13.317655 Y12.942295 Z-0.125000 I-0.454676 J-1.049016
G01 X13.286237 Y12.995680 Z-0.125000
G03 X12.555881 Y13.335469 Z-0.125000 I-2.738144 J-4.930652
G02 X11.319723 Y14.309944 Z-0.125000 I13.899517 J18.903344
G02 X10.688305 Y14.908165 Z-0.125000 I4.899990 J5.804253
G01 X10.643197 Y15.044677 Z-0.125000
G03 X10.344277 Y15.350485 Z-0.125000 I-1.268939 J-0.941359
G03 X10.158746 Y15.710721 Z-0.125000 I-1.505342 J-0.547397
G01 X10.049397 Y15.768233 Z-0.125000
G01 X8.919022 Y14.957311 Z-0.125000
G01 X8.799022 Y15.057112 Z-0.125000
G02 X7.985234 Y16.185980 Z-0.125000 I24.876308 J18.790809
G03 X7.363694 Y16.915824 Z-0.125000 I-3.156845 J-2.058812
G03 X7.026872 Y17.046048 Z-0.125000 I-0.336822 J-0.370480
G03 X6.943123 Y17.329061 Z-0.125000 I-0.520067 J0.000000
G03 X6.633698 Y17.635809 Z-0.125000 I-0.859337 J-0.557399
G01 X6.532491 Y17.753632 Z-0.125000
G03 X6.068511 Y18.078130 Z-0.125000 I-34.286007 J-48.529541
G01 X6.128625 Y18.232520 Z-0.125000
G02 X6.904005 Y18.987344 Z-0.125000 I7.093517 J-6.511032
G02 X7.450149 Y19.709651 Z-0.125000 I10.116094 J-7.081266
G01 X7.542913 Y19.773692 Z-0.125000
G01 X7.579397 Y19.868718 Z-0.125000
G02 X7.862367 Y20.166866 Z-0.125000 I5.848899 J-5.267782
G03 X8.682969 Y21.450951 Z-0.125000 I-13.531330 J9.551527
G01 X8.747008 Y21.690415 Z-0.125000
G01 X8.785165 Y21.782534 Z-0.125000
G01 X8.943595 Y21.887002 Z-0.125000
G01 X9.484209 Y22.943657 Z-0.125000
G01 X13.514242 Y22.820790 Z-0.125000
G01 X14.054857 Y22.845364 Z-0.125000
G01 X14.054857 Y22.943657 Z-0.125000
G01 X14.079430 Y23.336831 Z-0.125000
G01 X14.054857 Y23.385978 Z-0.125000
G01 X14.005710 Y23.385978 Z-0.125000
G01 X9.754517 Y23.459698 Z-0.125000
G01 X9.705370 Y23.508845 Z-0.125000
G01 X9.705370 Y23.533418 Z-0.125000
G03 X10.074719 Y24.761938 Z-0.125000 I-20.490169 J6.830056
G03 X10.393424 Y26.187342 Z-0.125000 I-16.649338 J4.470951
G01 X10.455487 Y26.237487 Z-0.125000
G03 X10.565438 Y26.949117 Z-0.125000 I-6.036943 J1.297048
G01 X10.516291 Y27.219424 Z-0.125000
G01 X10.639158 Y28.251505 Z-0.125000
G01 X10.565438 Y28.349799 Z-0.125000
G01 X10.565438 Y28.546386 Z-0.125000
G03 X10.259079 Y30.393128 Z-0.125000 I-18.785157 J-2.167518
G01 X10.172264 Y30.463109 Z-0.125000
G03 X9.737132 Y31.167456 Z-0.125000 I-1.914592 J-0.696215
G03 X8.648715 Y32.084951 Z-0.125000 I-4.608692 J-4.362918
G03 X8.030827 Y32.356713 Z-0.125000 I-5.640060 J-11.985127
G03 X7.788647 Y32.404405 Z-0.125000 I-0.242180 J-0.591055
G01 X7.469193 Y32.404405 Z-0.125000
G01 X7.212669 Y32.305980 Z-0.125000
G01 X7.125166 Y32.109525 Z-0.125000
G01 X7.026872 Y32.109525 Z-0.125000
G01 X7.026872 Y32.207818 Z-0.125000
G01 X6.265098 Y31.593484 Z-0.125000
G01 X6.191378 Y31.593484 Z-0.125000
G01 X6.191378 Y31.642631 Z-0.125000
G02 X7.212971 Y32.559820 Z-0.125000 I9.026961 J-9.026961
G01 X7.469193 Y32.650139 Z-0.125000
G03 X7.898012 Y32.788076 Z-0.125000 I-0.000000 J0.735524
G03 X9.705370 Y34.271981 Z-0.125000 I-10.493754 J14.623730
G01 X9.803663 Y34.468568 Z-0.125000
G01 X9.680796 Y35.033756 Z-0.125000
G01 X9.867013 Y35.108025 Z-0.125000
G03 X10.442571 Y35.721810 Z-0.125000 I-4.949601 J5.218085
G01 X10.835745 Y35.721810 Z-0.125000
G02 X11.897886 Y35.401566 Z-0.125000 I-0.000000 J-1.921500
G02 X13.514242 Y33.952527 Z-0.125000 I-4.146895 J-6.251747
G03 X14.275253 Y33.432652 Z-0.125000 I2.359809 J2.637433
G03 X15.357245 Y33.043313 Z-0.125000 I2.111453 J4.169698
G01 X15.455539 Y33.043313 Z-0.125000
G01 X16.266460 Y33.067886 Z-0.125000
G01 X16.291033 Y33.043313 Z-0.125000
G01 X16.291033 Y32.994166 Z-0.125000
G03 X15.957203 Y32.910104 Z-0.125000 I0.140173 J-1.261553
G01 X15.824139 Y32.822152 Z-0.125000
G02 X15.223673 Y32.906419 Z-0.125000 I-0.000000 J2.181533
G02 X14.300590 Y33.239900 Z-0.125000 I1.992942 J6.960810
G01 X14.267835 Y33.292385 Z-0.125000
G03 X13.735403 Y33.510207 Z-0.125000 I-1.899542 J-3.883508
G01 X13.673466 Y33.668146 Z-0.125000
G03 X12.654174 Y34.689729 Z-0.125000 I-14.375378 J-13.323844
G01 X12.609149 Y34.774489 Z-0.125000
G03 X12.113560 Y35.082903 Z-0.125000 I-4.355632 J-6.446662
G01 X12.037670 Y35.205483 Z-0.125000
G03 X11.278066 Y35.525223 Z-0.125000 I-2.886873 J-5.796155
G01 X11.245574 Y35.564562 Z-0.125000
G03 X10.884892 Y35.598943 Z-0.125000 I-0.360683 J-1.874690
G01 X10.688305 Y35.598943 Z-0.125000
G02 X10.541950 Y35.363360 Z-0.125000 I-0.847315 J0.363135
G02 X10.196837 Y35.009182 Z-0.125000 I-2.870499 J2.451807
G01 X10.073970 Y35.009182 Z-0.125000
G01 X10.049397 Y35.033756 Z-0.125000
G01 X10.000250 Y35.033756 Z-0.125000
G01 X9.926530 Y34.960036 Z-0.125000
G01 X9.951104 Y34.763449 Z-0.125000
G01 X9.951104 Y34.591435 Z-0.125000
G01 X10.000250 Y34.591435 Z-0.125000
G01 X10.049397 Y34.640582 Z-0.125000
G01 X10.073970 Y34.640582 Z-0.125000
G01 X10.123117 Y34.591435 Z-0.125000
G02 X9.950867 Y34.301420 Z-0.125000 I-0.752723 J0.250908
G02 X8.599568 Y32.994166 Z-0.125000 I-13.277651 J12.372973
G01 X7.960660 Y32.600992 Z-0.125000
G01 X7.991539 Y32.558150 Z-0.125000
G03 X8.181821 Y32.527272 Z-0.125000 I0.190282 J0.570846
G01 X8.239295 Y32.425136 Z-0.125000
G03 X8.427554 Y32.355258 Z-0.125000 I0.275540 J0.453805
G01 X8.673288 Y32.650139 Z-0.125000
G01 X8.796155 Y32.600992 Z-0.125000
G01 X8.796155 Y32.650139 Z-0.125000
G01 X8.871402 Y32.816981 Z-0.125000
G02 X9.164756 Y32.945019 Z-0.125000 I0.345252 J-0.390943
G01 X9.189329 Y33.067886 Z-0.125000
G01 X9.164756 Y33.117033 Z-0.125000
G03 X9.535137 Y33.361598 Z-0.125000 I-0.454795 J1.091508
G03 X9.705370 Y33.633074 Z-0.125000 I-0.473591 J0.486083
G03 X10.051326 Y33.835937 Z-0.125000 I-0.379484 J1.043581
G01 X10.123117 Y33.952527 Z-0.125000
G01 X10.073970 Y34.001674 Z-0.125000
G03 X10.380303 Y34.213611 Z-0.125000 I-0.923154 J1.661677
G03 X10.688305 Y34.566862 Z-0.125000 I-1.011925 J1.193204
G01 X10.790213 Y34.600107 Z-0.125000
G01 X10.835745 Y34.689729 Z-0.125000
G01 X10.835745 Y34.763449 Z-0.125000
G01 X10.639158 Y34.763449 Z-0.125000
G01 X10.442571 Y34.591435 Z-0.125000
G01 X10.442571 Y34.763449 Z-0.125000
G01 X10.393424 Y34.714302 Z-0.125000
G01 X10.270557 Y34.714302 Z-0.125000
G01 X10.172264 Y34.837169 Z-0.125000
G01 X10.172264 Y34.886316 Z-0.125000
G01 X10.344277 Y34.910889 Z-0.125000
G01 X10.639158 Y34.910889 Z-0.125000
G02 X11.380713 Y34.696422 Z-0.125000 I-0.358457 J-2.628687
G02 X11.794106 Y34.394848 Z-0.125000 I-0.526890 J-1.156378
G03 X14.155636 Y32.558387 Z-0.125000 I15.359171 J17.313975
G03 X14.816631 Y32.355258 Z-0.125000 I0.660995 J0.973895
G01 X14.928799 Y32.336142 Z-0.125000
G02 X15.209805 Y32.207818 Z-0.125000 I-0.564427 J-1.607833
G02 X16.209062 Y32.081874 Z-0.125000 I-0.000000 J-4.027081
G01 X16.340180 Y31.912938 Z-0.125000
G01 X16.365581 Y31.852358 Z-0.125000
G03 X17.126528 Y31.151163 Z-0.125000 I11.265971 J11.462517
G01 X17.175675 Y31.126590 Z-0.125000
G01 X17.175675 Y26.727956 Z-0.125000
G01 X17.224821 Y26.727956 Z-0.125000
G01 X17.814582 Y26.826250 Z-0.125000
G01 X17.740862 Y26.949117 Z-0.125000
G01 X17.740862 Y29.701334 Z-0.125000
G01 X17.667142 Y29.824201 Z-0.125000
G01 X17.667142 Y30.954576 Z-0.125000
G01 X17.617995 Y31.151163 Z-0.125000
G01 X17.708604 Y31.192121 Z-0.125000
G03 X18.527210 Y32.158671 Z-0.125000 I-25.019169 J22.019552
G03 X20.701395 Y32.629832 Z-0.125000 I-1.675026 J12.981450
G03 X21.131987 Y32.945019 Z-0.125000 I-0.239774 J0.779286
G03 X21.428216 Y33.109492 Z-0.125000 I-0.291098 J0.873293
G03 X23.220724 Y34.689729 Z-0.125000 I-24.910260 J30.063190
G02 X24.012737 Y35.014294 Z-0.125000 I2.124944 J-4.056712
G02 X24.473966 Y35.082903 Z-0.125000 I0.461229 J-1.516036
G01 X24.105365 Y35.476076 Z-0.125000
G01 X24.154512 Y35.525223 Z-0.125000
G01 X24.179085 Y35.525223 Z-0.125000
G01 X24.400246 Y35.353210 Z-0.125000
G01 X24.424819 Y35.353210 Z-0.125000
G01 X24.254092 Y35.531465 Z-0.125000
G03 X23.957925 Y35.598943 Z-0.125000 I-0.296167 J-0.616209
G01 X23.663045 Y35.598943 Z-0.125000
G03 X23.345356 Y35.531201 Z-0.125000 I-0.000000 J-0.778797
G03 X22.532670 Y35.082903 Z-0.125000 I2.258613 J-5.055247
G01 X22.507770 Y35.019496 Z-0.125000
G02 X21.574308 Y34.050821 Z-0.125000 I-26.629923 J24.727786
G01 X21.492462 Y33.885398 Z-0.125000
G01 X21.254854 Y33.805087 Z-0.125000
G02 X21.044354 Y33.573996 Z-0.125000 I-0.514526 J0.257263
G02 X19.854172 Y32.945019 Z-0.125000 I-5.037637 J8.091922
G01 X19.215264 Y32.822152 Z-0.125000
G01 X18.404343 Y32.871299 Z-0.125000
G02 X17.648953 Y31.829415 Z-0.125000 I-8.668141 J5.489822
G02 X17.298542 Y31.519764 Z-0.125000 I-1.153272 J0.951987
G01 X17.230881 Y31.711948 Z-0.125000
G03 X16.340180 Y32.723859 Z-0.125000 I-11.742627 J-9.438091
G01 X16.340180 Y32.822152 Z-0.125000
G01 X16.413900 Y32.920446 Z-0.125000
G01 X16.487620 Y32.920446 Z-0.125000
G01 X16.546186 Y32.890083 Z-0.125000
G02 X16.782501 Y32.527272 Z-0.125000 I-4.795824 J-3.382094
G03 X16.920354 Y32.297445 Z-0.125000 I0.912480 J0.391063
G03 X17.347688 Y31.839218 Z-0.125000 I3.268898 J2.620133
G01 X17.347688 Y31.740924 Z-0.125000
G03 X17.592766 Y31.941645 Z-0.125000 I-0.320893 J0.641787
G03 X18.011169 Y32.650139 Z-0.125000 I-2.531269 J1.972639
G01 X18.067463 Y32.677803 Z-0.125000
G03 X18.306050 Y33.043313 Z-0.125000 I-2.190427 J1.690426
G01 X18.502637 Y33.043313 Z-0.125000
G01 X19.780452 Y33.067886 Z-0.125000
G01 X19.813478 Y33.119108 Z-0.125000
G02 X20.419360 Y33.362767 Z-0.125000 I3.129809 J-6.907469
G03 X21.090974 Y33.786164 Z-0.125000 I-1.170455 J2.601011
G03 X22.065776 Y34.788022 Z-0.125000 I-4.662230 J5.511484
G02 X23.087808 Y35.585912 Z-0.125000 I2.323930 J-1.923252
G02 X24.228232 Y35.844677 Z-0.125000 I1.140424 J-2.383641
G01 X24.228232 Y35.844677 Z-0.125000
G01 X24.228232 Y35.844677 Z-0.125000
G00 Z5.000000

(End cutting path id: path3016)


(Start cutting path id: path3016)
(Change tool to Default tool)

G00 Z5.000000
G00 X24.621406 Y35.156623

G01 Z-0.125000 F100.0(Penetrate)
G01 X24.670553 Y35.132049 Z-0.125000 F400.000000
G01 X24.670553 Y35.082903 Z-0.125000
G01 X24.596833 Y34.886316 Z-0.125000
G01 X24.621406 Y34.886316 Z-0.125000
G01 X24.793420 Y34.837169 Z-0.125000
G01 X24.744273 Y34.886316 Z-0.125000
G01 X24.744273 Y34.910889 Z-0.125000
G01 X24.793420 Y35.082903 Z-0.125000
G01 X24.670553 Y35.156623 Z-0.125000
G01 X24.621406 Y35.156623 Z-0.125000
G01 X24.621406 Y35.156623 Z-0.125000
G00 Z5.000000

(End cutting path id: path3016)


(Start cutting path id: path3016)
(Change tool to Default tool)

G00 Z5.000000
G00 X24.154512 Y34.763449

G01 Z-0.125000 F100.0(Penetrate)
G03 X25.045089 Y33.876827 Z-0.125000 I7.431117 J6.573681 F400.000000
G01 X25.235740 Y33.805087 Z-0.125000
G01 X24.228232 Y34.837169 Z-0.125000
G01 X24.154512 Y34.763449 Z-0.125000
G01 X24.154512 Y34.763449 Z-0.125000
G00 Z5.000000

(End cutting path id: path3016)


(Start cutting path id: path3016)
(Change tool to Default tool)

G00 Z5.000000
G00 X24.473966 Y34.788022

G01 Z-0.125000 F100.0(Penetrate)
G01 X24.596833 Y34.689729 Z-0.125000 F400.000000
G01 X24.596833 Y34.714302 Z-0.125000
G01 X24.523113 Y34.788022 Z-0.125000
G01 X24.473966 Y34.788022 Z-0.125000
G01 X24.473966 Y34.788022 Z-0.125000
G00 Z5.000000

(End cutting path id: path3016)


(Start cutting path id: path3016)
(Change tool to Default tool)

G00 Z5.000000
G00 X22.901270 Y34.050821

G01 Z-0.125000 F100.0(Penetrate)
G01 X22.876697 Y34.173688 Z-0.125000 F400.000000
G01 X22.827550 Y34.173688 Z-0.125000
G02 X21.138670 Y32.664121 Z-0.125000 I-14.307634 J14.307634
G02 X20.714240 Y32.478125 Z-0.125000 I-0.561283 J0.703551
G03 X20.205815 Y32.212826 Z-0.125000 I7.416299 J-14.832598
G01 X20.173626 Y32.158671 Z-0.125000
G01 X20.468506 Y32.109525 Z-0.125000
G01 X20.615947 Y32.109525 Z-0.125000
G03 X21.092609 Y32.364150 Z-0.125000 I-0.269490 J1.077961
G01 X21.230281 Y32.674712 Z-0.125000
G01 X21.697175 Y32.797579 Z-0.125000
G01 X21.697175 Y32.748432 Z-0.125000
G01 X21.731734 Y32.703127 Z-0.125000
G03 X21.942909 Y32.674712 Z-0.125000 I0.211175 J0.770493
G01 X22.007701 Y32.745190 Z-0.125000
G02 X22.262363 Y32.797579 Z-0.125000 I0.254662 J-0.592764
G01 X22.753830 Y32.797579 Z-0.125000
G02 X23.037346 Y32.746331 Z-0.125000 I-0.000000 J-0.809863
G02 X23.761338 Y32.404405 Z-0.125000 I-1.678978 J-4.492511
G01 X23.761338 Y32.428978 Z-0.125000
G01 X23.908778 Y32.723859 Z-0.125000
G01 X23.884205 Y32.748432 Z-0.125000
G01 X24.351099 Y32.920446 Z-0.125000
G01 X24.351099 Y32.822152 Z-0.125000
G02 X24.098726 Y32.468943 Z-0.125000 I-0.808633 J0.311013
G01 X23.785912 Y32.355258 Z-0.125000
G01 X23.785912 Y32.306112 Z-0.125000
G01 X24.301952 Y31.347750 Z-0.125000
G02 X24.241121 Y30.420586 Z-0.125000 I-7.096092 J-0.000000
G01 X24.154512 Y30.217375 Z-0.125000
G01 X24.179085 Y30.192802 Z-0.125000
G01 X24.228232 Y30.192802 Z-0.125000
G01 X24.252467 Y30.286519 Z-0.125000
G01 X24.301952 Y30.315669 Z-0.125000
G01 X24.424819 Y30.266522 Z-0.125000
G01 X24.916287 Y31.298603 Z-0.125000
G01 X24.621406 Y31.175737 Z-0.125000
G01 X24.621406 Y31.224883 Z-0.125000
G02 X24.745793 Y31.607394 Z-0.125000 I1.334113 J-0.222352
G01 X24.842566 Y31.667204 Z-0.125000
G01 X25.112874 Y31.667204 Z-0.125000
G01 X25.063727 Y31.470617 Z-0.125000
G02 X26.193561 Y32.401546 Z-0.125000 I5.387385 J-5.387385
G02 X26.685569 Y32.551845 Z-0.125000 I0.492008 J-0.730152
G01 X26.685569 Y32.650139 Z-0.125000
G01 X25.432327 Y33.608500 Z-0.125000
G01 X25.407754 Y33.559354 Z-0.125000
G01 X25.407754 Y33.485633 Z-0.125000
G01 X25.678061 Y33.166180 Z-0.125000
G01 X25.678061 Y33.117033 Z-0.125000
G01 X25.284887 Y33.485633 Z-0.125000
G01 X25.235740 Y33.485633 Z-0.125000
G01 X25.039153 Y33.436487 Z-0.125000
G01 X24.990007 Y33.485633 Z-0.125000
G01 X24.990007 Y33.510207 Z-0.125000
G01 X25.039153 Y33.559354 Z-0.125000
G01 X25.039153 Y33.608500 Z-0.125000
G01 X24.981066 Y33.766877 Z-0.125000
G03 X24.351099 Y34.394848 Z-0.125000 I-4.047746 J-3.430642
G01 X24.301952 Y34.394848 Z-0.125000
G02 X24.158768 Y34.134013 Z-0.125000 I-0.519454 J0.115434
G01 X23.957925 Y34.050821 Z-0.125000
G01 X23.908778 Y34.075394 Z-0.125000
G01 X23.908778 Y34.124541 Z-0.125000
G01 X23.957925 Y34.394848 Z-0.125000
G01 X24.277379 Y34.394848 Z-0.125000
G01 X24.277379 Y34.468568 Z-0.125000
G03 X24.084043 Y34.716662 Z-0.125000 I-0.713887 J-0.356943
G01 X23.957925 Y34.763449 Z-0.125000
G03 X23.445178 Y34.575854 Z-0.125000 I0.000000 J-0.794535
G01 X23.269871 Y34.198261 Z-0.125000
G01 X22.901270 Y34.050821 Z-0.125000
G01 X22.901270 Y34.050821 Z-0.125000
G00 Z5.000000

(End cutting path id: path3016)


(Start cutting path id: path3016)
(Change tool to Default tool)

G00 Z5.000000
G00 X24.621406 Y34.640582

G01 Z-0.125000 F100.0(Penetrate)
G03 X24.813667 Y34.351346 Z-0.125000 I0.946625 J0.420722 F400.000000
G03 X25.407754 Y33.829661 Z-0.125000 I3.031175 J2.852745
G01 X25.407754 Y33.927954 Z-0.125000
G01 X24.670553 Y34.640582 Z-0.125000
G01 X24.621406 Y34.640582 Z-0.125000
G01 X24.621406 Y34.640582 Z-0.125000
G00 Z5.000000

(End cutting path id: path3016)


(Start cutting path id: path3016)
(Change tool to Default tool)

G00 Z5.000000
G00 X8.673288 Y32.306112

G01 Z-0.125000 F100.0(Penetrate)
G01 X8.673288 Y32.232391 Z-0.125000 F400.000000
G01 X8.777544 Y32.189207 Z-0.125000
G01 X8.820728 Y32.084951 Z-0.125000
G01 X8.943595 Y32.084951 Z-0.125000
G01 X9.032241 Y32.122610 Z-0.125000
G03 X9.312196 Y32.478125 Z-0.125000 I-1.626007 J1.568400
G01 X9.377666 Y32.501213 Z-0.125000
G03 X9.754517 Y32.822152 Z-0.125000 I-5.672560 J7.042506
G01 X9.837378 Y32.865668 Z-0.125000
G01 X9.877383 Y32.994166 Z-0.125000
G01 X9.951104 Y33.117033 Z-0.125000
G01 X9.951104 Y33.166180 Z-0.125000
G01 X8.919022 Y32.232391 Z-0.125000
G01 X8.869875 Y32.232391 Z-0.125000
G01 X8.869875 Y32.281538 Z-0.125000
G03 X11.035511 Y34.434523 Z-0.125000 I-190.550865 J193.836225
G03 X11.130625 Y34.566862 Z-0.125000 I-0.363692 J0.361742
G01 X11.130625 Y34.591435 Z-0.125000
G02 X8.873340 Y32.445228 Z-0.125000 I-126.565320 J130.855669
G02 X8.673288 Y32.306112 Z-0.125000 I-0.579767 J0.620315
G01 X8.673288 Y32.306112 Z-0.125000
G01 X8.673288 Y32.306112 Z-0.125000
G00 Z5.000000

(End cutting path id: path3016)


(Start cutting path id: path3016)
(Change tool to Default tool)

G00 Z5.000000
G00 X10.688305 Y33.878807

G01 Z-0.125000 F100.0(Penetrate)
G01 X10.688305 Y33.829661 Z-0.125000 F400.000000
G01 X10.884892 Y34.001674 Z-0.125000
G01 X11.081479 Y34.001674 Z-0.125000
G01 X11.032332 Y34.198261 Z-0.125000
G03 X11.378288 Y34.401124 Z-0.125000 I-0.379484 J1.043581
G01 X11.450079 Y34.517715 Z-0.125000
G01 X11.253492 Y34.517715 Z-0.125000
G03 X10.931598 Y34.221591 Z-0.125000 I0.945737 J-1.351053
G03 X10.688305 Y33.878807 Z-0.125000 I2.104861 J-1.751677
G01 X10.688305 Y33.878807 Z-0.125000
G01 X10.688305 Y33.878807 Z-0.125000
G00 Z5.000000

(End cutting path id: path3016)


(Start cutting path id: path3016)
(Change tool to Default tool)

G00 Z5.000000
G00 X10.270557 Y34.468568

G01 Z-0.125000 F100.0(Penetrate)
G01 X10.319704 Y34.468568 Z-0.125000 F400.000000
G01 X10.319704 Y34.443995 Z-0.125000
G01 X10.196837 Y34.321128 Z-0.125000
G01 X10.196837 Y34.394848 Z-0.125000
G01 X10.270557 Y34.468568 Z-0.125000
G01 X10.270557 Y34.468568 Z-0.125000
G00 Z5.000000

(End cutting path id: path3016)


(Start cutting path id: path3016)
(Change tool to Default tool)

G00 Z5.000000
G00 X9.066462 Y32.035805

G01 Z-0.125000 F100.0(Penetrate)
G01 X9.066462 Y31.912938 Z-0.125000 F400.000000
G03 X10.165234 Y32.849341 Z-0.125000 I-41.831374 J50.197649
G03 X11.253492 Y33.829661 Z-0.125000 I-29.280362 J33.598468
G01 X11.317417 Y33.856658 Z-0.125000
G03 X11.646666 Y34.247408 Z-0.125000 I-2.567405 J2.497408
G01 X11.646666 Y34.271981 Z-0.125000
G01 X11.523799 Y34.271981 Z-0.125000
G02 X10.865635 Y33.685655 Z-0.125000 I-5.407701 J5.407701
G02 X10.590011 Y33.510207 Z-0.125000 I-0.984714 J1.242732
G02 X9.190458 Y32.086545 Z-0.125000 I-42.332596 J40.215966
G01 X9.066462 Y32.035805 Z-0.125000
G01 X9.066462 Y32.035805 Z-0.125000
G01 X9.066462 Y32.035805 Z-0.125000
G00 Z5.000000

(End cutting path id: path3016)


(Start cutting path id: path3016)
(Change tool to Default tool)

G00 Z5.000000
G00 X10.073970 Y34.247408

G01 Z-0.125000 F100.0(Penetrate)
G01 X10.123117 Y34.247408 Z-0.125000 F400.000000
G01 X10.123117 Y34.198261 Z-0.125000
G01 X10.084023 Y34.103880 Z-0.125000
G02 X9.189329 Y33.264473 Z-0.125000 I-13.611432 J13.611432
G01 X9.164756 Y33.264473 Z-0.125000
G01 X9.164756 Y33.313620 Z-0.125000
G01 X10.073970 Y34.247408 Z-0.125000
G01 X10.073970 Y34.247408 Z-0.125000
G00 Z5.000000

(End cutting path id: path3016)


(Start cutting path id: path3016)
(Change tool to Default tool)

G00 Z5.000000
G00 X10.565438 Y33.043313

G01 Z-0.125000 F100.0(Penetrate)
G01 X10.565438 Y32.994166 Z-0.125000 F400.000000
G01 X10.688305 Y32.945019 Z-0.125000
G01 X10.725849 Y33.005768 Z-0.125000
G01 X10.884892 Y33.043313 Z-0.125000
G01 X10.968094 Y33.274649 Z-0.125000
G01 X11.155199 Y33.362767 Z-0.125000
G01 X11.297174 Y33.551905 Z-0.125000
G01 X11.523799 Y33.633074 Z-0.125000
G01 X11.651145 Y33.909248 Z-0.125000
G01 X11.867826 Y34.001674 Z-0.125000
G01 X11.867826 Y34.075394 Z-0.125000
G01 X11.794106 Y34.173688 Z-0.125000
G01 X11.769533 Y34.173688 Z-0.125000
G02 X10.628126 Y33.068116 Z-0.125000 I-35.232769 J35.232769
G01 X10.565438 Y33.043313 Z-0.125000
G01 X10.565438 Y33.043313 Z-0.125000
G01 X10.565438 Y33.043313 Z-0.125000
G00 Z5.000000

(End cutting path id: path3016)


(Start cutting path id: path3016)
(Change tool to Default tool)

G00 Z5.000000
G00 X10.786598 Y32.920446

G01 Z-0.125000 F100.0(Penetrate)
G01 X10.786598 Y32.871299 Z-0.125000 F400.000000
G01 X10.909465 Y32.871299 Z-0.125000
G01 X11.132855 Y32.956831 Z-0.125000
G01 X11.204345 Y33.117033 Z-0.125000
G01 X11.398236 Y33.186000 Z-0.125000
G03 X12.088987 Y33.878807 Z-0.125000 I-2.993109 J3.674979
G01 X12.088987 Y33.927954 Z-0.125000
G01 X11.990693 Y33.927954 Z-0.125000
G02 X11.742878 Y33.668359 Z-0.125000 I-1.212382 J0.909286
G02 X10.786598 Y32.920446 Z-0.125000 I-14.755441 J17.880956
G01 X10.786598 Y32.920446 Z-0.125000
G01 X10.786598 Y32.920446 Z-0.125000
G00 Z5.000000

(End cutting path id: path3016)


(Start cutting path id: path3016)
(Change tool to Default tool)

G00 Z5.000000
G00 X10.270557 Y33.436487

G01 Z-0.125000 F100.0(Penetrate)
G01 X10.344277 Y33.436487 Z-0.125000 F400.000000
G01 X10.399038 Y33.537358 Z-0.125000
G01 X10.639158 Y33.608500 Z-0.125000
G01 X10.688305 Y33.805087 Z-0.125000
G01 X10.590011 Y33.805087 Z-0.125000
G03 X10.320209 Y33.562611 Z-0.125000 I1.229801 J-1.639735
G01 X10.270557 Y33.436487 Z-0.125000
G01 X10.270557 Y33.436487 Z-0.125000
G01 X10.270557 Y33.436487 Z-0.125000
G00 Z5.000000

(End cutting path id: path3016)


(Start cutting path id: path3016)
(Change tool to Default tool)

G00 Z5.000000
G00 X12.162707 Y33.755941

G01 Z-0.125000 F100.0(Penetrate)
G01 X12.162707 Y33.682220 Z-0.125000 F400.000000
G01 X12.359294 Y33.608500 Z-0.125000
G01 X12.359294 Y33.755941 Z-0.125000
G01 X12.162707 Y33.755941 Z-0.125000
G01 X12.162707 Y33.755941 Z-0.125000
G00 Z5.000000

(End cutting path id: path3016)


(Start cutting path id: path3016)
(Change tool to Default tool)

G00 Z5.000000
G00 X25.481474 Y33.755941

G01 Z-0.125000 F100.0(Penetrate)
G01 X25.481474 Y33.731367 Z-0.125000 F400.000000
G03 X26.712827 Y32.766443 Z-0.125000 I9.177222 J10.443046
G03 X27.005023 Y32.674712 Z-0.125000 I0.292196 J0.419509
G01 X27.005023 Y32.748432 Z-0.125000
G01 X26.746603 Y32.834885 Z-0.125000
G02 X25.628914 Y33.755941 Z-0.125000 I10.004840 J13.279421
G01 X25.481474 Y33.755941 Z-0.125000
G01 X25.481474 Y33.755941 Z-0.125000
G00 Z5.000000

(End cutting path id: path3016)


(Start cutting path id: path3016)
(Change tool to Default tool)

G00 Z5.000000
G00 X11.278066 Y32.994166

G01 Z-0.125000 F100.0(Penetrate)
G01 X11.351786 Y32.920446 Z-0.125000 F400.000000
G01 X11.450079 Y32.920446 Z-0.125000
G01 X11.474314 Y33.014163 Z-0.125000
G01 X11.523799 Y33.043313 Z-0.125000
G01 X11.720386 Y33.043313 Z-0.125000
G01 X11.813799 Y33.255702 Z-0.125000
G01 X12.088987 Y33.362767 Z-0.125000
G01 X12.088987 Y33.559354 Z-0.125000
G01 X12.113560 Y33.608500 Z-0.125000
G01 X12.113560 Y33.633074 Z-0.125000
G01 X12.088987 Y33.633074 Z-0.125000
G01 X11.278066 Y32.994166 Z-0.125000
G01 X11.278066 Y32.994166 Z-0.125000
G00 Z5.000000

(End cutting path id: path3016)


(Start cutting path id: path3016)
(Change tool to Default tool)

G00 Z5.000000
G00 X22.999564 Y33.608500

G01 Z-0.125000 F100.0(Penetrate)
G01 X22.999564 Y33.559354 Z-0.125000 F400.000000
G01 X22.898871 Y33.340426 Z-0.125000
G02 X22.483523 Y33.117033 Z-0.125000 I-0.718762 J0.838556
G01 X22.434376 Y33.166180 Z-0.125000
G01 X22.555407 Y33.419632 Z-0.125000
G02 X22.999564 Y33.608500 Z-0.125000 I0.553337 J-0.684579
G01 X22.999564 Y33.608500 Z-0.125000
G01 X22.999564 Y33.608500 Z-0.125000
G00 Z5.000000

(End cutting path id: path3016)


(Start cutting path id: path3016)
(Change tool to Default tool)

G00 Z5.000000
G00 X11.695813 Y32.871299

G01 Z-0.125000 F100.0(Penetrate)
G01 X11.695813 Y32.797579 Z-0.125000 F400.000000
G01 X11.966120 Y32.600992 Z-0.125000
G01 X12.004164 Y32.677252 Z-0.125000
G02 X12.211854 Y32.797579 Z-0.125000 I0.601913 J-0.799527
G01 X12.244534 Y32.893468 Z-0.125000
G02 X12.555881 Y33.190753 Z-0.125000 I1.128828 J-0.870545
G01 X12.654174 Y33.387340 Z-0.125000
G01 X12.605028 Y33.387340 Z-0.125000
G01 X11.916973 Y32.748432 Z-0.125000
G01 X11.916973 Y32.797579 Z-0.125000
G03 X12.506503 Y33.444585 Z-0.125000 I-19.728549 J18.568047
G01 X12.531307 Y33.510207 Z-0.125000
G01 X12.433014 Y33.510207 Z-0.125000
G01 X11.695813 Y32.871299 Z-0.125000
G01 X11.695813 Y32.871299 Z-0.125000
G00 Z5.000000

(End cutting path id: path3016)


(Start cutting path id: path3016)
(Change tool to Default tool)

G00 Z5.000000
G00 X10.049397 Y33.239900

G01 Z-0.125000 F100.0(Penetrate)
G01 X10.073970 Y33.190753 Z-0.125000 F400.000000
G01 X10.073970 Y33.166180 Z-0.125000
G01 X10.159871 Y33.197999 Z-0.125000
G01 X10.270557 Y33.362767 Z-0.125000
G01 X10.221411 Y33.387340 Z-0.125000
G01 X10.196837 Y33.387340 Z-0.125000
G01 X10.049397 Y33.239900 Z-0.125000
G01 X10.049397 Y33.239900 Z-0.125000
G00 Z5.000000

(End cutting path id: path3016)


(Start cutting path id: path3016)
(Change tool to Default tool)

G00 Z5.000000
G00 X9.041889 Y33.239900

G01 Z-0.125000 F100.0(Penetrate)
G01 X9.066462 Y33.239900 Z-0.125000 F400.000000
G01 X9.066462 Y33.190753 Z-0.125000
G02 X8.793460 Y32.910978 Z-0.125000 I-2.709319 J2.370654
G02 X8.280114 Y32.527272 Z-0.125000 I-2.141186 J2.329361
G01 X8.230968 Y32.551845 Z-0.125000
G01 X8.230968 Y32.600992 Z-0.125000
G01 X9.041889 Y33.239900 Z-0.125000
G01 X9.041889 Y33.239900 Z-0.125000
G00 Z5.000000

(End cutting path id: path3016)


(Start cutting path id: path3016)
(Change tool to Default tool)

G00 Z5.000000
G00 X12.039840 Y32.527272

G01 Z-0.125000 F100.0(Penetrate)
G01 X12.039840 Y32.428978 Z-0.125000 F400.000000
G01 X12.162707 Y32.404405 Z-0.125000
G01 X12.924481 Y33.166180 Z-0.125000
G01 X12.924481 Y33.190753 Z-0.125000
G01 X12.801615 Y33.190753 Z-0.125000
G02 X12.103133 Y32.551251 Z-0.125000 I-19.120394 J20.182638
G01 X12.039840 Y32.527272 Z-0.125000
G01 X12.039840 Y32.527272 Z-0.125000
G01 X12.039840 Y32.527272 Z-0.125000
G00 Z5.000000

(End cutting path id: path3016)


(Start cutting path id: path3016)
(Change tool to Default tool)

G00 Z5.000000
G00 X12.162707 Y32.281538

G01 Z-0.125000 F100.0(Penetrate)
G01 X12.310147 Y32.158671 Z-0.125000 F400.000000
G01 X12.375261 Y32.280521 Z-0.125000
G01 X12.433014 Y32.306112 Z-0.125000
G01 X12.654174 Y32.306112 Z-0.125000
G01 X12.654174 Y32.404405 Z-0.125000
G01 X12.605028 Y32.428978 Z-0.125000
G01 X12.605028 Y32.478125 Z-0.125000
G01 X12.727894 Y32.551845 Z-0.125000
G01 X12.875335 Y32.551845 Z-0.125000
G01 X12.875335 Y32.527272 Z-0.125000
G01 X12.727894 Y32.306112 Z-0.125000
G01 X12.850761 Y32.232391 Z-0.125000
G03 X13.067497 Y32.402530 Z-0.125000 I-0.986692 J1.480038
G03 X13.440522 Y32.797579 Z-0.125000 I-2.590722 J2.819933
G01 X13.391375 Y32.822152 Z-0.125000
G01 X13.366802 Y32.822152 Z-0.125000
G01 X12.973628 Y32.600992 Z-0.125000
G01 X12.924481 Y32.600992 Z-0.125000
G01 X12.960525 Y32.728502 Z-0.125000
G02 X13.170215 Y32.994166 Z-0.125000 I1.232908 J-0.757554
G01 X12.973628 Y32.994166 Z-0.125000
G01 X12.162707 Y32.281538 Z-0.125000
G01 X12.162707 Y32.281538 Z-0.125000
G00 Z5.000000

(End cutting path id: path3016)


(Start cutting path id: path3016)
(Change tool to Default tool)

G00 Z5.000000
G00 X9.189329 Y31.912938

G01 Z-0.125000 F100.0(Penetrate)
G01 X9.189329 Y31.863791 Z-0.125000 F400.000000
G01 X9.291208 Y31.761912 Z-0.125000
G01 X9.484209 Y31.716351 Z-0.125000
G01 X9.484209 Y31.740924 Z-0.125000
G01 X9.435063 Y31.962084 Z-0.125000
G01 X9.754517 Y32.084951 Z-0.125000
G01 X9.827346 Y32.246994 Z-0.125000
G02 X10.172264 Y32.428978 Z-0.125000 I0.543455 J-0.612163
G01 X10.198833 Y32.527867 Z-0.125000
G02 X10.393424 Y32.822152 Z-0.125000 I2.576962 J-1.492492
G01 X10.319704 Y32.822152 Z-0.125000
G02 X9.688407 Y32.290908 Z-0.125000 I-11.648642 J13.201794
G02 X9.189329 Y31.912938 Z-0.125000 I-7.013860 J8.742724
G01 X9.189329 Y31.912938 Z-0.125000
G01 X9.189329 Y31.912938 Z-0.125000
G00 Z5.000000

(End cutting path id: path3016)


(Start cutting path id: path3016)
(Change tool to Default tool)

G00 Z5.000000
G00 X10.467144 Y32.306112

G01 Z-0.125000 F100.0(Penetrate)
G01 X10.467144 Y32.158671 Z-0.125000 F400.000000
G01 X10.786598 Y31.274030 Z-0.125000
G01 X10.786598 Y31.175737 Z-0.125000
G01 X10.835745 Y31.224883 Z-0.125000
G01 X10.909465 Y31.224883 Z-0.125000
G01 X10.976933 Y31.187037 Z-0.125000
G01 X11.007758 Y31.077443 Z-0.125000
G01 X11.153087 Y30.989972 Z-0.125000
G02 X11.253492 Y30.585976 Z-0.125000 I-0.762572 J-0.403996
G01 X11.204345 Y30.561402 Z-0.125000
G01 X11.247187 Y30.530524 Z-0.125000
G02 X11.278066 Y30.340242 Z-0.125000 I-0.570846 J-0.190282
G01 X11.351786 Y30.340242 Z-0.125000
G01 X11.351786 Y30.561402 Z-0.125000
G01 X11.474653 Y30.905429 Z-0.125000
G01 X11.351786 Y31.126590 Z-0.125000
G01 X11.351786 Y31.298603 Z-0.125000
G01 X11.390076 Y31.370893 Z-0.125000
G01 X11.474653 Y31.396897 Z-0.125000
G03 X11.394102 Y31.676756 Z-0.125000 I-0.526434 J0.000000
G01 X11.278066 Y31.740924 Z-0.125000
G01 X11.278066 Y31.863791 Z-0.125000
G01 X11.327212 Y31.912938 Z-0.125000
G01 X11.327212 Y31.962084 Z-0.125000
G01 X11.253492 Y31.962084 Z-0.125000
G01 X11.007758 Y31.863791 Z-0.125000
G01 X10.884892 Y32.232391 Z-0.125000
G01 X10.884892 Y32.428978 Z-0.125000
G01 X11.007758 Y32.551845 Z-0.125000
G01 X11.327212 Y32.551845 Z-0.125000
G02 X11.718710 Y32.328890 Z-0.125000 I-0.304678 J-0.990203
G01 X11.794106 Y32.158671 Z-0.125000
G01 X11.860668 Y32.108268 Z-0.125000
G02 X11.990693 Y31.421470 Z-0.125000 I-3.852288 J-1.085029
G01 X12.039840 Y31.421470 Z-0.125000
G02 X11.898016 Y30.380751 Z-0.125000 I-3.889367 J0.000000
G02 X11.253492 Y28.546386 Z-0.125000 I-13.989995 J3.885123
G01 X11.094355 Y28.333314 Z-0.125000
G03 X11.007758 Y27.588024 Z-0.125000 I3.163874 J-0.745290
G01 X11.007758 Y27.022837 Z-0.125000
G01 X11.090840 Y26.985212 Z-0.125000
G02 X11.204345 Y26.777103 Z-0.125000 I-0.406357 J-0.356642
G01 X11.155199 Y26.506796 Z-0.125000
G01 X11.155199 Y26.457649 Z-0.125000
G01 X11.204345 Y26.457649 Z-0.125000
G02 X11.321576 Y26.711754 Z-0.125000 I0.877358 J-0.250674
G01 X11.351786 Y26.727956 Z-0.125000
G01 X11.450079 Y26.654236 Z-0.125000
G01 X11.450079 Y26.261062 Z-0.125000
G01 X11.695813 Y25.818742 Z-0.125000
G02 X11.426476 Y25.234925 Z-0.125000 I-1.111640 J0.158806
G02 X11.032332 Y25.056967 Z-0.125000 I-0.394145 J0.347500
G01 X11.007758 Y25.081540 Z-0.125000
G01 X10.959632 Y25.148089 Z-0.125000
G03 X10.762025 Y25.179834 Z-0.125000 I-0.197607 J-0.599170
G01 X10.762025 Y25.327274 Z-0.125000
G01 X10.639158 Y25.327274 Z-0.125000
G01 X10.639158 Y25.302701 Z-0.125000
G01 X10.671519 Y25.160233 Z-0.125000
G01 X10.762025 Y25.032394 Z-0.125000
G01 X10.590011 Y24.540926 Z-0.125000
G01 X10.590011 Y24.491780 Z-0.125000
G01 X10.639158 Y24.540926 Z-0.125000
G01 X10.712878 Y24.540926 Z-0.125000
G01 X10.639158 Y24.295193 Z-0.125000
G01 X10.749884 Y24.243891 Z-0.125000
G01 X10.786598 Y24.172326 Z-0.125000
G01 X10.786598 Y24.123179 Z-0.125000
G03 X10.551410 Y24.066530 Z-0.125000 I-0.000000 J-0.516534
G03 X10.000250 Y23.680858 Z-0.125000 I1.114702 J-2.179676
G01 X10.000250 Y23.656285 Z-0.125000
G01 X10.344277 Y23.607138 Z-0.125000
G01 X10.344277 Y23.656285 Z-0.125000
G01 X10.712878 Y24.000312 Z-0.125000
G02 X10.924930 Y23.954344 Z-0.125000 I-0.000000 J-0.512088
G01 X10.958612 Y23.902019 Z-0.125000
G01 X10.958612 Y23.730005 Z-0.125000
G01 X10.909465 Y23.680858 Z-0.125000
G01 X10.909465 Y23.656285 Z-0.125000
G01 X11.253492 Y23.557991 Z-0.125000
G01 X11.351786 Y23.557991 Z-0.125000
G01 X11.351786 Y23.730005 Z-0.125000
G01 X11.278066 Y23.730005 Z-0.125000
G01 X11.278066 Y23.803725 Z-0.125000
G01 X11.351786 Y23.803725 Z-0.125000
G01 X11.404469 Y23.773142 Z-0.125000
G02 X11.523799 Y23.533418 Z-0.125000 I-2.041589 J-1.165832
G01 X11.597519 Y23.533418 Z-0.125000
G01 X11.597519 Y23.730005 Z-0.125000
G01 X11.695813 Y23.730005 Z-0.125000
G01 X11.695813 Y23.533418 Z-0.125000
G01 X11.769533 Y23.533418 Z-0.125000
G01 X11.843253 Y23.607138 Z-0.125000
G03 X11.690468 Y23.806975 Z-0.125000 I-0.471234 J-0.201957
G03 X11.253492 Y24.049459 Z-0.125000 I-0.953025 J-1.202453
G01 X11.155199 Y24.295193 Z-0.125000
G01 X11.155199 Y24.344339 Z-0.125000
G01 X11.345831 Y24.665257 Z-0.125000
G02 X12.482161 Y25.056967 Z-0.125000 I1.731372 J-3.178545
G03 X12.760284 Y25.272357 Z-0.125000 I-0.237652 J0.594129
G01 X12.850761 Y25.548435 Z-0.125000
G02 X12.881640 Y25.738716 Z-0.125000 I0.601724 J0.000000
G01 X12.924481 Y25.769595 Z-0.125000
G01 X12.678748 Y26.555943 Z-0.125000
G01 X12.678748 Y26.605089 Z-0.125000
G01 X12.727894 Y26.654236 Z-0.125000
G01 X12.777041 Y26.654236 Z-0.125000
G01 X12.817646 Y26.621921 Z-0.125000
G02 X12.875335 Y26.261062 Z-0.125000 I-2.625800 J-0.604812
G03 X13.327082 Y26.472698 Z-0.125000 I-0.000000 J0.587956
G03 X13.759976 Y27.342291 Z-0.125000 I-1.618481 J1.348246
G02 X13.592296 Y27.448917 Z-0.125000 I0.199654 J0.499134
G02 X13.391375 Y27.661744 Z-0.125000 I1.616764 J1.727565
G01 X13.391375 Y27.710891 Z-0.125000
G01 X13.809123 Y27.588024 Z-0.125000
G01 X13.809123 Y27.612598 Z-0.125000
G03 X13.979644 Y27.853163 Z-0.125000 I-1.451580 J1.209650
G03 X14.128577 Y28.177785 Z-0.125000 I-1.417181 J0.846661
G01 X14.177723 Y28.177785 Z-0.125000
G01 X14.202297 Y28.128638 Z-0.125000
G01 X14.202297 Y28.104065 Z-0.125000
G01 X14.153437 Y27.936794 Z-0.125000
G02 X13.833696 Y27.538878 Z-0.125000 I-1.986310 J1.268653
G02 X14.205781 Y27.475165 Z-0.125000 I-0.181552 J-2.178628
G01 X14.251443 Y27.416011 Z-0.125000
G01 X14.251443 Y27.391437 Z-0.125000
G01 X14.177723 Y27.268570 Z-0.125000
G01 X14.177723 Y27.170277 Z-0.125000
G01 X14.374310 Y27.293144 Z-0.125000
G01 X14.398884 Y27.293144 Z-0.125000
G01 X14.448030 Y27.268570 Z-0.125000
G01 X14.497177 Y27.268570 Z-0.125000
G01 X14.398884 Y27.071984 Z-0.125000
G01 X14.448030 Y27.071984 Z-0.125000
G01 X14.497177 Y27.022837 Z-0.125000
G01 X14.521751 Y27.071984 Z-0.125000
G01 X14.570897 Y27.071984 Z-0.125000
G03 X15.133023 Y26.922065 Z-0.125000 I0.903387 J2.258467
G03 X16.143593 Y26.850823 Z-0.125000 I1.010570 J7.131902
G01 X16.200596 Y27.039090 Z-0.125000
G01 X16.340180 Y27.145704 Z-0.125000
G01 X16.364753 Y27.145704 Z-0.125000
G01 X16.536767 Y26.973690 Z-0.125000
G01 X16.536767 Y26.899970 Z-0.125000
G01 X16.266460 Y27.022837 Z-0.125000
G01 X16.291033 Y26.777103 Z-0.125000
G01 X16.438474 Y26.777103 Z-0.125000
G01 X16.510763 Y26.815394 Z-0.125000
G01 X16.536767 Y26.899970 Z-0.125000
G01 X16.561340 Y26.899970 Z-0.125000
G01 X16.684207 Y26.826250 Z-0.125000
G01 X16.684207 Y27.022837 Z-0.125000
G01 X16.487620 Y27.219424 Z-0.125000
G01 X16.020726 Y27.219424 Z-0.125000
G01 X15.824139 Y27.170277 Z-0.125000
G01 X15.766591 Y27.251978 Z-0.125000
G03 X15.529259 Y27.293144 Z-0.125000 I-0.237332 J-0.663561
G01 X15.037791 Y27.612598 Z-0.125000
G01 X15.037791 Y27.710891 Z-0.125000
G01 X15.258952 Y27.710891 Z-0.125000
G01 X15.258952 Y27.907478 Z-0.125000
G01 X15.173815 Y27.953399 Z-0.125000
G01 X15.136085 Y28.079492 Z-0.125000
G01 X14.914925 Y28.226932 Z-0.125000
G01 X14.841204 Y28.226932 Z-0.125000
G01 X14.841204 Y28.128638 Z-0.125000
G01 X14.914925 Y28.030345 Z-0.125000
G01 X14.890351 Y27.981198 Z-0.125000
G01 X14.803213 Y28.022012 Z-0.125000
G02 X14.521751 Y28.423519 Z-0.125000 I2.262775 J1.885646
G01 X14.497177 Y28.374372 Z-0.125000
G01 X14.448030 Y28.374372 Z-0.125000
G01 X14.395264 Y28.405190 Z-0.125000
G02 X14.251443 Y28.742973 Z-0.125000 I1.442384 J0.813645
G01 X14.202297 Y28.742973 Z-0.125000
G01 X14.202297 Y28.669253 Z-0.125000
G01 X14.070181 Y28.713306 Z-0.125000
G02 X13.735403 Y29.037853 Z-0.125000 I1.111885 J1.481878
G01 X13.612536 Y29.037853 Z-0.125000
G01 X13.514242 Y28.939560 Z-0.125000
G01 X13.637109 Y28.865840 Z-0.125000
G01 X13.612536 Y28.374372 Z-0.125000
G01 X13.612536 Y28.349799 Z-0.125000
G01 X13.637109 Y28.128638 Z-0.125000
G01 X13.612536 Y28.104065 Z-0.125000
G01 X13.514242 Y28.104065 Z-0.125000
G02 X13.340024 Y28.362347 Z-0.125000 I0.577310 J0.577310
G02 X13.047348 Y29.136147 Z-0.125000 I9.557275 J4.057117
G01 X12.973628 Y29.136147 Z-0.125000
G01 X12.605028 Y28.104065 Z-0.125000
G02 X12.190882 Y27.432917 Z-0.125000 I-1.962374 J0.747571
G02 X11.523799 Y26.899970 Z-0.125000 I-2.039635 J1.869020
G01 X11.373929 Y27.068051 Z-0.125000
G01 X11.278066 Y27.096557 Z-0.125000
G01 X11.278066 Y27.710891 Z-0.125000
G02 X11.342257 Y28.102363 Z-0.125000 I1.225782 J-0.000000
G02 X11.990693 Y29.873348 Z-0.125000 I34.472317 J-11.617634
G03 X12.165170 Y30.587723 Z-0.125000 I-3.047851 J1.122892
G03 X12.236427 Y31.716351 Z-0.125000 I-8.902462 J1.128628
G01 X12.157154 Y31.875991 Z-0.125000
G02 X12.088987 Y32.232391 Z-0.125000 I1.955785 J0.558796
G03 X11.852322 Y32.509463 Z-0.125000 I-0.802429 J-0.445794
G03 X11.351786 Y32.797579 Z-0.125000 I-1.259454 J-1.609178
G03 X10.696635 Y32.697099 Z-0.125000 I-0.000000 J-2.186101
G01 X10.590011 Y32.551845 Z-0.125000
G01 X10.467144 Y32.306112 Z-0.125000
G01 X10.467144 Y32.306112 Z-0.125000
G00 Z5.000000

(End cutting path id: path3016)


(Start cutting path id: path3016)
(Change tool to Default tool)

G00 Z5.000000
G00 X12.850761 Y32.158671

G01 Z-0.125000 F100.0(Penetrate)
G01 X12.850761 Y32.109525 Z-0.125000 F400.000000
G01 X13.121068 Y32.035805 Z-0.125000
G01 X13.210723 Y32.225159 Z-0.125000
G02 X13.514242 Y32.404405 Z-0.125000 I0.733177 J-0.894900
G01 X13.612536 Y32.674712 Z-0.125000
G01 X13.514242 Y32.674712 Z-0.125000
G01 X12.850761 Y32.158671 Z-0.125000
G01 X12.850761 Y32.158671 Z-0.125000
G00 Z5.000000

(End cutting path id: path3016)


(Start cutting path id: path3016)
(Change tool to Default tool)

G00 Z5.000000
G00 X21.500588 Y32.355258

G01 Z-0.125000 F100.0(Penetrate)
G01 X21.820042 Y32.281538 Z-0.125000 F400.000000
G01 X21.920677 Y32.450765 Z-0.125000
G02 X22.508096 Y32.650139 Z-0.125000 I0.872347 J-1.605170
G01 X22.508096 Y32.674712 Z-0.125000
G01 X22.360656 Y32.674712 Z-0.125000
G03 X21.566831 Y32.448963 Z-0.125000 I1.392199 J-6.404115
G01 X21.500588 Y32.355258 Z-0.125000
G01 X21.500588 Y32.355258 Z-0.125000
G01 X21.500588 Y32.355258 Z-0.125000
G00 Z5.000000

(End cutting path id: path3016)


(Start cutting path id: path3016)
(Change tool to Default tool)

G00 Z5.000000
G00 X25.678061 Y32.723859

G01 Z-0.125000 F100.0(Penetrate)
G01 X25.825501 Y32.723859 Z-0.125000 F400.000000
G01 X25.825501 Y32.478125 Z-0.125000
G01 X25.751781 Y32.404405 Z-0.125000
G01 X25.530621 Y32.404405 Z-0.125000
G02 X25.604382 Y32.675394 Z-0.125000 I0.988737 J-0.123592
G01 X25.678061 Y32.723859 Z-0.125000
G01 X25.678061 Y32.723859 Z-0.125000
G01 X25.678061 Y32.723859 Z-0.125000
G00 Z5.000000

(End cutting path id: path3016)


(Start cutting path id: path3016)
(Change tool to Default tool)

G00 Z5.000000
G00 X9.508783 Y31.642631

G01 Z-0.125000 F100.0(Penetrate)
G01 X9.557930 Y31.593484 Z-0.125000 F400.000000
G01 X9.607076 Y31.593484 Z-0.125000
G03 X10.331248 Y32.294425 Z-0.125000 I-2.961767 J3.784480
G01 X10.442571 Y32.600992 Z-0.125000
G01 X9.508783 Y31.642631 Z-0.125000
G01 X9.508783 Y31.642631 Z-0.125000
G00 Z5.000000

(End cutting path id: path3016)


(Start cutting path id: path3016)
(Change tool to Default tool)

G00 Z5.000000
G00 X22.581816 Y32.527272

G01 Z-0.125000 F100.0(Penetrate)
G02 X22.821628 Y32.478049 Z-0.125000 I0.000000 J-0.608783 F400.000000
G02 X23.097857 Y32.306112 Z-0.125000 I-0.423604 J-0.988409
G01 X23.343591 Y32.281538 Z-0.125000
G01 X23.312198 Y32.336313 Z-0.125000
G03 X22.999564 Y32.478125 Z-0.125000 I-0.835011 J-1.425317
G01 X22.973560 Y32.562701 Z-0.125000
G01 X22.901270 Y32.600992 Z-0.125000
G01 X22.655536 Y32.600992 Z-0.125000
G01 X22.581816 Y32.527272 Z-0.125000
G01 X22.581816 Y32.527272 Z-0.125000
G00 Z5.000000

(End cutting path id: path3016)


(Start cutting path id: path3016)
(Change tool to Default tool)

G00 Z5.000000
G00 X23.269871 Y32.478125

G01 Z-0.125000 F100.0(Penetrate)
G01 X23.349406 Y32.363993 Z-0.125000 F400.000000
G03 X23.589325 Y32.232391 Z-0.125000 I0.797458 J1.169324
G01 X23.589325 Y32.281538 Z-0.125000
G01 X23.470366 Y32.421999 Z-0.125000
G01 X23.269871 Y32.478125 Z-0.125000
G01 X23.269871 Y32.478125 Z-0.125000
G01 X23.269871 Y32.478125 Z-0.125000
G00 Z5.000000

(End cutting path id: path3016)


(Start cutting path id: path3016)
(Change tool to Default tool)

G00 Z5.000000
G00 X13.759976 Y32.428978

G01 Z-0.125000 F100.0(Penetrate)
G01 X13.759976 Y32.404405 Z-0.125000 F400.000000
G01 X13.809123 Y32.355258 Z-0.125000
G01 X14.002877 Y32.234601 Z-0.125000
G01 X14.079430 Y32.035805 Z-0.125000
G01 X14.202297 Y32.035805 Z-0.125000
G01 X14.325164 Y32.306112 Z-0.125000
G01 X14.251443 Y32.306112 Z-0.125000
G01 X14.054857 Y32.281538 Z-0.125000
G01 X14.054857 Y32.355258 Z-0.125000
G01 X14.079430 Y32.404405 Z-0.125000
G01 X14.079430 Y32.428978 Z-0.125000
G01 X13.759976 Y32.428978 Z-0.125000
G01 X13.759976 Y32.428978 Z-0.125000
G00 Z5.000000

(End cutting path id: path3016)


(Start cutting path id: path3016)
(Change tool to Default tool)

G00 Z5.000000
G00 X22.065776 Y32.428978

G01 Z-0.125000 F100.0(Penetrate)
G01 X22.065776 Y32.355258 Z-0.125000 F400.000000
G01 X22.188642 Y32.355258 Z-0.125000
G01 X22.385229 Y32.404405 Z-0.125000
G01 X22.385229 Y32.428978 Z-0.125000
G01 X22.065776 Y32.428978 Z-0.125000
G01 X22.065776 Y32.428978 Z-0.125000
G00 Z5.000000

(End cutting path id: path3016)


(Start cutting path id: path3016)
(Change tool to Default tool)

G00 Z5.000000
G00 X22.434376 Y32.306112

G01 Z-0.125000 F100.0(Penetrate)
G01 X22.655536 Y32.232391 Z-0.125000 F400.000000
G01 X22.827550 Y32.281538 Z-0.125000
G01 X22.827550 Y32.306112 Z-0.125000
G01 X22.753830 Y32.404405 Z-0.125000
G01 X22.508096 Y32.404405 Z-0.125000
G01 X22.434376 Y32.306112 Z-0.125000
G01 X22.434376 Y32.306112 Z-0.125000
G00 Z5.000000

(End cutting path id: path3016)


(Start cutting path id: path3016)
(Change tool to Default tool)

G00 Z5.000000
G00 X11.130625 Y32.084951

G01 Z-0.125000 F100.0(Penetrate)
G01 X11.278066 Y32.035805 Z-0.125000 F400.000000
G01 X11.474653 Y32.306112 Z-0.125000
G01 X11.351786 Y32.306112 Z-0.125000
G01 X11.130625 Y32.084951 Z-0.125000
G01 X11.130625 Y32.084951 Z-0.125000
G00 Z5.000000

(End cutting path id: path3016)


(Start cutting path id: path3016)
(Change tool to Default tool)

G00 Z5.000000
G00 X20.959974 Y32.035805

G01 Z-0.125000 F100.0(Penetrate)
G01 X21.230281 Y31.986658 Z-0.125000 F400.000000
G01 X21.254854 Y31.986658 Z-0.125000
G03 X21.477961 Y32.138643 Z-0.125000 I-0.200004 J0.533345
G01 X21.549735 Y32.281538 Z-0.125000
G01 X21.377721 Y32.281538 Z-0.125000
G03 X21.015091 Y32.132520 Z-0.125000 I0.329216 J-1.316865
G01 X20.959974 Y32.035805 Z-0.125000
G01 X20.959974 Y32.035805 Z-0.125000
G01 X20.959974 Y32.035805 Z-0.125000
G00 Z5.000000

(End cutting path id: path3016)


(Start cutting path id: path3016)
(Change tool to Default tool)

G00 Z5.000000
G00 X12.310147 Y31.986658

G01 Z-0.125000 F100.0(Penetrate)
G01 X12.310147 Y31.740924 Z-0.125000 F400.000000
G03 X12.610414 Y31.984549 Z-0.125000 I-0.706754 J1.177924
G01 X12.678748 Y32.158671 Z-0.125000
G01 X12.678748 Y32.232391 Z-0.125000
G01 X12.654174 Y32.232391 Z-0.125000
G01 X12.310147 Y31.986658 Z-0.125000
G01 X12.310147 Y31.986658 Z-0.125000
G00 Z5.000000

(End cutting path id: path3016)


(Start cutting path id: path3016)
(Change tool to Default tool)

G00 Z5.000000
G00 X13.366802 Y32.158671

G01 Z-0.125000 F100.0(Penetrate)
G01 X13.514242 Y31.912938 Z-0.125000 F400.000000
G01 X13.047348 Y31.962084 Z-0.125000
G01 X12.875335 Y31.962084 Z-0.125000
G01 X12.923918 Y31.880750 Z-0.125000
G03 X13.489669 Y31.642631 Z-0.125000 I1.525777 J2.833966
G01 X13.489669 Y31.470617 Z-0.125000
G01 X13.456459 Y31.430107 Z-0.125000
G02 X13.121068 Y31.396897 Z-0.125000 I-0.335390 J1.676952
G03 X12.829153 Y31.070949 Z-0.125000 I0.828676 J-1.035845
G03 X12.727894 Y30.782563 Z-0.125000 I0.573588 J-0.363369
G01 X12.727894 Y30.757989 Z-0.125000
G01 X12.875335 Y30.757989 Z-0.125000
G01 X12.938356 Y30.951394 Z-0.125000
G02 X13.121068 Y31.126590 Z-0.125000 I0.582793 J-0.424925
G01 X13.243935 Y31.126590 Z-0.125000
G01 X13.243935 Y31.028296 Z-0.125000
G01 X13.143862 Y30.911598 Z-0.125000
G01 X13.047348 Y30.880856 Z-0.125000
G01 X13.047348 Y30.782563 Z-0.125000
G01 X12.992105 Y30.578030 Z-0.125000
G02 X12.727894 Y30.192802 Z-0.125000 I-2.745437 J1.599752
G01 X12.605028 Y29.775054 Z-0.125000
G01 X12.654174 Y29.504747 Z-0.125000
G01 X12.433014 Y29.062427 Z-0.125000
G01 X12.433014 Y28.939560 Z-0.125000
G01 X12.875335 Y29.259014 Z-0.125000
G02 X12.935243 Y29.846613 Z-0.125000 I2.911614 J0.000000
G01 X12.998202 Y29.897921 Z-0.125000
G01 X13.047348 Y29.873348 Z-0.125000
G01 X13.047348 Y29.824201 Z-0.125000
G01 X12.998202 Y29.775054 Z-0.125000
G03 X13.070604 Y29.526572 Z-0.125000 I0.907539 J0.129648
G03 X13.293082 Y29.136147 Z-0.125000 I2.209185 J1.000270
G01 X13.391375 Y28.693826 Z-0.125000
G01 X13.391375 Y28.423519 Z-0.125000
G01 X13.563389 Y28.620106 Z-0.125000
G01 X13.440522 Y28.865840 Z-0.125000
G01 X13.440522 Y28.939560 Z-0.125000
G01 X13.489669 Y29.357307 Z-0.125000
G01 X13.317655 Y29.897921 Z-0.125000
G01 X13.317655 Y30.315669 Z-0.125000
G02 X13.436308 Y30.643504 Z-0.125000 I1.144889 J-0.228978
G01 X13.514242 Y30.708842 Z-0.125000
G01 X13.563389 Y30.659696 Z-0.125000
G01 X13.563389 Y30.635122 Z-0.125000
G01 X13.489669 Y30.315669 Z-0.125000
G01 X13.514242 Y29.627614 Z-0.125000
G01 X13.615901 Y29.567200 Z-0.125000
G02 X13.882843 Y28.939560 Z-0.125000 I-3.116763 J-1.696179
G01 X14.079430 Y28.792120 Z-0.125000
G01 X14.079430 Y28.816693 Z-0.125000
G01 X14.054857 Y28.865840 Z-0.125000
G01 X14.054857 Y28.914986 Z-0.125000
G01 X14.079430 Y29.037853 Z-0.125000
G01 X14.128577 Y29.037853 Z-0.125000
G03 X14.626415 Y28.627715 Z-0.125000 I1.422016 J1.218871
G03 X15.332672 Y28.349799 Z-0.125000 I1.331038 J2.346165
G02 X15.693236 Y28.179668 Z-0.125000 I-1.227173 J-3.067932
G02 X15.848713 Y28.079492 Z-0.125000 I-0.625234 J-1.141124
G01 X15.897859 Y28.079492 Z-0.125000
G01 X15.897859 Y28.349799 Z-0.125000
G01 X15.725846 Y28.669253 Z-0.125000
G03 X15.510629 Y28.782805 Z-0.125000 I-0.404032 J-0.505040
G03 X15.283525 Y28.816693 Z-0.125000 I-0.227104 J-0.744032
G01 X15.283525 Y28.914986 Z-0.125000
G01 X15.406392 Y28.914986 Z-0.125000
G01 X15.602979 Y28.865840 Z-0.125000
G01 X15.489412 Y29.064813 Z-0.125000
G03 X14.964071 Y29.259014 Z-0.125000 I-0.798058 J-1.351197
G01 X14.767484 Y29.504747 Z-0.125000
G01 X14.767484 Y29.701334 Z-0.125000
G01 X14.832675 Y29.777173 Z-0.125000
G02 X15.455539 Y29.824201 Z-0.125000 I0.622864 J-4.101261
G01 X15.422059 Y29.872633 Z-0.125000
G01 X15.283525 Y29.897921 Z-0.125000
G01 X15.283525 Y30.192802 Z-0.125000
G01 X15.349554 Y30.276408 Z-0.125000
G02 X16.020726 Y30.389389 Z-0.125000 I1.176193 J-4.937220
G01 X16.020726 Y30.585976 Z-0.125000
G01 X16.045300 Y30.635122 Z-0.125000
G01 X15.922433 Y30.880856 Z-0.125000
G01 X15.922433 Y30.905429 Z-0.125000
G01 X16.020726 Y30.905429 Z-0.125000
G01 X16.020726 Y30.954576 Z-0.125000
G01 X15.848527 Y30.993361 Z-0.125000
G02 X15.258952 Y31.298603 Z-0.125000 I4.107196 J8.655058
G01 X15.136085 Y31.347750 Z-0.125000
G01 X14.964071 Y31.274030 Z-0.125000
G01 X14.797609 Y31.341574 Z-0.125000
G01 X14.767484 Y31.396897 Z-0.125000
G01 X14.767484 Y31.421470 Z-0.125000
G01 X14.890351 Y31.421470 Z-0.125000
G01 X14.820349 Y31.628179 Z-0.125000
G03 X14.497177 Y31.962084 Z-0.125000 I-1.594332 J-1.219734
G01 X14.325164 Y31.962084 Z-0.125000
G01 X14.448030 Y31.790071 Z-0.125000
G01 X14.448030 Y31.642631 Z-0.125000
G01 X13.882843 Y32.158671 Z-0.125000
G01 X13.735403 Y32.207818 Z-0.125000
G03 X13.817050 Y31.911358 Z-0.125000 I2.998453 J0.666323
G01 X13.882843 Y31.863791 Z-0.125000
G01 X13.882843 Y31.740924 Z-0.125000
G01 X13.759976 Y31.740924 Z-0.125000
G01 X13.514242 Y31.863791 Z-0.125000
G01 X13.686256 Y32.109525 Z-0.125000
G01 X13.563389 Y32.207818 Z-0.125000
G01 X13.366802 Y32.158671 Z-0.125000
G01 X13.366802 Y32.158671 Z-0.125000
G00 Z5.000000

(End cutting path id: path3016)


(Start cutting path id: path3016)
(Change tool to Default tool)

G00 Z5.000000
G00 X14.325164 Y32.158671

G01 Z-0.125000 F100.0(Penetrate)
G01 X14.325164 Y32.035805 Z-0.125000 F400.000000
G01 X14.570897 Y32.109525 Z-0.125000
G01 X14.532607 Y32.181814 Z-0.125000
G01 X14.448030 Y32.207818 Z-0.125000
G01 X14.325164 Y32.158671 Z-0.125000
G01 X14.325164 Y32.158671 Z-0.125000
G00 Z5.000000

(End cutting path id: path3016)


(Start cutting path id: path3016)
(Change tool to Default tool)

G00 Z5.000000
G00 X21.746322 Y32.207818

G01 Z-0.125000 F100.0(Penetrate)
G01 X21.746322 Y32.109525 Z-0.125000 F400.000000
G01 X22.114922 Y32.035805 Z-0.125000
G01 X22.139496 Y32.207818 Z-0.125000
G01 X21.746322 Y32.207818 Z-0.125000
G01 X21.746322 Y32.207818 Z-0.125000
G00 Z5.000000

(End cutting path id: path3016)


(Start cutting path id: path3016)
(Change tool to Default tool)

G00 Z5.000000
G00 X22.237789 Y32.109525

G01 Z-0.125000 F100.0(Penetrate)
G01 X22.237789 Y32.084951 Z-0.125000 F400.000000
G01 X22.508096 Y32.035805 Z-0.125000
G01 X22.530768 Y32.078661 Z-0.125000
G01 X22.630963 Y32.109525 Z-0.125000
G01 X22.630963 Y32.158671 Z-0.125000
G01 X22.360656 Y32.207818 Z-0.125000
G01 X22.311509 Y32.207818 Z-0.125000
G01 X22.237789 Y32.109525 Z-0.125000
G01 X22.237789 Y32.109525 Z-0.125000
G00 Z5.000000

(End cutting path id: path3016)


(Start cutting path id: path3016)
(Change tool to Default tool)

G00 Z5.000000
G00 X22.753830 Y32.207818

G01 Z-0.125000 F100.0(Penetrate)
G01 X22.704683 Y32.084951 Z-0.125000 F400.000000
G01 X23.196151 Y31.986658 Z-0.125000
G01 X23.220724 Y32.035805 Z-0.125000
G01 X23.220724 Y32.084951 Z-0.125000
G03 X23.058914 Y32.183139 Z-0.125000 I-0.579791 J-0.773055
G01 X22.950417 Y32.207818 Z-0.125000
G01 X22.753830 Y32.207818 Z-0.125000
G01 X22.753830 Y32.207818 Z-0.125000
G00 Z5.000000

(End cutting path id: path3016)


(Start cutting path id: path3016)
(Change tool to Default tool)

G00 Z5.000000
G00 X23.220724 Y32.109525

G01 Z-0.125000 F100.0(Penetrate)
G01 X23.589325 Y31.912938 Z-0.125000 F400.000000
G01 X23.638471 Y31.962084 Z-0.125000
G01 X23.638471 Y31.986658 Z-0.125000
G01 X23.441884 Y32.207818 Z-0.125000
G01 X23.319017 Y32.207818 Z-0.125000
G01 X23.220724 Y32.109525 Z-0.125000
G01 X23.220724 Y32.109525 Z-0.125000
G00 Z5.000000

(End cutting path id: path3016)


(Start cutting path id: path3016)
(Change tool to Default tool)

G00 Z5.000000
G00 X11.572946 Y32.158671

G01 Z-0.125000 F100.0(Penetrate)
G01 X11.523799 Y32.109525 Z-0.125000 F400.000000
G01 X11.523799 Y31.912938 Z-0.125000
G01 X11.579122 Y31.943063 Z-0.125000
G01 X11.646666 Y32.109525 Z-0.125000
G01 X11.597519 Y32.158671 Z-0.125000
G01 X11.572946 Y32.158671 Z-0.125000
G01 X11.572946 Y32.158671 Z-0.125000
G00 Z5.000000

(End cutting path id: path3016)


(Start cutting path id: path3016)
(Change tool to Default tool)

G00 Z5.000000
G00 X14.620044 Y32.035805

G01 Z-0.125000 F100.0(Penetrate)
G01 X14.644617 Y31.986658 Z-0.125000 F400.000000
G01 X14.742911 Y31.986658 Z-0.125000
G01 X14.816631 Y32.084951 Z-0.125000
G01 X14.742911 Y32.158671 Z-0.125000
G01 X14.620044 Y32.035805 Z-0.125000
G01 X14.620044 Y32.035805 Z-0.125000
G00 Z5.000000

(End cutting path id: path3016)


(Start cutting path id: path3016)
(Change tool to Default tool)

G00 Z5.000000
G00 X17.814582 Y31.028296

G01 Z-0.125000 F100.0(Penetrate)
G01 X17.814582 Y30.782563 Z-0.125000 F400.000000
G01 X17.863729 Y30.635122 Z-0.125000
G01 X17.814582 Y30.463109 Z-0.125000
G01 X17.814582 Y30.389389 Z-0.125000
G01 X17.863729 Y30.389389 Z-0.125000
G01 X18.060316 Y30.463109 Z-0.125000
G01 X18.060316 Y30.438535 Z-0.125000
G02 X17.918445 Y30.054833 Z-0.125000 I-1.073883 J0.178980
G01 X17.814582 Y29.996215 Z-0.125000
G01 X17.863729 Y29.775054 Z-0.125000
G01 X17.863729 Y29.037853 Z-0.125000
G01 X17.892519 Y28.968349 Z-0.125000
G01 X17.962023 Y28.939560 Z-0.125000
G01 X18.306050 Y29.185293 Z-0.125000
G01 X18.330623 Y29.185293 Z-0.125000
G02 X18.246250 Y28.892888 Z-0.125000 I-0.548871 J-0.000000
G02 X17.863729 Y28.472666 Z-0.125000 I-1.368396 J0.861415
G01 X17.863729 Y26.850823 Z-0.125000
G01 X18.207756 Y26.850823 Z-0.125000
G01 X18.822091 Y26.899970 Z-0.125000
G02 X19.081694 Y27.893831 Z-0.125000 I2.032242 J-0.000000
G02 X20.099906 Y29.136147 Z-0.125000 I4.010286 J-2.248437
G01 X21.574308 Y29.627614 Z-0.125000
G01 X21.679529 Y29.791908 Z-0.125000
G02 X22.311509 Y29.947068 Z-0.125000 I0.717662 J-1.558468
G03 X22.839515 Y30.436276 Z-0.125000 I-0.645242 J1.225959
G03 X23.024137 Y31.077443 Z-0.125000 I-1.021034 J0.641167
G01 X22.863648 Y31.364031 Z-0.125000
G03 X22.311509 Y31.519764 Z-0.125000 I-0.552139 J-0.900919
G03 X21.621368 Y31.291954 Z-0.125000 I0.000000 J-1.159282
G03 X21.107414 Y30.635122 Z-0.125000 I0.933508 J-1.259941
G01 X21.075822 Y30.579652 Z-0.125000
G02 X20.394786 Y30.217375 Z-0.125000 I-4.232746 J7.135778
G02 X20.059020 Y30.061357 Z-0.125000 I-1.247694 J2.245850
G02 X19.067824 Y29.750481 Z-0.125000 I-3.129680 J8.243063
G03 X18.589752 Y29.132278 Z-0.125000 I9.839049 J-8.102747
G01 X18.527210 Y28.939560 Z-0.125000
G01 X18.502637 Y28.742973 Z-0.125000
G01 X18.502637 Y28.472666 Z-0.125000
G01 X18.559116 Y28.445437 Z-0.125000
G02 X18.748370 Y28.177785 Z-0.125000 I-2.255997 J-1.795934
G01 X18.772944 Y28.177785 Z-0.125000
G01 X19.190691 Y28.349799 Z-0.125000
G01 X19.215264 Y28.300652 Z-0.125000
G01 X19.215264 Y28.251505 Z-0.125000
G01 X18.969531 Y28.079492 Z-0.125000
G01 X18.822091 Y28.079492 Z-0.125000
G01 X18.502637 Y28.128638 Z-0.125000
G01 X18.446157 Y28.101410 Z-0.125000
G03 X18.256903 Y27.833758 Z-0.125000 I2.255997 J-1.795934
G01 X18.207756 Y27.784611 Z-0.125000
G01 X18.011169 Y27.784611 Z-0.125000
G01 X18.011169 Y27.858331 Z-0.125000
G01 X18.187328 Y27.990108 Z-0.125000
G03 X18.404343 Y29.136147 Z-0.125000 I-5.652558 J1.663942
G03 X18.835845 Y29.811678 Z-0.125000 I-5.698034 J4.115247
G01 X18.871237 Y29.947068 Z-0.125000
G01 X18.777761 Y29.987010 Z-0.125000
G02 X18.625504 Y30.217375 Z-0.125000 I0.559967 J0.535604
G03 X19.402809 Y31.652466 Z-0.125000 I-41.319145 J23.308235
G01 X19.436425 Y31.790071 Z-0.125000
G01 X19.487480 Y32.006593 Z-0.125000
G01 X19.534718 Y32.035805 Z-0.125000
G01 X19.657585 Y31.863791 Z-0.125000
G03 X19.908102 Y32.040072 Z-0.125000 I-0.459763 J0.919527
G01 X19.977039 Y32.158671 Z-0.125000
G01 X19.952466 Y32.158671 Z-0.125000
G03 X18.627947 Y31.987693 Z-0.125000 I0.443775 J-8.653619
G01 X18.527210 Y31.863791 Z-0.125000
G02 X18.308714 Y31.546874 Z-0.125000 I-1.746106 J0.970059
G02 X17.814582 Y31.028296 Z-0.125000 I-4.481704 J3.775730
G01 X17.814582 Y31.028296 Z-0.125000
G01 X17.814582 Y31.028296 Z-0.125000
G00 Z5.000000

(End cutting path id: path3016)


(Start cutting path id: path3016)
(Change tool to Default tool)

G00 Z5.000000
G00 X14.914925 Y31.962084

G01 Z-0.125000 F100.0(Penetrate)
G02 X15.236729 Y31.905837 Z-0.125000 I0.000000 J-0.948685 F400.000000
G01 X15.283525 Y31.839218 Z-0.125000
G01 X15.037791 Y31.740924 Z-0.125000
G01 X15.086938 Y31.519764 Z-0.125000
G01 X15.136085 Y31.519764 Z-0.125000
G01 X15.283525 Y31.740924 Z-0.125000
G01 X15.529259 Y31.740924 Z-0.125000
G01 X15.529259 Y32.035805 Z-0.125000
G01 X15.136085 Y32.084951 Z-0.125000
G01 X15.037791 Y32.084951 Z-0.125000
G01 X14.914925 Y31.962084 Z-0.125000
G01 X14.914925 Y31.962084 Z-0.125000
G00 Z5.000000

(End cutting path id: path3016)


(Start cutting path id: path3016)
(Change tool to Default tool)

G00 Z5.000000
G00 X23.663045 Y32.084951

G01 Z-0.125000 F100.0(Penetrate)
G01 X23.761338 Y31.863791 Z-0.125000 F400.000000
G01 X23.884205 Y31.863791 Z-0.125000
G03 X23.770713 Y32.035357 Z-0.125000 I-2.005068 J-1.203041
G01 X23.712191 Y32.084951 Z-0.125000
G01 X23.663045 Y32.084951 Z-0.125000
G01 X23.663045 Y32.084951 Z-0.125000
G00 Z5.000000

(End cutting path id: path3016)


(Start cutting path id: path3016)
(Change tool to Default tool)

G00 Z5.000000
G00 X9.631650 Y31.519764

G01 Z-0.125000 F100.0(Penetrate)
G01 X9.631650 Y31.470617 Z-0.125000 F400.000000
G01 X9.828237 Y31.421470 Z-0.125000
G01 X9.972651 Y31.602359 Z-0.125000
G01 X10.172264 Y31.667204 Z-0.125000
G01 X10.196776 Y31.683800 Z-0.125000
G03 X10.319704 Y32.035805 Z-0.125000 I-3.888832 J1.555533
G01 X10.270557 Y32.035805 Z-0.125000
G01 X9.631650 Y31.519764 Z-0.125000
G01 X9.631650 Y31.519764 Z-0.125000
G00 Z5.000000

(End cutting path id: path3016)


(Start cutting path id: path3016)
(Change tool to Default tool)

G00 Z5.000000
G00 X21.353148 Y31.790071

G01 Z-0.125000 F100.0(Penetrate)
G01 X21.549735 Y31.740924 Z-0.125000 F400.000000
G01 X21.580318 Y31.793607 Z-0.125000
G02 X21.820042 Y31.912938 Z-0.125000 I1.165832 J-2.041589
G01 X21.869189 Y32.035805 Z-0.125000
G01 X21.574308 Y32.035805 Z-0.125000
G01 X21.353148 Y31.790071 Z-0.125000
G01 X21.353148 Y31.790071 Z-0.125000
G00 Z5.000000

(End cutting path id: path3016)


(Start cutting path id: path3016)
(Change tool to Default tool)

G00 Z5.000000
G00 X6.953152 Y32.035805

G01 Z-0.125000 F100.0(Penetrate)
G01 X7.002299 Y31.986658 Z-0.125000 F400.000000
G01 X6.781139 Y31.716351 Z-0.125000
G01 X6.781139 Y31.667204 Z-0.125000
G01 X6.830285 Y31.667204 Z-0.125000
G01 X7.346326 Y31.740924 Z-0.125000
G01 X7.518340 Y31.740924 Z-0.125000
G02 X8.198384 Y31.539369 Z-0.125000 I0.000000 J-1.248005
G02 X9.238476 Y30.585976 Z-0.125000 I-2.331161 J-3.587185
G01 X9.282701 Y30.455567 Z-0.125000
G03 X9.680796 Y30.020788 Z-0.125000 I2.678098 J2.052497
G01 X9.680796 Y29.947068 Z-0.125000
G01 X9.705370 Y29.947068 Z-0.125000
G01 X9.680796 Y29.824201 Z-0.125000
G03 X9.796431 Y29.065936 Z-0.125000 I2.543960 J-0.000000
G01 X9.951104 Y28.914986 Z-0.125000
G02 X9.659458 Y26.381792 Z-0.125000 I-30.079897 J2.179703
G02 X9.312196 Y24.811233 Z-0.125000 I-13.096181 J2.071990
G01 X9.041889 Y23.975739 Z-0.125000
G01 X9.066462 Y23.852872 Z-0.125000
G01 X8.673288 Y22.894510 Z-0.125000
G01 X8.181821 Y22.009869 Z-0.125000
G02 X6.820020 Y20.049908 Z-0.125000 I-51.631112 J34.420741
G02 X6.584552 Y19.773692 Z-0.125000 I-1.852021 J1.340337
G02 X5.212501 Y18.471769 Z-0.125000 I-25.507336 J25.507336
G02 X4.815269 Y18.200996 Z-0.125000 I-1.197961 J1.330685
G01 X4.815269 Y18.078130 Z-0.125000
G02 X5.049901 Y17.969482 Z-0.125000 I-0.229537 J-0.803380
G02 X5.626190 Y17.512942 Z-0.125000 I-2.525304 J-3.779675
G01 X5.771139 Y17.450744 Z-0.125000
G01 X5.871924 Y17.242635 Z-0.125000
G02 X6.270763 Y16.973596 Z-0.125000 I-4.834786 J-7.597520
G02 X6.707419 Y16.603727 Z-0.125000 I-2.014958 J-2.821482
G02 X7.233799 Y15.987713 Z-0.125000 I-3.662399 J-3.662399
G01 X7.297179 Y15.792806 Z-0.125000
G01 X7.408814 Y15.740691 Z-0.125000
G02 X7.542913 Y15.522499 Z-0.125000 I-0.673902 J-0.564478
G01 X7.676460 Y15.452305 Z-0.125000
G02 X7.837794 Y15.104752 Z-0.125000 I-0.941826 J-0.648415
G01 X7.880948 Y15.071456 Z-0.125000
G02 X7.911514 Y14.834445 Z-0.125000 I-0.903642 J-0.237011
G01 X8.102666 Y14.656962 Z-0.125000
G02 X8.599568 Y13.556629 Z-0.125000 I-9.772969 J-5.075767
G01 X8.525848 Y13.458336 Z-0.125000
G01 X7.542913 Y15.153898 Z-0.125000
G03 X7.423287 Y15.383748 Z-0.125000 I-0.622200 J-0.177771
G03 X6.265098 Y16.726594 Z-0.125000 I-22.769926 J-18.467912
G03 X4.883239 Y17.970963 Z-0.125000 I-26.045542 J-27.533859
G03 X4.618682 Y18.127276 Z-0.125000 I-0.574594 J-0.670452
G01 X4.618682 Y18.151850 Z-0.125000
G03 X5.512721 Y18.919134 Z-0.125000 I-10.666276 J13.332845
G03 X6.461685 Y19.847412 Z-0.125000 I-14.676855 J15.953103
G03 X8.197592 Y22.397436 Z-0.125000 I-10.320230 J8.891275
G03 X9.189329 Y25.056967 Z-0.125000 I-9.894794 J5.204434
G03 X9.344826 Y25.588522 Z-0.125000 I-2.120882 J0.908949
G03 X9.631650 Y27.956625 Z-0.125000 I-26.896882 J4.459157
G01 X9.607076 Y27.956625 Z-0.125000
G01 X9.519439 Y27.890603 Z-0.125000
G03 X9.312196 Y27.538878 Z-0.125000 I2.448257 J-1.679475
G02 X8.874704 Y27.221376 Z-0.125000 I-1.655743 J1.821317
G02 X8.525848 Y27.071984 Z-0.125000 I-0.831754 J1.460266
G02 X7.521722 Y27.482600 Z-0.125000 I1.613947 J5.379824
G01 X7.395473 Y27.661744 Z-0.125000
G01 X7.346326 Y27.710891 Z-0.125000
G01 X7.346326 Y27.735465 Z-0.125000
G03 X7.722244 Y27.991440 Z-0.125000 I-1.107617 J2.030631
G03 X7.960660 Y28.226932 Z-0.125000 I-1.297138 J1.551682
G01 X7.960660 Y28.251505 Z-0.125000
G02 X6.662782 Y29.167753 Z-0.125000 I2.821021 J5.373374
G02 X6.191378 Y29.897921 Z-0.125000 I1.184995 J1.282301
G02 X5.935932 Y30.451599 Z-0.125000 I4.665195 J2.488104
G02 X5.896497 Y30.659696 Z-0.125000 I0.529339 J0.208096
G01 X5.896497 Y31.077443 Z-0.125000
G01 X6.019364 Y31.175737 Z-0.125000
G01 X5.994791 Y30.954576 Z-0.125000
G03 X6.080094 Y30.494519 Z-0.125000 I1.283238 J0.000000
G03 X6.584552 Y29.431027 Z-0.125000 I7.213719 J2.770372
G02 X6.739911 Y29.266043 Z-0.125000 I-0.504768 J-0.630960
G01 X6.781139 Y29.136147 Z-0.125000
G01 X6.879276 Y29.108089 Z-0.125000
G02 X7.297179 Y28.792120 Z-0.125000 I-1.533272 J-2.462262
G02 X8.403855 Y28.179113 Z-0.125000 I-1.780646 J-4.520101
G02 X8.869875 Y27.612598 Z-0.125000 I-0.895118 J-1.211265
G01 X8.820728 Y27.465157 Z-0.125000
G01 X8.820728 Y27.416011 Z-0.125000
G01 X8.869875 Y27.416011 Z-0.125000
G01 X8.933836 Y27.461271 Z-0.125000
G03 X8.992742 Y27.710891 Z-0.125000 I-1.128297 J0.398020
G01 X9.115609 Y27.612598 Z-0.125000
G01 X9.164756 Y27.661744 Z-0.125000
G01 X9.164756 Y27.710891 Z-0.125000
G03 X9.086927 Y28.040578 Z-0.125000 I-0.737201 J-0.000000
G03 X8.869875 Y28.300652 Z-0.125000 I-0.659373 J-0.329686
G01 X8.869875 Y28.349799 Z-0.125000
G01 X8.919022 Y28.349799 Z-0.125000
G02 X9.128246 Y28.155865 Z-0.125000 I-0.312635 J-0.547111
G01 X9.189329 Y27.956625 Z-0.125000
G01 X9.263049 Y27.956625 Z-0.125000
G01 X9.263049 Y27.981198 Z-0.125000
G01 X9.213984 Y28.143446 Z-0.125000
G03 X8.747008 Y28.693826 Z-0.125000 I-2.589677 J-1.723943
G02 X8.122103 Y29.085654 Z-0.125000 I1.713498 J3.426995
G02 X7.125166 Y29.996215 Z-0.125000 I4.928639 J6.397205
G01 X7.086445 Y30.087385 Z-0.125000
G03 X6.756565 Y30.340242 Z-0.125000 I-1.273414 J-1.319701
G01 X6.707419 Y30.585976 Z-0.125000
G01 X6.707419 Y30.708842 Z-0.125000
G01 X6.633698 Y30.708842 Z-0.125000
G01 X6.633698 Y30.757989 Z-0.125000
G01 X6.658272 Y31.003723 Z-0.125000
G01 X6.658272 Y31.028296 Z-0.125000
G01 X6.633698 Y31.028296 Z-0.125000
G02 X6.555633 Y30.666968 Z-0.125000 I-1.511065 J0.137370
G01 X6.510832 Y30.635122 Z-0.125000
G01 X6.461685 Y30.831709 Z-0.125000
G01 X6.338818 Y30.757989 Z-0.125000
G01 X6.387965 Y30.635122 Z-0.125000
G01 X6.191378 Y30.635122 Z-0.125000
G01 X6.191378 Y30.905429 Z-0.125000
G02 X6.278369 Y31.204062 Z-0.125000 I0.556085 J0.000000
G02 X6.633698 Y31.667204 Z-0.125000 I2.816853 J-1.793255
G01 X6.756565 Y31.642631 Z-0.125000
G01 X6.658272 Y31.740924 Z-0.125000
G01 X6.953152 Y32.035805 Z-0.125000
G01 X6.953152 Y32.035805 Z-0.125000
G00 Z5.000000

(End cutting path id: path3016)


(Start cutting path id: path3016)
(Change tool to Default tool)

G00 Z5.000000
G00 X15.701272 Y31.790071

G01 Z-0.125000 F100.0(Penetrate)
G01 X15.725846 Y31.740924 Z-0.125000 F400.000000
G01 X15.774992 Y31.740924 Z-0.125000
G01 X15.897859 Y31.962084 Z-0.125000
G01 X15.897859 Y31.986658 Z-0.125000
G01 X15.701272 Y31.790071 Z-0.125000
G01 X15.701272 Y31.790071 Z-0.125000
G00 Z5.000000

(End cutting path id: path3016)


(Start cutting path id: path3016)
(Change tool to Default tool)

G00 Z5.000000
G00 X20.222773 Y31.863791

G01 Z-0.125000 F100.0(Penetrate)
G01 X19.977039 Y31.912938 Z-0.125000 F400.000000
G03 X19.374494 Y31.254119 Z-0.125000 I2.216616 J-2.632232
G03 X18.944957 Y30.438535 Z-0.125000 I3.005107 J-2.103575
G01 X18.969531 Y30.438535 Z-0.125000
G03 X19.666657 Y30.706035 Z-0.125000 I-0.000000 J1.042135
G03 X19.952466 Y31.347750 Z-0.125000 I-0.577506 J0.641716
G01 X19.977039 Y31.347750 Z-0.125000
G01 X19.952466 Y31.396897 Z-0.125000
G01 X19.952466 Y31.519764 Z-0.125000
G01 X20.026186 Y31.519764 Z-0.125000
G01 X20.050759 Y31.298603 Z-0.125000
G01 X20.050759 Y31.175737 Z-0.125000
G01 X20.468506 Y31.274030 Z-0.125000
G01 X20.468506 Y31.347750 Z-0.125000
G01 X20.394786 Y31.347750 Z-0.125000
G01 X20.394786 Y31.396897 Z-0.125000
G01 X20.615947 Y31.642631 Z-0.125000
G01 X20.419360 Y31.642631 Z-0.125000
G01 X20.419360 Y31.716351 Z-0.125000
G01 X20.656906 Y31.785927 Z-0.125000
G01 X20.787960 Y31.962084 Z-0.125000
G01 X20.738813 Y31.962084 Z-0.125000
G01 X20.222773 Y31.863791 Z-0.125000
G01 X20.222773 Y31.863791 Z-0.125000
G00 Z5.000000

(End cutting path id: path3016)


(Start cutting path id: path3016)
(Change tool to Default tool)

G00 Z5.000000
G00 X22.483523 Y31.962084

G01 Z-0.125000 F100.0(Penetrate)
G01 X22.483523 Y31.912938 Z-0.125000 F400.000000
G01 X22.827550 Y31.863791 Z-0.125000
G01 X22.753830 Y31.962084 Z-0.125000
G01 X22.483523 Y31.962084 Z-0.125000
G01 X22.483523 Y31.962084 Z-0.125000
G00 Z5.000000

(End cutting path id: path3016)


(Start cutting path id: path3016)
(Change tool to Default tool)

G00 Z5.000000
G00 X11.474653 Y31.839218

G01 Z-0.125000 F100.0(Penetrate)
G01 X11.546626 Y31.665458 Z-0.125000 F400.000000
G01 X11.720386 Y31.593484 Z-0.125000
G01 X11.720386 Y31.642631 Z-0.125000
G01 X11.769533 Y31.912938 Z-0.125000
G01 X11.474653 Y31.839218 Z-0.125000
G01 X11.474653 Y31.839218 Z-0.125000
G00 Z5.000000

(End cutting path id: path3016)


(Start cutting path id: path3016)
(Change tool to Default tool)

G00 Z5.000000
G00 X15.529259 Y31.421470

G01 Z-0.125000 F100.0(Penetrate)
G01 X15.529259 Y31.224883 Z-0.125000 F400.000000
G01 X15.618818 Y31.264432 Z-0.125000
G03 X15.774992 Y31.519764 Z-0.125000 I-0.585113 J0.533315
G01 X15.903481 Y31.565030 Z-0.125000
G03 X16.217313 Y31.863791 Z-0.125000 I-1.631052 J2.027547
G01 X16.217313 Y31.912938 Z-0.125000
G01 X16.094446 Y31.912938 Z-0.125000
G01 X15.529259 Y31.421470 Z-0.125000
G01 X15.529259 Y31.421470 Z-0.125000
G00 Z5.000000

(End cutting path id: path3016)


(Start cutting path id: path3016)
(Change tool to Default tool)

G00 Z5.000000
G00 X20.714240 Y31.667204

G01 Z-0.125000 F100.0(Penetrate)
G01 X20.861680 Y31.642631 Z-0.125000 F400.000000
G01 X20.893626 Y31.687915 Z-0.125000
G01 X21.058267 Y31.716351 Z-0.125000
G01 X21.181134 Y31.740924 Z-0.125000
G01 X21.230281 Y31.912938 Z-0.125000
G01 X21.131987 Y31.912938 Z-0.125000
G03 X20.774024 Y31.768228 Z-0.125000 I0.431765 J-1.583137
G01 X20.714240 Y31.667204 Z-0.125000
G01 X20.714240 Y31.667204 Z-0.125000
G01 X20.714240 Y31.667204 Z-0.125000
G00 Z5.000000

(End cutting path id: path3016)


(Start cutting path id: path3016)
(Change tool to Default tool)

G00 Z5.000000
G00 X21.869189 Y31.863791

G01 Z-0.125000 F100.0(Penetrate)
G01 X21.869189 Y31.839218 Z-0.125000 F400.000000
G02 X22.190299 Y31.801178 Z-0.125000 I0.000000 J-1.374351
G01 X22.237789 Y31.740924 Z-0.125000
G01 X22.139496 Y31.667204 Z-0.125000
G02 X22.843619 Y31.556589 Z-0.125000 I0.000000 J-2.296363
G01 X23.097857 Y31.347750 Z-0.125000
G01 X23.196151 Y31.126590 Z-0.125000
G01 X23.220724 Y31.126590 Z-0.125000
G01 X23.220724 Y30.659696 Z-0.125000
G01 X23.269871 Y30.659696 Z-0.125000
G01 X23.319017 Y30.880856 Z-0.125000
G01 X23.319017 Y31.003723 Z-0.125000
G01 X23.343591 Y31.003723 Z-0.125000
G01 X23.392738 Y30.954576 Z-0.125000
G01 X23.441884 Y30.954576 Z-0.125000
G01 X23.467173 Y31.093110 Z-0.125000
G01 X23.515604 Y31.126590 Z-0.125000
G01 X23.564036 Y31.093110 Z-0.125000
G01 X23.589325 Y30.954576 Z-0.125000
G01 X23.663045 Y30.954576 Z-0.125000
G01 X23.663045 Y31.126590 Z-0.125000
G01 X23.645840 Y31.152893 Z-0.125000
G03 X23.392738 Y31.224883 Z-0.125000 I-0.391133 J-0.894223
G01 X23.339272 Y31.336125 Z-0.125000
G03 X23.024137 Y31.519764 Z-0.125000 I-0.777180 J-0.971475
G01 X22.999564 Y31.544337 Z-0.125000
G01 X22.999564 Y31.593484 Z-0.125000
G01 X23.024137 Y31.593484 Z-0.125000
G01 X23.147004 Y31.519764 Z-0.125000
G01 X23.147004 Y31.593484 Z-0.125000
G01 X23.013919 Y31.733396 Z-0.125000
G01 X22.827550 Y31.790071 Z-0.125000
G01 X22.237789 Y31.790071 Z-0.125000
G01 X22.311509 Y31.912938 Z-0.125000
G01 X22.065776 Y31.912938 Z-0.125000
G01 X21.869189 Y31.863791 Z-0.125000
G01 X21.869189 Y31.863791 Z-0.125000
G00 Z5.000000

(End cutting path id: path3016)


(Start cutting path id: path3016)
(Change tool to Default tool)

G00 Z5.000000
G00 X22.950417 Y31.912938

G01 Z-0.125000 F100.0(Penetrate)
G01 X22.950417 Y31.863791 Z-0.125000 F400.000000
G01 X23.441884 Y31.716351 Z-0.125000
G01 X23.343591 Y31.912938 Z-0.125000
G01 X22.950417 Y31.912938 Z-0.125000
G01 X22.950417 Y31.912938 Z-0.125000
G00 Z5.000000

(End cutting path id: path3016)


(Start cutting path id: path3016)
(Change tool to Default tool)

G00 Z5.000000
G00 X12.359294 Y31.642631

G01 Z-0.125000 F100.0(Penetrate)
G01 X12.359294 Y31.470617 Z-0.125000 F400.000000
G01 X12.654174 Y31.470617 Z-0.125000
G01 X12.654174 Y31.421470 Z-0.125000
G01 X12.623870 Y31.367176 Z-0.125000
G02 X12.359294 Y31.274030 Z-0.125000 I-0.346431 J0.561692
G01 X12.359294 Y31.003723 Z-0.125000
G03 X12.605255 Y31.175551 Z-0.125000 I-0.822292 J1.439012
G03 X13.121068 Y31.667204 Z-0.125000 I-3.767226 J4.468762
G01 X12.998202 Y31.667204 Z-0.125000
G01 X12.865998 Y31.637235 Z-0.125000
G03 X12.678748 Y31.519764 Z-0.125000 I0.417321 J-0.873185
G01 X12.654174 Y31.519764 Z-0.125000
G01 X12.654174 Y31.544337 Z-0.125000
G01 X12.777041 Y31.863791 Z-0.125000
G01 X12.727894 Y31.863791 Z-0.125000
G03 X12.431522 Y31.728724 Z-0.125000 I0.831256 J-2.216684
G01 X12.359294 Y31.642631 Z-0.125000
G01 X12.359294 Y31.642631 Z-0.125000
G01 X12.359294 Y31.642631 Z-0.125000
G00 Z5.000000

(End cutting path id: path3016)


(Start cutting path id: path3016)
(Change tool to Default tool)

G00 Z5.000000
G00 X23.466458 Y31.863791

G01 Z-0.125000 F100.0(Penetrate)
G03 X23.650838 Y31.636014 Z-0.125000 I0.791911 J0.452520 F400.000000
G03 X23.785912 Y31.544337 Z-0.125000 I0.411059 J0.460293
G01 X23.785912 Y31.593484 Z-0.125000
G01 X23.706740 Y31.784620 Z-0.125000
G01 X23.515604 Y31.863791 Z-0.125000
G01 X23.466458 Y31.863791 Z-0.125000
G01 X23.466458 Y31.863791 Z-0.125000
G00 Z5.000000

(End cutting path id: path3016)


(Start cutting path id: path3016)
(Change tool to Default tool)

G00 Z5.000000
G00 X19.067824 Y31.863791

G01 Z-0.125000 F100.0(Penetrate)
G01 X19.092398 Y31.863791 Z-0.125000 F400.000000
G01 X19.092398 Y31.839218 Z-0.125000
G01 X18.997882 Y31.560958 Z-0.125000
G02 X18.650077 Y31.274030 Z-0.125000 I-0.797473 J0.612408
G01 X18.625504 Y31.298603 Z-0.125000
G01 X18.625504 Y31.347750 Z-0.125000
G01 X18.723945 Y31.613863 Z-0.125000
G02 X19.067824 Y31.863791 Z-0.125000 I0.696913 J-0.597354
G01 X19.067824 Y31.863791 Z-0.125000
G01 X19.067824 Y31.863791 Z-0.125000
G00 Z5.000000

(End cutting path id: path3016)


(Start cutting path id: path3016)
(Change tool to Default tool)

G00 Z5.000000
G00 X9.828237 Y31.224883

G01 Z-0.125000 F100.0(Penetrate)
G01 X9.828237 Y31.175737 Z-0.125000 F400.000000
G01 X9.877383 Y31.175737 Z-0.125000
G01 X10.142225 Y31.285437 Z-0.125000
G03 X10.442571 Y31.740924 Z-0.125000 I-0.959375 J0.959375
G01 X9.828237 Y31.224883 Z-0.125000
G01 X9.828237 Y31.224883 Z-0.125000
G00 Z5.000000

(End cutting path id: path3016)


(Start cutting path id: path3016)
(Change tool to Default tool)

G00 Z5.000000
G00 X14.890351 Y31.740924

G01 Z-0.125000 F100.0(Penetrate)
G01 X14.890351 Y31.667204 Z-0.125000 F400.000000
G01 X14.914925 Y31.667204 Z-0.125000
G01 X14.914925 Y31.740924 Z-0.125000
G01 X14.890351 Y31.740924 Z-0.125000
G01 X14.890351 Y31.740924 Z-0.125000
G00 Z5.000000

(End cutting path id: path3016)


(Start cutting path id: path3016)
(Change tool to Default tool)

G00 Z5.000000
G00 X21.254854 Y31.470617

G01 Z-0.125000 F100.0(Penetrate)
G01 X21.426868 Y31.347750 Z-0.125000 F400.000000
G01 X21.494554 Y31.473115 Z-0.125000
G02 X21.918335 Y31.667204 Z-0.125000 I0.848900 J-1.293829
G01 X21.918335 Y31.740924 Z-0.125000
G01 X21.869189 Y31.740924 Z-0.125000
G01 X21.764268 Y31.719474 Z-0.125000
G03 X21.304001 Y31.470617 Z-0.125000 I1.113500 J-2.609509
G01 X21.254854 Y31.470617 Z-0.125000
G01 X21.254854 Y31.470617 Z-0.125000
G00 Z5.000000

(End cutting path id: path3016)


(Start cutting path id: path3016)
(Change tool to Default tool)

G00 Z5.000000
G00 X27.078743 Y31.740924

G01 Z-0.125000 F100.0(Penetrate)
G01 X27.717651 Y31.740924 Z-0.125000 F400.000000
G02 X28.380721 Y31.461856 Z-0.125000 I-0.296821 J-1.632517
G01 X28.528572 Y31.175737 Z-0.125000
G01 X28.602292 Y31.175737 Z-0.125000
G01 X28.602292 Y31.396897 Z-0.125000
G01 X28.528572 Y31.519764 Z-0.125000
G01 X28.528572 Y31.593484 Z-0.125000
G01 X28.577719 Y31.593484 Z-0.125000
G01 X28.702659 Y31.499994 Z-0.125000
G02 X28.798879 Y30.831709 Z-0.125000 I-2.272624 J-0.668284
G02 X28.580186 Y30.062254 Z-0.125000 I-1.462982 J0.000000
G02 X27.668504 Y28.988706 Z-0.125000 I-4.002378 J2.475029
G03 X27.110820 Y28.639264 Z-0.125000 I1.171359 J-2.489137
G03 X26.808436 Y28.300652 Z-0.125000 I0.883387 J-1.093193
G01 X26.808436 Y28.177785 Z-0.125000
G01 X26.914340 Y28.152426 Z-0.125000
G02 X27.398197 Y27.833758 Z-0.125000 I-1.170406 J-2.303784
G01 X27.398197 Y27.784611 Z-0.125000
G02 X27.038614 Y27.428209 Z-0.125000 I-1.885250 J1.542478
G02 X26.636423 Y27.170277 Z-0.125000 I-1.406336 J1.750358
G02 X25.887078 Y27.314510 Z-0.125000 I0.000000 J2.018685
G01 X25.751781 Y27.514304 Z-0.125000
G01 X25.432327 Y27.907478 Z-0.125000
G01 X25.432327 Y27.981198 Z-0.125000
G01 X25.481474 Y28.030345 Z-0.125000
G01 X25.481474 Y28.079492 Z-0.125000
G01 X25.358607 Y28.128638 Z-0.125000
G01 X25.162020 Y28.128638 Z-0.125000
G01 X25.235740 Y26.899970 Z-0.125000
G01 X25.280410 Y26.866042 Z-0.125000
G02 X25.530621 Y25.818742 Z-0.125000 I-13.975705 J-3.892483
G01 X26.243249 Y23.557991 Z-0.125000
G01 X26.267822 Y23.533418 Z-0.125000
G01 X26.309634 Y23.392163 Z-0.125000
G03 X26.513556 Y23.140244 Z-0.125000 I1.298208 J0.842368
G01 X26.574807 Y23.004413 Z-0.125000
G03 X27.324477 Y21.960722 Z-0.125000 I25.695098 J17.665380
G01 X27.324477 Y21.936149 Z-0.125000
G01 X27.275330 Y21.936149 Z-0.125000
G01 X26.759289 Y22.525910 Z-0.125000
G03 X26.165105 Y23.339090 Z-0.125000 I-5.900798 J-3.687999
G03 X25.923795 Y23.508845 Z-0.125000 I-0.447221 J-0.379342
G01 X25.997515 Y23.902019 Z-0.125000
G02 X25.723610 Y24.515478 Z-0.125000 I3.171131 J1.783761
G02 X25.358607 Y25.818742 Z-0.125000 I11.783468 J4.002924
G02 X25.213598 Y26.078279 Z-0.125000 I1.094585 J0.781846
G01 X25.186594 Y26.211916 Z-0.125000
G01 X25.235740 Y26.457649 Z-0.125000
G02 X25.091501 Y26.769746 Z-0.125000 I1.162995 J0.726872
G02 X25.063727 Y26.949117 Z-0.125000 I0.565316 J0.179370
G01 X25.063727 Y27.391437 Z-0.125000
G01 X24.990007 Y27.514304 Z-0.125000
G01 X24.965433 Y29.308160 Z-0.125000
G02 X25.465928 Y30.599209 Z-0.125000 I4.923236 J-1.166030
G02 X26.071235 Y31.298603 Z-0.125000 I1.973540 J-1.096411
G01 X26.152059 Y31.421808 Z-0.125000
G02 X27.078743 Y31.740924 Z-0.125000 I2.505582 J-5.770916
G01 X27.078743 Y31.740924 Z-0.125000
G01 X27.078743 Y31.740924 Z-0.125000
G00 Z5.000000

(End cutting path id: path3016)


(Start cutting path id: path3016)
(Change tool to Default tool)

G00 Z5.000000
G00 X15.774992 Y31.224883

G01 Z-0.125000 F100.0(Penetrate)
G01 X15.774992 Y31.175737 Z-0.125000 F400.000000
G01 X15.922433 Y31.126590 Z-0.125000
G03 X16.402921 Y31.552660 Z-0.125000 I-2.051410 J2.797377
G01 X16.438474 Y31.642631 Z-0.125000
G01 X16.413900 Y31.667204 Z-0.125000
G01 X16.291033 Y31.667204 Z-0.125000
G02 X15.870096 Y31.260064 Z-0.125000 I-3.592930 J3.293519
G01 X15.774992 Y31.224883 Z-0.125000
G01 X15.774992 Y31.224883 Z-0.125000
G01 X15.774992 Y31.224883 Z-0.125000
G00 Z5.000000

(End cutting path id: path3016)


(Start cutting path id: path3016)
(Change tool to Default tool)

G00 Z5.000000
G00 X21.131987 Y31.667204

G01 Z-0.125000 F100.0(Penetrate)
G01 X21.131987 Y31.470617 Z-0.125000 F400.000000
G01 X21.377721 Y31.667204 Z-0.125000
G01 X21.131987 Y31.667204 Z-0.125000
G01 X21.131987 Y31.667204 Z-0.125000
G00 Z5.000000

(End cutting path id: path3016)


(Start cutting path id: path3016)
(Change tool to Default tool)

G00 Z5.000000
G00 X23.908778 Y31.667204

G01 Z-0.125000 F100.0(Penetrate)
G01 X23.908778 Y31.519764 Z-0.125000 F400.000000
G01 X24.056219 Y31.470617 Z-0.125000
G01 X24.056219 Y31.519764 Z-0.125000
G01 X24.031645 Y31.667204 Z-0.125000
G01 X23.908778 Y31.667204 Z-0.125000
G01 X23.908778 Y31.667204 Z-0.125000
G00 Z5.000000

(End cutting path id: path3016)


(Start cutting path id: path3016)
(Change tool to Default tool)

G00 Z5.000000
G00 X15.455539 Y31.642631

G01 Z-0.125000 F100.0(Penetrate)
G01 X15.455539 Y31.593484 Z-0.125000 F400.000000
G01 X15.529259 Y31.593484 Z-0.125000
G01 X15.529259 Y31.642631 Z-0.125000
G01 X15.455539 Y31.642631 Z-0.125000
G01 X15.455539 Y31.642631 Z-0.125000
G00 Z5.000000

(End cutting path id: path3016)


(Start cutting path id: path3016)
(Change tool to Default tool)

G00 Z5.000000
G00 X23.220724 Y31.642631

G01 Z-0.125000 F100.0(Penetrate)
G01 X23.296649 Y31.492734 Z-0.125000 F400.000000
G03 X23.515604 Y31.298603 Z-0.125000 I1.029408 J0.940503
G01 X23.540178 Y31.298603 Z-0.125000
G01 X23.439533 Y31.549213 Z-0.125000
G01 X23.220724 Y31.642631 Z-0.125000
G01 X23.220724 Y31.642631 Z-0.125000
G01 X23.220724 Y31.642631 Z-0.125000
G00 Z5.000000

(End cutting path id: path3016)


(Start cutting path id: path3016)
(Change tool to Default tool)

G00 Z5.000000
G00 X9.951104 Y31.077443

G01 Z-0.125000 F100.0(Penetrate)
G01 X10.123117 Y30.954576 Z-0.125000 F400.000000
G01 X10.211511 Y31.154510 Z-0.125000
G01 X10.393424 Y31.224883 Z-0.125000
G01 X10.565438 Y31.544337 Z-0.125000
G01 X10.467144 Y31.544337 Z-0.125000
G01 X9.951104 Y31.077443 Z-0.125000
G01 X9.951104 Y31.077443 Z-0.125000
G00 Z5.000000

(End cutting path id: path3016)


(Start cutting path id: path3016)
(Change tool to Default tool)

G00 Z5.000000
G00 X11.597519 Y31.396897

G01 Z-0.125000 F100.0(Penetrate)
G01 X11.597519 Y31.224883 Z-0.125000 F400.000000
G03 X11.835697 Y31.296838 Z-0.125000 I-0.116582 J0.816073
G01 X11.867826 Y31.347750 Z-0.125000
G01 X11.867826 Y31.544337 Z-0.125000
G01 X11.794106 Y31.544337 Z-0.125000
G01 X11.597519 Y31.396897 Z-0.125000
G01 X11.597519 Y31.396897 Z-0.125000
G00 Z5.000000

(End cutting path id: path3016)


(Start cutting path id: path3016)
(Change tool to Default tool)

G00 Z5.000000
G00 X20.542227 Y31.396897

G01 Z-0.125000 F100.0(Penetrate)
G01 X20.738813 Y31.347750 Z-0.125000 F400.000000
G01 X20.984547 Y31.519764 Z-0.125000
G01 X20.984547 Y31.544337 Z-0.125000
G01 X20.714240 Y31.544337 Z-0.125000
G01 X20.542227 Y31.396897 Z-0.125000
G01 X20.542227 Y31.396897 Z-0.125000
G00 Z5.000000

(End cutting path id: path3016)


(Start cutting path id: path3016)
(Change tool to Default tool)

G00 Z5.000000
G00 X23.589325 Y31.519764

G01 Z-0.125000 F100.0(Penetrate)
G01 X23.589325 Y31.396897 Z-0.125000 F400.000000
G01 X23.908778 Y31.224883 Z-0.125000
G01 X23.908778 Y31.347750 Z-0.125000
G01 X23.853750 Y31.438804 Z-0.125000
G03 X23.589325 Y31.519764 Z-0.125000 I-0.346796 J-0.660373
G01 X23.589325 Y31.519764 Z-0.125000
G01 X23.589325 Y31.519764 Z-0.125000
G00 Z5.000000

(End cutting path id: path3016)


(Start cutting path id: path3016)
(Change tool to Default tool)

G00 Z5.000000
G00 X14.054857 Y31.470617

G01 Z-0.125000 F100.0(Penetrate)
G01 X14.079430 Y31.470617 Z-0.125000 F400.000000
G01 X14.128577 Y31.274030 Z-0.125000
G01 X14.079430 Y31.274030 Z-0.125000
G01 X14.300590 Y30.905429 Z-0.125000
G01 X14.300590 Y30.831709 Z-0.125000
G01 X14.177723 Y30.831709 Z-0.125000
G01 X14.128577 Y30.880856 Z-0.125000
G01 X14.079430 Y30.831709 Z-0.125000
G01 X14.005710 Y30.831709 Z-0.125000
G03 X13.855476 Y30.969079 Z-0.125000 I-1.610696 J-1.610696
G01 X13.759976 Y31.003723 Z-0.125000
G01 X13.833696 Y31.077443 Z-0.125000
G01 X13.882843 Y31.077443 Z-0.125000
G01 X14.005710 Y31.003723 Z-0.125000
G01 X13.956563 Y31.175737 Z-0.125000
G01 X13.956563 Y31.396897 Z-0.125000
G01 X14.054857 Y31.470617 Z-0.125000
G01 X14.054857 Y31.470617 Z-0.125000
G00 Z5.000000

(End cutting path id: path3016)


(Start cutting path id: path3016)
(Change tool to Default tool)

G00 Z5.000000
G00 X16.020726 Y31.077443

G01 Z-0.125000 F100.0(Penetrate)
G01 X16.217313 Y31.003723 Z-0.125000 F400.000000
G03 X16.571367 Y31.325119 Z-0.125000 I-2.397188 J2.996486
G01 X16.610487 Y31.421470 Z-0.125000
G01 X16.561340 Y31.421470 Z-0.125000
G01 X16.367004 Y31.362279 Z-0.125000
G03 X16.020726 Y31.077443 Z-0.125000 I1.289764 J-1.920878
G01 X16.020726 Y31.077443 Z-0.125000
G01 X16.020726 Y31.077443 Z-0.125000
G00 Z5.000000

(End cutting path id: path3016)


(Start cutting path id: path3016)
(Change tool to Default tool)

G00 Z5.000000
G00 X18.944957 Y30.069935

G01 Z-0.125000 F100.0(Penetrate)
G01 X19.067824 Y30.020788 Z-0.125000 F400.000000
G01 X19.092398 Y30.069935 Z-0.125000
G01 X19.141544 Y30.069935 Z-0.125000
G01 X19.338131 Y30.020788 Z-0.125000
G01 X19.460998 Y30.143655 Z-0.125000
G01 X19.706732 Y30.069935 Z-0.125000
G01 X19.706732 Y30.192802 Z-0.125000
G01 X19.780452 Y30.192802 Z-0.125000
G01 X19.829599 Y30.143655 Z-0.125000
G01 X19.854172 Y30.143655 Z-0.125000
G01 X19.883322 Y30.193140 Z-0.125000
G01 X19.977039 Y30.217375 Z-0.125000
G01 X19.952466 Y30.266522 Z-0.125000
G01 X19.952466 Y30.340242 Z-0.125000
G01 X19.977039 Y30.340242 Z-0.125000
G01 X20.222773 Y30.266522 Z-0.125000
G01 X20.222773 Y30.438535 Z-0.125000
G01 X20.419360 Y30.340242 Z-0.125000
G01 X20.483671 Y30.503793 Z-0.125000
G01 X20.615947 Y30.561402 Z-0.125000
G01 X20.665093 Y30.708842 Z-0.125000
G01 X20.714240 Y30.708842 Z-0.125000
G01 X20.738813 Y30.659696 Z-0.125000
G01 X20.787960 Y30.659696 Z-0.125000
G01 X20.847939 Y30.784017 Z-0.125000
G01 X20.984547 Y30.831709 Z-0.125000
G01 X21.045072 Y31.045582 Z-0.125000
G02 X21.230281 Y31.224883 Z-0.125000 I0.443640 J-0.272952
G01 X21.181134 Y31.224883 Z-0.125000
G01 X20.959974 Y31.175737 Z-0.125000
G01 X20.991222 Y31.236639 Z-0.125000
G01 X21.107414 Y31.274030 Z-0.125000
G01 X21.131987 Y31.396897 Z-0.125000
G01 X20.959974 Y31.396897 Z-0.125000
G02 X20.399971 Y30.970048 Z-0.125000 I-9.375322 J11.719152
G02 X20.050759 Y30.757989 Z-0.125000 I-1.463395 J2.016308
G02 X19.547855 Y30.421368 Z-0.125000 I-2.804318 J3.645613
G02 X18.944957 Y30.143655 Z-0.125000 I-1.800489 J3.115463
G01 X18.944957 Y30.069935 Z-0.125000
G01 X18.944957 Y30.069935 Z-0.125000
G00 Z5.000000

(End cutting path id: path3016)


(Start cutting path id: path3016)
(Change tool to Default tool)

G00 Z5.000000
G00 X13.735403 Y31.396897

G01 Z-0.125000 F100.0(Penetrate)
G01 X13.735403 Y31.298603 Z-0.125000 F400.000000
G01 X13.489669 Y31.224883 Z-0.125000
G01 X13.489669 Y31.298603 Z-0.125000
G01 X13.735403 Y31.396897 Z-0.125000
G01 X13.735403 Y31.396897 Z-0.125000
G00 Z5.000000

(End cutting path id: path3016)


(Start cutting path id: path3016)
(Change tool to Default tool)

G00 Z5.000000
G00 X14.742911 Y31.396897

G01 Z-0.125000 F100.0(Penetrate)
G01 X14.767484 Y31.347750 Z-0.125000 F400.000000
G01 X14.767484 Y31.298603 Z-0.125000
G01 X14.742911 Y31.274030 Z-0.125000
G01 X14.693764 Y31.274030 Z-0.125000
G01 X14.644617 Y31.298603 Z-0.125000
G01 X14.644617 Y31.347750 Z-0.125000
G01 X14.693764 Y31.396897 Z-0.125000
G01 X14.742911 Y31.396897 Z-0.125000
G01 X14.742911 Y31.396897 Z-0.125000
G00 Z5.000000

(End cutting path id: path3016)


(Start cutting path id: path3016)
(Change tool to Default tool)

G00 Z5.000000
G00 X24.007072 Y31.347750

G01 Z-0.125000 F100.0(Penetrate)
G01 X24.007072 Y31.003723 Z-0.125000 F400.000000
G01 X24.154512 Y31.003723 Z-0.125000
G01 X24.154512 Y31.224883 Z-0.125000
G01 X24.007072 Y31.347750 Z-0.125000
G01 X24.007072 Y31.347750 Z-0.125000
G00 Z5.000000

(End cutting path id: path3016)


(Start cutting path id: path3016)
(Change tool to Default tool)

G00 Z5.000000
G00 X7.420046 Y31.274030

G01 Z-0.125000 F100.0(Penetrate)
G01 X7.592060 Y30.880856 Z-0.125000 F400.000000
G01 X7.592060 Y30.782563 Z-0.125000
G01 X7.542913 Y30.782563 Z-0.125000
G02 X7.390533 Y30.983066 Z-0.125000 I0.658941 J0.658941
G01 X7.346326 Y31.151163 Z-0.125000
G01 X7.272606 Y31.077443 Z-0.125000
G01 X7.272606 Y31.003723 Z-0.125000
G01 X7.641207 Y30.463109 Z-0.125000
G01 X7.641207 Y30.315669 Z-0.125000
G02 X7.352683 Y30.597439 Z-0.125000 I1.102607 J1.417637
G02 X7.149739 Y30.954576 Z-0.125000 I0.951564 J0.776959
G01 X7.149739 Y31.003723 Z-0.125000
G01 X7.125166 Y31.003723 Z-0.125000
G01 X7.125166 Y30.831709 Z-0.125000
G03 X7.286687 Y30.485066 Z-0.125000 I1.271116 J0.381335
G03 X7.641207 Y30.069935 Z-0.125000 I1.813603 J1.189861
G01 X7.641207 Y29.996215 Z-0.125000
G01 X7.542913 Y29.996215 Z-0.125000
G02 X7.092807 Y30.553336 Z-0.125000 I1.747095 J1.871888
G02 X7.002299 Y30.880856 Z-0.125000 I0.547343 J0.327521
G01 X6.953152 Y30.880856 Z-0.125000
G01 X6.953152 Y30.708842 Z-0.125000
G03 X7.016720 Y30.432167 Z-0.125000 I0.633895 J0.000000
G03 X7.346326 Y29.947068 Z-0.125000 I1.824213 J0.884958
G03 X8.056466 Y29.347361 Z-0.125000 I10.831906 J12.106248
G03 X8.943595 Y28.693826 Z-0.125000 I9.095844 J11.418105
G01 X9.361343 Y28.300652 Z-0.125000
G01 X9.361343 Y28.423519 Z-0.125000
G03 X9.163337 Y28.626504 Z-0.125000 I-1.393539 J-1.161282
G03 X8.157247 Y29.480174 Z-0.125000 I-27.257195 J-31.104197
G01 X8.181821 Y29.504747 Z-0.125000
G01 X8.230968 Y29.504747 Z-0.125000
G01 X9.385916 Y28.595533 Z-0.125000
G01 X9.385916 Y28.620106 Z-0.125000
G03 X8.992498 Y29.037443 Z-0.125000 I-3.603977 J-3.003314
G03 X8.599568 Y29.381880 Z-0.125000 I-5.259996 J-5.604199
G01 X8.599568 Y29.431027 Z-0.125000
G01 X8.747008 Y29.357307 Z-0.125000
G01 X8.747008 Y29.381880 Z-0.125000
G01 X8.599568 Y29.603041 Z-0.125000
G01 X8.673288 Y29.603041 Z-0.125000
G01 X9.484209 Y28.988706 Z-0.125000
G01 X9.484209 Y29.062427 Z-0.125000
G03 X9.361754 Y29.200425 Z-0.125000 I-0.897787 J-0.673340
G03 X8.648715 Y29.824201 Z-0.125000 I-7.442946 J-7.788608
G01 X8.599568 Y29.873348 Z-0.125000
G01 X8.599568 Y29.897921 Z-0.125000
G01 X8.648715 Y29.897921 Z-0.125000
G01 X9.484209 Y29.234440 Z-0.125000
G01 X9.484209 Y29.259014 Z-0.125000
G01 X9.419661 Y29.389342 Z-0.125000
G03 X9.189329 Y29.627614 Z-0.125000 I-1.382710 J-1.106168
G01 X9.238476 Y29.652188 Z-0.125000
G01 X9.263049 Y29.652188 Z-0.125000
G01 X9.385916 Y29.603041 Z-0.125000
G01 X9.435063 Y29.603041 Z-0.125000
G01 X9.435063 Y29.652188 Z-0.125000
G01 X9.066462 Y30.069935 Z-0.125000
G01 X9.095612 Y30.119420 Z-0.125000
G01 X9.189329 Y30.143655 Z-0.125000
G01 X9.189329 Y30.192802 Z-0.125000
G01 X8.747008 Y30.561402 Z-0.125000
G01 X8.796155 Y30.585976 Z-0.125000
G03 X8.621846 Y30.762005 Z-0.125000 I-0.538752 J-0.359168
G03 X7.985234 Y31.126590 Z-0.125000 I-2.658906 J-3.904704
G01 X7.960660 Y31.126590 Z-0.125000
G01 X8.181821 Y30.831709 Z-0.125000
G01 X8.157247 Y30.831709 Z-0.125000
G01 X7.739500 Y31.175737 Z-0.125000
G01 X7.714927 Y31.175737 Z-0.125000
G01 X7.739500 Y31.003723 Z-0.125000
G01 X7.739500 Y30.954576 Z-0.125000
G01 X7.469193 Y31.274030 Z-0.125000
G01 X7.420046 Y31.274030 Z-0.125000
G01 X7.420046 Y31.274030 Z-0.125000
G00 Z5.000000

(End cutting path id: path3016)


(Start cutting path id: path3016)
(Change tool to Default tool)

G00 Z5.000000
G00 X26.833010 Y31.274030

G01 Z-0.125000 F100.0(Penetrate)
G02 X26.759415 Y31.004643 Z-0.125000 I-0.529831 J-0.000000 F400.000000
G01 X26.562702 Y30.831709 Z-0.125000
G01 X26.513556 Y30.831709 Z-0.125000
G01 X26.611849 Y31.151163 Z-0.125000
G01 X26.382916 Y31.076914 Z-0.125000
G03 X25.702634 Y30.463109 Z-0.125000 I2.521913 J-3.478927
G01 X25.625304 Y30.415539 Z-0.125000
G03 X25.432327 Y29.996215 Z-0.125000 I5.642143 J-2.850624
G01 X25.432327 Y29.897921 Z-0.125000
G01 X25.579768 Y29.873348 Z-0.125000
G01 X25.579768 Y29.775054 Z-0.125000
G01 X25.358607 Y29.504747 Z-0.125000
G01 X25.358607 Y29.381880 Z-0.125000
G01 X25.923795 Y29.873348 Z-0.125000
G01 X25.948368 Y29.873348 Z-0.125000
G01 X25.235740 Y29.111573 Z-0.125000
G01 X25.235740 Y28.988706 Z-0.125000
G01 X25.284887 Y28.988706 Z-0.125000
G01 X26.144955 Y29.824201 Z-0.125000
G01 X26.194102 Y29.824201 Z-0.125000
G01 X26.194102 Y29.750481 Z-0.125000
G03 X25.384052 Y28.976415 Z-0.125000 I16.633218 J-18.217334
G01 X25.358607 Y28.914986 Z-0.125000
G01 X25.358607 Y28.792120 Z-0.125000
G01 X26.316969 Y29.627614 Z-0.125000
G01 X26.316969 Y29.603041 Z-0.125000
G03 X25.490463 Y28.705028 Z-0.125000 I10.415400 J-10.415400
G01 X25.432327 Y28.546386 Z-0.125000
G02 X26.390990 Y29.400788 Z-0.125000 I11.764708 J-12.235296
G01 X26.611849 Y29.480174 Z-0.125000
G01 X25.948368 Y28.914986 Z-0.125000
G01 X25.751781 Y28.620106 Z-0.125000
G01 X25.751781 Y28.595533 Z-0.125000
G01 X26.808436 Y29.504747 Z-0.125000
G03 X27.136261 Y29.760705 Z-0.125000 I-0.875674 J1.459457
G03 X27.570211 Y30.266522 Z-0.125000 I-3.090174 J3.090174
G01 X27.717651 Y30.635122 Z-0.125000
G01 X27.668504 Y30.635122 Z-0.125000
G01 X27.349050 Y30.192802 Z-0.125000
G01 X27.275330 Y30.192802 Z-0.125000
G01 X27.275330 Y30.217375 Z-0.125000
G03 X27.447707 Y30.500631 Z-0.125000 I-0.780721 J0.669190
G03 X27.521064 Y30.782563 Z-0.125000 I-1.039923 J0.421092
G01 X27.127890 Y30.266522 Z-0.125000
G01 X27.054170 Y30.266522 Z-0.125000
G01 X27.054170 Y30.315669 Z-0.125000
G03 X27.336931 Y30.746814 Z-0.125000 I-1.899010 J1.553736
G03 X27.447344 Y31.126590 Z-0.125000 I-0.920191 J0.473467
G01 X27.054170 Y30.561402 Z-0.125000
G01 X26.931303 Y30.561402 Z-0.125000
G01 X26.931303 Y30.585976 Z-0.125000
G03 X27.185778 Y31.004575 Z-0.125000 I-2.401684 J1.746679
G01 X27.226183 Y31.175737 Z-0.125000
G01 X27.201610 Y31.175737 Z-0.125000
G01 X27.147413 Y31.146970 Z-0.125000
G03 X26.882156 Y30.708842 Z-0.125000 I4.204727 J-2.845042
G01 X26.759289 Y30.708842 Z-0.125000
G01 X26.759289 Y30.757989 Z-0.125000
G03 X26.946063 Y31.033897 Z-0.125000 I-1.116367 J0.956886
