( Made using CamBam - http://www.cambam.co.uk )
( logo mac 2/23/2011 9:14:53 PM )
( T0 : 0.0 )
G20 G90 G64 G40
G0 Z0.125
( T0 : 0.0 )
T0 M6
( Engrave1 )
G17
M3 S0
G0 X-0.764 Y-2.4149
G1 F12.0 Z0.0
G1 F100.0 X-0.7966 Y-2.4066
G1 X-0.8275 Y-2.3975
G1 X-0.8568 Y-2.3876
G1 X-0.8847 Y-2.3767
G1 X-0.9113 Y-2.3651
G1 X-0.9369 Y-2.3525
G1 X-0.9616 Y-2.3391
G1 X-0.9856 Y-2.3247
G1 X-1.0091 Y-2.3095
G1 X-1.0322 Y-2.2933
G1 X-1.0551 Y-2.2762
G1 X-1.078 Y-2.2581
G1 X-1.101 Y-2.2391
G1 X-1.1244 Y-2.2192
G1 X-1.1483 Y-2.1982
G1 X-1.1728 Y-2.1763
G1 X-1.2792 Y-2.0527
G1 X-1.3795 Y-1.9231
G1 X-1.4734 Y-1.7879
G1 X-1.5605 Y-1.6476
G1 X-1.6403 Y-1.5027
G1 X-1.7124 Y-1.3536
G1 X-1.7764 Y-1.201
G1 X-1.832 Y-1.0453
G1 X-1.8785 Y-0.8869
G1 X-1.9157 Y-0.7265
G1 X-1.9432 Y-0.5643
G1 X-1.9604 Y-0.4011
G1 X-1.967 Y-0.2372
G1 X-1.9627 Y-0.0732
G1 X-1.9468 Y0.0905
G1 X-1.9192 Y0.2533
G1 X-1.9026 Y0.3068
G1 X-1.8851 Y0.3589
G1 X-1.8664 Y0.4097
G1 X-1.8466 Y0.4591
G1 X-1.8254 Y0.5074
G1 X-1.8028 Y0.5544
G1 X-1.7788 Y0.6004
G1 X-1.7531 Y0.6453
G1 X-1.7258 Y0.6893
G1 X-1.6968 Y0.7324
G1 X-1.6659 Y0.7747
G1 X-1.6331 Y0.8162
G1 X-1.5982 Y0.857
G1 X-1.5613 Y0.8972
G1 X-1.5221 Y0.9368
G1 X-1.4807 Y0.976
G1 X-1.4734 Y0.9811
G1 X-1.4661 Y0.9863
G1 X-1.4588 Y0.9914
G1 X-1.4516 Y0.9966
G1 X-1.4443 Y1.0018
G1 X-1.437 Y1.0069
G1 X-1.4297 Y1.0121
G1 X-1.4224 Y1.0173
G1 X-1.4151 Y1.0224
G1 X-1.4079 Y1.0276
G1 X-1.4006 Y1.0327
G1 X-1.3933 Y1.0379
G1 X-1.386 Y1.0431
G1 X-1.3787 Y1.0482
G1 X-1.3715 Y1.0534
G1 X-1.3642 Y1.0586
G1 X-1.316 Y1.0842
G1 X-1.2684 Y1.108
G1 X-1.2213 Y1.1298
G1 X-1.1745 Y1.1498
G1 X-1.1278 Y1.1676
G1 X-1.0811 Y1.1835
G1 X-1.0343 Y1.1972
G1 X-0.9872 Y1.2087
G1 X-0.9397 Y1.218
G1 X-0.8916 Y1.225
G1 X-0.8427 Y1.2297
G1 X-0.793 Y1.232
G1 X-0.7422 Y1.2319
G1 X-0.6902 Y1.2293
G1 X-0.637 Y1.2241
G1 X-0.5822 Y1.2164
G1 X-0.5458 Y1.2057
G1 X-0.5094 Y1.1945
G1 X-0.4733 Y1.1828
G1 X-0.4372 Y1.1709
G1 X-0.4012 Y1.1587
G1 X-0.3652 Y1.1464
G1 X-0.3293 Y1.1339
G1 X-0.2934 Y1.1215
G1 X-0.2575 Y1.109
G1 X-0.2215 Y1.0967
G1 X-0.1855 Y1.0847
G1 X-0.1494 Y1.0729
G1 X-0.1132 Y1.0614
G1 X-0.0768 Y1.0504
G1 X-0.0403 Y1.0399
G1 X-0.0036 Y1.03
G1 X0.0003
G1 X0.0042
G1 X0.0081
G1 X0.012
G1 X0.016
G1 X0.0199
G1 X0.0238
G1 X0.0277
G1 X0.0316
G1 X0.0356
G1 X0.0395
G1 X0.0434
G1 X0.0474
G1 X0.0513
G1 X0.0553
G1 X0.0592
G1 X0.0675 Y1.0324
G1 X0.0758 Y1.0349
G1 X0.0841 Y1.0373
G1 X0.0924 Y1.0398
G1 X0.1006 Y1.0422
G1 X0.1089 Y1.0447
G1 X0.1172 Y1.0471
G1 X0.1255 Y1.0496
G1 X0.1337 Y1.052
G1 X0.142 Y1.0545
G1 X0.1503 Y1.0569
G1 X0.1585 Y1.0594
G1 X0.1668 Y1.0618
G1 X0.1751 Y1.0643
G1 X0.1834 Y1.0667
G1 X0.1916 Y1.0692
G1 X0.2399 Y1.0863
G1 X0.2875 Y1.1033
G1 X0.3345 Y1.12
G1 X0.3811 Y1.1362
G1 X0.4273 Y1.1519
G1 X0.4734 Y1.1669
G1 X0.5194 Y1.1811
G1 X0.5655 Y1.1943
G1 X0.6119 Y1.2065
G1 X0.6585 Y1.2174
G1 X0.7056 Y1.227
G1 X0.7533 Y1.2352
G1 X0.8017 Y1.2417
G1 X0.8509 Y1.2466
G1 X0.9011 Y1.2496
G1 X0.9524 Y1.2506
G1 X1.0101 Y1.2427
G1 X1.0665 Y1.2336
G1 X1.1218 Y1.223
G1 X1.1759 Y1.2108
G1 X1.2289 Y1.197
G1 X1.2808 Y1.1813
G1 X1.3317 Y1.1636
G1 X1.3815 Y1.1438
G1 X1.4303 Y1.1218
G1 X1.4782 Y1.0974
G1 X1.5251 Y1.0704
G1 X1.571 Y1.0408
G1 X1.616 Y1.0084
G1 X1.6602 Y0.9731
G1 X1.7035 Y0.9346
G1 X1.746 Y0.893
G1 X1.7511 Y0.8867
G1 X1.7569 Y0.8799
G1 X1.7632 Y0.8727
G1 X1.7699 Y0.8651
G1 X1.777 Y0.8572
G1 X1.7842 Y0.849
G1 X1.7914 Y0.8406
G1 X1.7985 Y0.8321
G1 X1.8054 Y0.8234
G1 X1.812 Y0.8148
G1 X1.818 Y0.8062
G1 X1.8234 Y0.7976
G1 X1.8281 Y0.7892
G1 X1.8319 Y0.7811
G1 X1.8347 Y0.7731
G1 X1.8364 Y0.7656
G1 X1.8162 Y0.7516
G1 X1.7984 Y0.7392
G1 X1.7829 Y0.7284
G1 X1.7692 Y0.7189
G1 X1.7573 Y0.7105
G1 X1.7468 Y0.7031
G1 X1.7374 Y0.6964
G1 X1.7291 Y0.6903
G1 X1.7214 Y0.6846
G1 X1.7141 Y0.6791
G1 X1.7071 Y0.6736
G1 X1.6999 Y0.668
G1 X1.6925 Y0.662
G1 X1.6845 Y0.6555
G1 X1.6758 Y0.6483
G1 X1.6659 Y0.6402
G1 X1.6355 Y0.6088
G1 X1.6066 Y0.5779
G1 X1.5792 Y0.5472
G1 X1.5533 Y0.5165
G1 X1.5288 Y0.4858
G1 X1.5058 Y0.4548
G1 X1.484 Y0.4235
G1 X1.4636 Y0.3915
G1 X1.4444 Y0.3588
G1 X1.4265 Y0.3252
G1 X1.4097 Y0.2905
G1 X1.394 Y0.2546
G1 X1.3795 Y0.2172
G1 X1.3659 Y0.1783
G1 X1.3534 Y0.1377
G1 X1.3418 Y0.0951
G1 X1.3352 Y0.0426
G1 X1.33 Y-0.009
G1 X1.3265 Y-0.0598
G1 X1.3245 Y-0.1099
G1 X1.3243 Y-0.1594
G1 X1.326 Y-0.2082
G1 X1.3295 Y-0.2566
G1 X1.3349 Y-0.3045
G1 X1.3425 Y-0.3522
G1 X1.3521 Y-0.3995
G1 X1.364 Y-0.4468
G1 X1.3782 Y-0.4939
G1 X1.3947 Y-0.541
G1 X1.4137 Y-0.5883
G1 X1.4352 Y-0.6357
G1 X1.4594 Y-0.6833
G1 X1.4796 Y-0.7148
G1 X1.5005 Y-0.7453
G1 X1.522 Y-0.7747
G1 X1.5442 Y-0.8032
G1 X1.5671 Y-0.8307
G1 X1.5907 Y-0.8573
G1 X1.6151 Y-0.883
G1 X1.6401 Y-0.9079
G1 X1.666 Y-0.9321
G1 X1.6926 Y-0.9555
G1 X1.72 Y-0.9782
G1 X1.7482 Y-1.0003
G1 X1.7773 Y-1.0218
G1 X1.8072 Y-1.0428
G1 X1.838 Y-1.0633
G1 X1.8696 Y-1.0833
G1 X1.8757 Y-1.0862
G1 X1.8818 Y-1.0891
G1 X1.8879 Y-1.092
G1 X1.894 Y-1.0949
G1 X1.9 Y-1.0979
G1 X1.9061 Y-1.1008
G1 X1.9122 Y-1.1037
G1 X1.9183 Y-1.1066
G1 X1.9244 Y-1.1096
G1 X1.9305 Y-1.1125
G1 X1.9366 Y-1.1154
G1 X1.9427 Y-1.1184
G1 X1.9488 Y-1.1213
G1 X1.9549 Y-1.1243
G1 X1.961 Y-1.1273
G1 X1.967 Y-1.1302
G1 X1.9544 Y-1.1649
G1 X1.9416 Y-1.1992
G1 X1.9285 Y-1.2333
G1 X1.9153 Y-1.2671
G1 X1.9018 Y-1.3006
G1 X1.8881 Y-1.334
G1 X1.8741 Y-1.3671
G1 X1.8599 Y-1.4001
G1 X1.8453 Y-1.433
G1 X1.8305 Y-1.4658
G1 X1.8153 Y-1.4984
G1 X1.7997 Y-1.5311
G1 X1.7838 Y-1.5637
G1 X1.7675 Y-1.5963
G1 X1.7508 Y-1.6289
G1 X1.7337 Y-1.6616
G1 X1.7064 Y-1.7055
G1 X1.6788 Y-1.7495
G1 X1.6507 Y-1.7934
G1 X1.6221 Y-1.8371
G1 X1.5928 Y-1.8805
G1 X1.5629 Y-1.9235
G1 X1.5322 Y-1.9659
G1 X1.5006 Y-2.0077
G1 X1.4682 Y-2.0486
G1 X1.4347 Y-2.0887
G1 X1.4002 Y-2.1278
G1 X1.3646 Y-2.1657
G1 X1.3277 Y-2.2024
G1 X1.2896 Y-2.2377
G1 X1.25 Y-2.2715
G1 X1.2091 Y-2.3037
G1 X1.1859 Y-2.3167
G1 X1.1633 Y-2.3287
G1 X1.1412 Y-2.3399
G1 X1.1196 Y-2.3501
G1 X1.0981 Y-2.3595
G1 X1.0769 Y-2.3679
G1 X1.0556 Y-2.3755
G1 X1.0342 Y-2.3823
G1 X1.0126 Y-2.3882
G1 X0.9905 Y-2.3933
G1 X0.968 Y-2.3976
G1 X0.9449 Y-2.4011
G1 X0.921 Y-2.4038
G1 X0.8963 Y-2.4057
G1 X0.8706 Y-2.4068
G1 X0.8437 Y-2.4072
G1 X0.8033 Y-2.3999
G1 X0.7634 Y-2.3913
G1 X0.724 Y-2.3816
G1 X0.6849 Y-2.3709
G1 X0.6462 Y-2.3594
G1 X0.6077 Y-2.3473
G1 X0.5694 Y-2.3348
G1 X0.5313 Y-2.3219
G1 X0.4931 Y-2.309
G1 X0.4549 Y-2.2962
G1 X0.4166 Y-2.2836
G1 X0.3781 Y-2.2715
G1 X0.3394 Y-2.2599
G1 X0.3003 Y-2.2492
G1 X0.2609 Y-2.2393
G1 X0.2209 Y-2.2306
G1 X0.1731 Y-2.2267
G1 X0.1267 Y-2.225
G1 X0.0815 Y-2.2254
G1 X0.0374 Y-2.2278
G1 X-0.0057 Y-2.2321
G1 X-0.0481 Y-2.2381
G1 X-0.0899 Y-2.2458
G1 X-0.1313 Y-2.255
G1 X-0.1725 Y-2.2655
G1 X-0.2136 Y-2.2773
G1 X-0.2549 Y-2.2903
G1 X-0.2965 Y-2.3043
G1 X-0.3385 Y-2.3191
G1 X-0.3812 Y-2.3348
G1 X-0.4247 Y-2.3511
G1 X-0.4692 Y-2.368
G1 X-0.488 Y-2.3732
G1 X-0.5065 Y-2.3782
G1 X-0.5249 Y-2.3828
G1 X-0.5432 Y-2.3871
G1 X-0.5614 Y-2.391
G1 X-0.5795 Y-2.3947
G1 X-0.5975 Y-2.3981
G1 X-0.6156 Y-2.4011
G1 X-0.6337 Y-2.4039
G1 X-0.6518 Y-2.4063
G1 X-0.6701 Y-2.4085
G1 X-0.6885 Y-2.4103
G1 X-0.707 Y-2.4119
G1 X-0.7258 Y-2.4132
G1 X-0.7448 Y-2.4142
G0 Z0.125
G0 X0.0352 Y1.2969
G1 F12.0 Z0.0
G1 F100.0 X0.0325 Y1.2972
G1 X0.0297 Y1.2975
G1 X0.0269 Y1.2979
G1 X0.0241 Y1.2982
G1 X0.0214 Y1.2985
G1 X0.0186 Y1.2988
G1 X0.0158 Y1.2992
G1 X0.013 Y1.2995
G1 X0.0103 Y1.2998
G1 X0.0075 Y1.3001
G1 X0.0048 Y1.3004
G1 X0.002 Y1.3007
G1 X-0.0007 Y1.301
G1 X-0.0034 Y1.3013
G1 X-0.0062 Y1.3015
G1 X-0.0089 Y1.3018
G1 X-0.0087 Y1.3135
G1 X-0.0086 Y1.3251
G1 X-0.0085 Y1.3367
G1 X-0.0083 Y1.3484
G1 X-0.0082 Y1.3601
G1 X-0.0081 Y1.3717
G1 X-0.0079 Y1.3834
G1 X-0.0078 Y1.395
G1 X-0.0076 Y1.4067
G1 X-0.0075 Y1.4183
G1 X-0.0073 Y1.43
G1 X-0.0071 Y1.4416
G1 X-0.007 Y1.4533
G1 X-0.0068 Y1.4649
G1 X-0.0066 Y1.4766
G1 X-0.0064 Y1.4882
G1 X0.0023 Y1.5363
G1 X0.0126 Y1.583
G1 X0.0246 Y1.6285
G1 X0.0382 Y1.6728
G1 X0.0534 Y1.716
G1 X0.0703 Y1.7582
G1 X0.0889 Y1.7993
G1 X0.1092 Y1.8396
G1 X0.1312 Y1.879
G1 X0.1548 Y1.9177
G1 X0.1802 Y1.9556
G1 X0.2073 Y1.9929
G1 X0.2361 Y2.0295
G1 X0.2666 Y2.0657
G1 X0.2988 Y2.1014
G1 X0.3329 Y2.1367
G1 X0.3683 Y2.1635
G1 X0.404 Y2.1894
G1 X0.44 Y2.2145
G1 X0.4764 Y2.2387
G1 X0.5133 Y2.2618
G1 X0.5506 Y2.2836
G1 X0.5885 Y2.3043
G1 X0.627 Y2.3235
G1 X0.6661 Y2.3412
G1 X0.7059 Y2.3574
G1 X0.7465 Y2.3718
G1 X0.7878 Y2.3845
G1 X0.83 Y2.3952
G1 X0.873 Y2.4039
G1 X0.917 Y2.4105
G1 X0.962 Y2.4149
G1 X0.9621 Y2.4064
G1 X0.9622 Y2.3978
G1 X0.9623 Y2.3893
G1 X0.9625 Y2.3807
G1 X0.9626 Y2.3721
G1 X0.9628 Y2.3636
G1 X0.9629 Y2.355
G1 X0.9631 Y2.3464
G1 X0.9632 Y2.3378
G1 X0.9634 Y2.3292
G1 X0.9635 Y2.3206
G1 X0.9637 Y2.312
G1 X0.9639 Y2.3034
G1 X0.964 Y2.2948
G1 X0.9642 Y2.2862
G1 X0.9644 Y2.2776
G1 X0.9553 Y2.201
G1 X0.9417 Y2.1259
G1 X0.9237 Y2.0527
G1 X0.9013 Y1.9814
G1 X0.8745 Y1.9122
G1 X0.8435 Y1.8453
G1 X0.8084 Y1.781
G1 X0.7691 Y1.7193
G1 X0.7258 Y1.6605
G1 X0.6785 Y1.6047
G1 X0.6273 Y1.5521
G1 X0.5722 Y1.5029
G1 X0.5134 Y1.4572
G1 X0.4508 Y1.4153
G1 X0.3846 Y1.3774
G1 X0.3148 Y1.3435
G1 X0.2973 Y1.3382
G1 X0.2799 Y1.3334
G1 X0.2625 Y1.3289
G1 X0.2452 Y1.3248
G1 X0.228 Y1.321
G1 X0.2108 Y1.3176
G1 X0.1936 Y1.3144
G1 X0.1764 Y1.3116
G1 X0.1591 Y1.309
G1 X0.1418 Y1.3066
G1 X0.1244 Y1.3045
G1 X0.1068 Y1.3026
G1 X0.0892 Y1.3009
G1 X0.0714 Y1.2994
G1 X0.0534 Y1.2981
G0 Z0.125
M5
M30
