%
(Header)
(Generated by gcodetools from Inkscape.)
(Using default header. To add your own header create file "header" in the output dir.)
M3
(Header end.)
G21 (All units in mm)

(Start cutting path id: path3014)
(Change tool to Default tool)

G00 Z5.000000
G00 X29.966940 Y12.722177

G01 Z-0.125000 F100.0(Penetrate)
G03 X29.981956 Y12.730227 Z-0.125000 I-0.015784 J0.047472 F400.000000
G03 X30.016549 Y12.760757 Z-0.125000 I-0.237356 J0.303809
G03 X30.005974 Y12.754631 Z-0.125000 I0.044540 J-0.089080
G01 X30.000011 Y12.749750 Z-0.125000
G01 X29.995372 Y12.746880 Z-0.125000
G02 X29.988976 Y12.744106 Z-0.125000 I-0.035188 J0.072371
G03 X29.964974 Y12.726830 Z-0.125000 I0.041230 J-0.082595
G01 X29.966934 Y12.722092 Z-0.125000
G00 Z5.000000

(End cutting path id: path3014)


(Start cutting path id: path3014)
(Change tool to Default tool)

G00 Z5.000000
G00 X28.649529 Y9.569162

G01 Z-0.125000 F100.0(Penetrate)
G03 X28.972449 Y10.354943 Z-0.125000 I-7.593776 J3.579935 F400.000000
G03 X29.178696 Y11.068468 Z-0.125000 I-6.050492 J2.135488
G03 X29.313567 Y11.800901 Z-0.125000 I-7.466530 J1.753529
G03 X29.377132 Y12.545704 Z-0.125000 I-7.657715 J1.028660
G03 X29.381264 Y12.584353 Z-0.125000 I-0.543819 J0.077688
G03 X29.382636 Y12.622891 Z-0.125000 I-0.540924 J0.038539
G02 X29.389199 Y12.661238 Z-0.125000 I0.697337 J-0.099620
G02 X29.399174 Y12.705554 Z-0.125000 I0.918103 J-0.183370
G03 X29.386791 Y12.821166 Z-0.125000 I-4.856994 J-0.461725
G03 X29.371601 Y12.937061 Z-0.125000 I-4.951888 J-0.590121
G03 X29.352394 Y13.057868 Z-0.125000 I-2.750983 J-0.375440
G03 X29.327503 Y13.179603 Z-0.125000 I-2.780258 J-0.505053
G03 X29.315923 Y13.217972 Z-0.125000 I-1.299160 J-0.371188
G03 X29.288918 Y13.300874 Z-0.125000 I-5.986467 J-1.904196
G02 X29.271462 Y13.384161 Z-0.125000 I0.760251 J0.202811
G02 X29.266876 Y13.444186 Z-0.125000 I0.390566 J0.060025
G02 X29.265734 Y13.536867 Z-0.125000 I0.440934 J0.051781
G02 X29.283415 Y13.620575 Z-0.125000 I0.368348 J-0.034079
G02 X29.315468 Y13.706811 Z-0.125000 I0.829527 J-0.259252
G02 X29.355074 Y13.785957 Z-0.125000 I0.736493 J-0.319070
G01 X29.371612 Y13.802608 Z-0.125000
G02 X29.389870 Y13.815028 Z-0.125000 I0.041983 J-0.042091
G02 X29.410197 Y13.819260 Z-0.125000 I0.020328 J-0.046704
G01 X29.421232 Y13.819260 Z-0.125000
G02 X29.464475 Y13.807253 Z-0.125000 I0.000000 J-0.083875
G02 X29.503915 Y13.769673 Z-0.125000 I-0.064470 J-0.107147
G02 X29.537478 Y13.722545 Z-0.125000 I-0.219088 J-0.191544
G02 X29.570062 Y13.653906 Z-0.125000 I-0.434022 J-0.248089
G02 X29.594770 Y13.586813 Z-0.125000 I-0.789713 J-0.328921
G02 X29.619671 Y13.499558 Z-0.125000 I-1.306699 J-0.420091
G02 X29.641080 Y13.416711 Z-0.125000 I-5.287128 J-1.410442
G02 X29.658257 Y13.345239 Z-0.125000 I-3.873899 J-0.968811
G02 X29.662981 Y13.349957 Z-0.125000 I3.225648 J-3.225648
G02 X29.669291 Y13.356246 Z-0.125000 I13.804447 J-13.844915
G01 X29.669291 Y13.350884 Z-0.125000
G02 X29.675854 Y13.361182 Z-0.125000 I0.052766 J-0.026383
G02 X29.691333 Y13.378541 Z-0.125000 I0.159347 J-0.126509
G01 X29.707871 Y13.395192 Z-0.125000
G02 X29.829216 Y13.486732 Z-0.125000 I0.387634 J-0.387649
G02 X30.005528 Y13.560575 Z-0.125000 I0.420637 J-0.756940
G02 X30.194842 Y13.605364 Z-0.125000 I0.511107 J-1.737844
G02 X30.402403 Y13.632231 Z-0.125000 I0.372941 J-2.065976
G02 X30.612140 Y13.648901 Z-0.125000 I0.432965 J-4.119663
G02 X30.810302 Y13.654244 Z-0.125000 I0.198162 J-3.671861
G01 X31.157568 Y13.654244 Z-0.125000
G02 X31.245735 Y13.652517 Z-0.125000 I-0.000000 J-2.250737
G02 X31.333957 Y13.648882 Z-0.125000 I-0.867533 J-22.129350
G02 X31.420805 Y13.637254 Z-0.125000 I-0.038587 J-0.618336
G02 X31.493807 Y13.615806 Z-0.125000 I-0.094168 J-0.455477
G02 X31.557892 Y13.578797 Z-0.125000 I-0.084813 J-0.220854
G02 X31.609564 Y13.522108 Z-0.125000 I-0.160552 J-0.198236
G02 X31.644330 Y13.451007 Z-0.125000 I-0.168942 J-0.126658
G02 X31.659173 Y13.340187 Z-0.125000 I-0.406393 J-0.110835
G02 X31.646357 Y13.244514 Z-0.125000 I-0.363643 J0.000016
G02 X31.609564 Y13.158295 Z-0.125000 I-0.330926 J0.090261
G02 X31.548293 Y13.102469 Z-0.125000 I-0.135351 J0.087017
G02 X31.460737 Y13.081136 Z-0.125000 I-0.087475 J0.168670
G01 X31.367030 Y13.081136 Z-0.125000
G03 X31.169458 Y13.067600 Z-0.125000 I0.067497 J-2.433838
G03 X30.964641 Y13.037024 Z-0.125000 I0.288359 J-2.632961
G03 X30.761408 Y12.995246 Z-0.125000 I1.198844 J-6.347022
G03 X30.567766 Y12.948830 Z-0.125000 I1.313504 J-5.906927
G01 X30.556899 Y12.947160 Z-0.125000
G03 X30.545724 Y12.943468 Z-0.125000 I0.125004 J-0.397099
G02 X30.534393 Y12.939203 Z-0.125000 I-0.026155 J0.052311
G01 X30.523683 Y12.937823 Z-0.125000
G03 X30.430040 Y12.904591 Z-0.125000 I7.391355 J-20.976287
G03 X30.369344 Y12.882705 Z-0.125000 I3.847078 J-10.764142
G03 X30.309435 Y12.864044 Z-0.125000 I0.228071 J-0.837664
G03 X30.259099 Y12.844125 Z-0.125000 I0.232172 J-0.660288
G03 X30.210056 Y12.826183 Z-0.125000 I0.279954 J-0.841226
G03 X30.148858 Y12.800042 Z-0.125000 I0.525126 J-1.314075
G03 X30.094364 Y12.776591 Z-0.125000 I0.415689 J-1.040981
G03 X30.005542 Y12.733889 Z-0.125000 I1.352731 J-2.927469
G01 X29.989004 Y12.717238 Z-0.125000
G02 X29.984632 Y12.574182 Z-0.125000 I-2.342617 J-0.000000
G02 X29.972466 Y12.447152 Z-0.125000 I-1.852944 J0.113365
G01 X29.939392 Y12.204610 Z-0.125000
G01 X29.906319 Y11.962068 Z-0.125000
G03 X29.894255 Y11.846003 Z-0.125000 I1.501052 J-0.214671
G03 X29.889780 Y11.708520 Z-0.125000 I2.109684 J-0.137484
G02 X29.873767 Y11.450497 Z-0.125000 I-3.172702 J0.067394
G02 X29.834660 Y11.173821 Z-0.125000 I-3.687949 J0.380183
G02 X29.784243 Y10.905069 Z-0.125000 I-5.719636 J0.933878
G02 X29.718903 Y10.628145 Z-0.125000 I-6.138297 J1.302138
G02 X29.648911 Y10.359081 Z-0.125000 I-9.410040 J2.304214
G02 X29.570076 Y10.087943 Z-0.125000 I-9.643583 J2.656904
G02 X29.491396 Y9.818299 Z-0.125000 I-24.154405 J6.901799
G02 X29.415735 Y9.569811 Z-0.125000 I-20.518230 J6.111772
G03 X29.406933 Y9.547172 Z-0.125000 I0.117147 J-0.058573
G03 X29.404700 Y9.531203 Z-0.125000 I0.055970 J-0.015969
G01 X29.371626 Y9.432002 Z-0.125000
G02 X29.343618 Y9.354995 Z-0.125000 I-6.599021 J2.356535
G02 X29.316505 Y9.283158 Z-0.125000 I-5.801491 J2.148554
G03 X29.289423 Y9.216835 Z-0.125000 I4.588634 J-1.912421
G03 X29.261384 Y9.145349 Z-0.125000 I5.330103 J-2.131823
G02 X29.258264 Y9.124074 Z-0.125000 I-0.074086 J0.000000
G02 X29.244846 Y9.090231 Z-0.125000 I-0.202556 J0.060727
G02 X29.231610 Y9.058278 Z-0.125000 I-0.231342 J0.077114
G02 X29.211775 Y9.024106 Z-0.125000 I-0.284207 J0.142122
G02 X29.194719 Y8.985786 Z-0.125000 I-1.486713 J0.638796
G02 X29.178702 Y8.952450 Z-0.125000 I-1.039515 J0.478937
G03 X29.169637 Y8.913607 Z-0.125000 I0.391189 J-0.111768
G03 X29.167667 Y8.891801 Z-0.125000 I0.119685 J-0.021806
G01 X28.649524 Y9.569811 Z-0.125000
G00 Z5.000000

(End cutting path id: path3014)


(Start cutting path id: path3012)
(Change tool to Default tool)

G00 Z5.000000
G00 X25.810776 Y12.352861

G01 Z-0.125000 F100.0(Penetrate)
G03 X25.806742 Y12.319705 Z-0.125000 I0.371705 J-0.062046 F400.000000
G03 X25.805264 Y12.281205 Z-0.125000 I0.500724 J-0.038501
G02 X25.804089 Y12.248228 Z-0.125000 I-0.463950 J0.000018
G02 X25.799752 Y12.204045 Z-0.125000 I-0.830239 J0.059194
G03 X25.882609 Y12.195686 Z-0.125000 I0.172820 J1.298203
G03 X25.959605 Y12.193039 Z-0.125000 I0.076996 J1.118232
G01 X26.119457 Y12.193039 Z-0.125000
G03 X26.465972 Y12.204288 Z-0.125000 I0.000000 J5.342305
G03 X26.797452 Y12.237150 Z-0.125000 I-0.318685 J4.902907
G02 X27.133978 Y12.278769 Z-0.125000 I3.028542 J-23.107219
G02 X27.508520 Y12.319813 Z-0.125000 I3.286325 J-28.259350
G03 X27.504494 Y12.435308 Z-0.125000 I-1.660216 J-0.000055
G03 X27.491984 Y12.556851 Z-0.125000 I-1.852474 J-0.129244
G03 X27.462461 Y12.669794 Z-0.125000 I-0.353950 J-0.032194
G03 X27.398277 Y12.766317 Z-0.125000 I-0.319874 J-0.143100
G03 X27.267796 Y12.814958 Z-0.125000 I-0.337190 J-0.705196
G03 X27.056524 Y12.860014 Z-0.125000 I-0.496912 J-1.812168
G03 X26.840664 Y12.888634 Z-0.125000 I-0.422230 J-2.356229
G03 X26.610040 Y12.898594 Z-0.125000 I-0.230625 J-2.665135
G03 X26.401596 Y12.888439 Z-0.125000 I0.000000 J-2.144349
G03 X26.213165 Y12.860014 Z-0.125000 I0.176968 J-1.811923
G03 X26.034140 Y12.808392 Z-0.125000 I0.152289 J-0.864365
G03 X25.915508 Y12.738744 Z-0.125000 I0.181194 J-0.444485
G03 X25.877437 Y12.659266 Z-0.125000 I0.528793 J-0.302163
G03 X25.854875 Y12.584396 Z-0.125000 I0.446333 J-0.175336
G02 X25.841510 Y12.507687 Z-0.125000 I-1.259476 J0.179905
G02 X25.816290 Y12.397001 Z-0.125000 I-2.655280 J0.546809
G01 X25.816290 Y12.369343 Z-0.125000
G01 X25.815105 Y12.364331 Z-0.125000
G01 X25.810778 Y12.358336 Z-0.125000
G03 X25.810778 Y12.355514 Z-0.125000 I9.407407 J-0.002876
G03 X25.810778 Y12.352692 Z-0.125000 I9.407408 J0.000054
G00 Z5.000000

(End cutting path id: path3012)


(Start cutting path id: path3012)
(Change tool to Default tool)

G00 Z5.000000
G00 X27.883347 Y11.636130

G01 Z-0.125000 F100.0(Penetrate)
G02 X27.496958 Y11.591830 Z-0.125000 I-1.806321 J14.047799 F400.000000
G02 X27.117158 Y11.558942 Z-0.125000 I-1.360699 J13.504240
G02 X26.736569 Y11.538227 Z-0.125000 I-0.770601 J10.651431
G02 X26.356481 Y11.531284 Z-0.125000 I-0.380088 J10.400583
G02 X26.196638 Y11.532983 Z-0.125000 I0.000000 J7.519695
G02 X26.031264 Y11.536646 Z-0.125000 I1.977692 J93.017706
G02 X25.871481 Y11.543592 Z-0.125000 I0.304665 J8.849505
G02 X25.711559 Y11.553297 Z-0.125000 I0.516474 J9.833075
G03 X25.685207 Y11.327153 Z-0.125000 I21.136976 J-2.577690
G03 X25.661950 Y11.106822 Z-0.125000 I20.033634 J-2.226020
G03 X25.649595 Y10.891679 Z-0.125000 I5.536856 J-0.425895
G03 X25.645415 Y10.671353 Z-0.125000 I5.798357 J-0.220214
G01 X25.645415 Y10.505999 Z-0.125000
G03 X25.648073 Y10.423474 Z-0.125000 I1.281703 J-0.000020
G03 X25.656438 Y10.335113 Z-0.125000 I1.477629 J0.095315
G03 X25.732546 Y10.246936 Z-0.125000 I0.391453 J0.260937
G03 X25.827315 Y10.180766 Z-0.125000 I0.310501 J0.343752
G03 X25.939751 Y10.131385 Z-0.125000 I0.551620 J1.103294
G03 X26.058826 Y10.092572 Z-0.125000 I0.455828 J1.196359
G03 X26.186214 Y10.069065 Z-0.125000 I0.439559 J2.025182
G03 X26.312385 Y10.053992 Z-0.125000 I0.296290 J1.944474
G02 X26.439112 Y10.042466 Z-0.125000 I-1.342402 J-15.462091
G02 X26.543895 Y10.031978 Z-0.125000 I-1.006181 J-10.581821
G03 X26.610076 Y10.027023 Z-0.125000 I0.332506 J3.996318
G03 X26.709260 Y10.020972 Z-0.125000 I0.597032 J8.969811
G03 X26.808516 Y10.016983 Z-0.125000 I0.180445 J3.253138
G03 X26.918721 Y10.015610 Z-0.125000 I0.110206 J4.421208
G03 X27.045393 Y10.018243 Z-0.125000 I0.000000 J3.047611
G03 X27.183305 Y10.026616 Z-0.125000 I-0.150639 J3.621141
G03 X27.320344 Y10.042547 Z-0.125000 I-0.152492 J1.909148
G03 X27.436864 Y10.065224 Z-0.125000 I-0.221801 J1.450340
G03 X27.555499 Y10.099844 Z-0.125000 I-0.225074 J0.991880
G03 X27.651838 Y10.142384 Z-0.125000 I-0.250472 J0.697585
G03 X27.740483 Y10.207900 Z-0.125000 I-0.207444 J0.373407
G03 X27.795154 Y10.280193 Z-0.125000 I-0.200329 J0.208314
G03 X27.839465 Y10.382977 Z-0.125000 I-0.490149 J0.272255
G03 X27.866812 Y10.506196 Z-0.125000 I-0.679365 J0.215418
G03 X27.882437 Y10.638573 Z-0.125000 I-9.692400 J1.211162
G03 X27.894374 Y10.754242 Z-0.125000 I-7.374243 J0.819449
G02 X27.915613 Y10.868824 Z-0.125000 I1.393430 J-0.199025
G02 X27.938471 Y10.947169 Z-0.125000 I0.672346 J-0.153662
G02 X27.985749 Y11.008850 Z-0.125000 I0.133572 J-0.053422
G02 X28.048714 Y11.029832 Z-0.125000 I0.062965 J-0.083986
G02 X28.099018 Y11.012190 Z-0.125000 I0.000000 J-0.080539
G02 X28.158957 Y10.941637 Z-0.125000 I-0.151548 J-0.189488
G02 X28.196678 Y10.855106 Z-0.125000 I-0.313836 J-0.188295
G02 X28.219591 Y10.732172 Z-0.125000 I-0.617000 J-0.178602
G02 X28.207327 Y10.588996 Z-0.125000 I-8.292394 J0.638159
G02 X28.192029 Y10.440044 Z-0.125000 I-9.020466 J0.851195
G02 X28.175401 Y10.292062 Z-0.125000 I-1.957712 J0.145047
G02 X28.147932 Y10.147887 Z-0.125000 I-1.887908 J0.285001
G02 X28.068330 Y9.915892 Z-0.125000 I-0.906125 J0.181253
G02 X27.949494 Y9.751026 Z-0.125000 I-0.567252 J0.283617
G02 X27.793527 Y9.621175 Z-0.125000 I-0.665705 J0.641000
G02 X27.607741 Y9.525023 Z-0.125000 I-0.541883 J0.819463
G02 X27.411311 Y9.461505 Z-0.125000 I-0.566149 J1.415336
G02 X27.188817 Y9.420290 Z-0.125000 I-0.444178 J1.776681
G02 X26.962552 Y9.403702 Z-0.125000 I-0.459850 J4.721087
G02 X26.742333 Y9.398277 Z-0.125000 I-0.220219 J4.466583
G02 X26.577022 Y9.400601 Z-0.125000 I0.000000 J5.880259
G02 X26.350970 Y9.409283 Z-0.125000 I0.309507 J11.005120
G02 X26.126946 Y9.432654 Z-0.125000 I0.099150 J2.035857
G02 X25.904486 Y9.480968 Z-0.125000 I0.330486 J2.058016
G02 X25.697503 Y9.563209 Z-0.125000 I0.410727 J1.335300
G02 X25.513123 Y9.673867 Z-0.125000 I0.576633 J1.169732
G02 X25.374257 Y9.827187 Z-0.125000 I0.361562 J0.467019
G02 X25.281612 Y10.043183 Z-0.125000 I0.645987 J0.404945
G02 X25.243086 Y10.209669 Z-0.125000 I2.490719 J0.664066
G02 X25.215466 Y10.379422 Z-0.125000 I2.560664 J0.503761
G02 X25.203057 Y10.556025 Z-0.125000 I3.780635 J0.354384
G02 X25.198931 Y10.732200 Z-0.125000 I3.758785 J0.176175
G02 X25.211289 Y11.089665 Z-0.125000 I5.175951 J0.000006
G02 X25.248540 Y11.448790 Z-0.125000 I5.260585 J-0.364173
G03 X25.296471 Y11.812815 Z-0.125000 I-39.492634 J5.385134
G03 X25.336735 Y12.143311 Z-0.125000 I-32.509483 J4.128258
G03 X25.350429 Y12.292363 Z-0.125000 I-3.910520 J0.434428
G03 X25.358785 Y12.446502 Z-0.125000 I-4.175800 J0.303672
G02 X25.371297 Y12.606229 Z-0.125000 I8.573284 J-0.591230
G02 X25.386347 Y12.760672 Z-0.125000 I8.016329 J-0.703198
G02 X25.414235 Y12.919262 Z-0.125000 I2.155278 J-0.297264
G02 X25.452492 Y13.069367 Z-0.125000 I1.969012 J-0.421917
G02 X25.508812 Y13.212092 Z-0.125000 I0.839356 J-0.248738
G02 X25.590296 Y13.344985 Z-0.125000 I0.807496 J-0.403691
G02 X25.689039 Y13.454565 Z-0.125000 I0.571572 J-0.415769
G02 X25.810782 Y13.543416 Z-0.125000 I0.493324 J-0.548119
G02 X25.946918 Y13.611569 Z-0.125000 I0.600258 J-1.028956
G02 X26.097414 Y13.664686 Z-0.125000 I0.510707 J-1.207229
G02 X26.253121 Y13.701598 Z-0.125000 I0.484353 J-1.696300
G02 X26.417119 Y13.725308 Z-0.125000 I0.352391 J-1.858442
G02 X26.588334 Y13.742018 Z-0.125000 I0.356532 J-2.767515
G02 X26.747848 Y13.747321 Z-0.125000 I0.159515 J-2.396555
G02 X27.097764 Y13.727410 Z-0.125000 I-0.000000 J-3.084598
G02 X27.326624 Y13.681196 Z-0.125000 I-0.154961 J-1.357200
G02 X27.543515 Y13.597541 Z-0.125000 I-0.392524 J-1.340671
G02 X27.690427 Y13.504808 Z-0.125000 I-0.340155 J-0.701624
G02 X27.818048 Y13.381793 Z-0.125000 I-0.487265 J-0.633222
G02 X27.905400 Y13.245728 Z-0.125000 I-0.511640 J-0.424538
G02 X27.966685 Y13.093448 Z-0.125000 I-1.120550 J-0.539435
G02 X28.010131 Y12.926026 Z-0.125000 I-1.312273 J-0.429886
G02 X28.038759 Y12.759993 Z-0.125000 I-3.108338 J-0.621429
G02 X28.059741 Y12.584255 Z-0.125000 I-3.457094 J-0.501870
G03 X28.081869 Y12.408771 Z-0.125000 I2.754067 J0.258152
G03 X28.114862 Y12.237009 Z-0.125000 I2.669606 J0.423743
G02 X28.113060 Y12.056229 Z-0.125000 I-1.281434 J-0.077626
G02 X28.087300 Y11.895238 Z-0.125000 I-1.039819 J0.083822
G02 X28.023293 Y11.757670 Z-0.125000 I-0.323891 J0.067026
G02 X27.883351 Y11.636186 Z-0.125000 I-0.387573 J0.305117
G00 Z5.000000

(End cutting path id: path3012)


(Start cutting path id: path3010)
(Change tool to Default tool)

G00 Z5.000000
G00 X23.379917 Y12.711170

G01 Z-0.125000 F100.0(Penetrate)
G03 X23.379914 Y12.700164 Z-0.125000 I26.015758 J-0.011020 F400.000000
G03 X23.379917 Y12.689157 Z-0.125000 I26.015760 J0.000013
G01 X23.383762 Y12.682906 Z-0.125000
G01 X23.385428 Y12.672506 Z-0.125000
G03 X23.378840 Y12.699684 Z-0.125000 I-0.342848 J-0.068728
G03 X23.374405 Y12.711114 Z-0.125000 I-0.063963 J-0.018243
G01 X23.376712 Y12.713422 Z-0.125000
G01 X23.379917 Y12.711114 Z-0.125000
G00 Z5.000000

(End cutting path id: path3010)


(Start cutting path id: path3010)
(Change tool to Default tool)

G00 Z5.000000
G00 X21.560906 Y13.846607

G01 Z-0.125000 F100.0(Penetrate)
G02 X21.587909 Y13.752732 Z-0.125000 I-7.947515 J-2.336871 F400.000000
G02 X21.610516 Y13.670218 Z-0.125000 I-6.080112 J-1.710156
G02 X21.636433 Y13.587070 Z-0.125000 I-2.108477 J-0.702826
G02 X21.660125 Y13.499332 Z-0.125000 I-2.319037 J-0.673285
G02 X21.856011 Y13.624457 Z-0.125000 I0.557825 J-0.657399
G02 X22.101097 Y13.703294 Z-0.125000 I0.444035 J-0.960016
G02 X22.361571 Y13.745048 Z-0.125000 I0.541796 J-2.546575
G02 X22.608215 Y13.758412 Z-0.125000 I0.246644 J-2.269270
G02 X22.740408 Y13.755826 Z-0.125000 I0.000000 J-3.378891
G02 X22.889335 Y13.747406 Z-0.125000 I-0.168254 J-4.297347
G02 X23.042388 Y13.733394 Z-0.125000 I-0.049236 J-1.380769
G02 X23.186991 Y13.703323 Z-0.125000 I-0.186206 J-1.258095
G02 X23.325821 Y13.654582 Z-0.125000 I-0.254759 J-0.947734
G02 X23.451575 Y13.587555 Z-0.125000 I-0.371329 J-0.848150
G02 X23.565322 Y13.502302 Z-0.125000 I-0.272021 J-0.481451
G02 X23.661037 Y13.383621 Z-0.125000 I-0.444049 J-0.456055
G02 X23.744047 Y13.211922 Z-0.125000 I-0.910061 J-0.545901
G02 X23.804352 Y13.003270 Z-0.125000 I-1.287602 J-0.485185
G02 X23.845258 Y12.787002 Z-0.125000 I-2.691805 J-0.621135
G02 X23.870498 Y12.556795 Z-0.125000 I-3.024615 J-0.448114
G02 X23.888424 Y12.325022 Z-0.125000 I-6.524459 J-0.621190
G02 X23.898060 Y12.093781 Z-0.125000 I-6.488446 J-0.386206
G03 X23.908410 Y11.862602 Z-0.125000 I5.520622 J0.131328
G03 X23.925622 Y11.674850 Z-0.125000 I3.656635 J0.240561
G03 X24.030517 Y11.098624 Z-0.125000 I5.010607 J0.614462
G03 X24.201229 Y10.539358 Z-0.125000 I4.888786 J1.186580
G03 X24.430802 Y10.003164 Z-0.125000 I7.155344 J2.746334
G03 X24.702835 Y9.481024 Z-0.125000 I7.056587 J3.344529
G02 X24.742852 Y9.383194 Z-0.125000 I-0.319000 J-0.187585
G02 X24.757957 Y9.260524 Z-0.125000 I-0.490786 J-0.122697
G02 X24.747273 Y9.152649 Z-0.125000 I-0.550264 J0.000034
G02 X24.719372 Y9.067597 Z-0.125000 I-0.367825 J0.073560
G02 X24.668807 Y9.003714 Z-0.125000 I-0.159978 J0.074673
G02 X24.614641 Y8.984906 Z-0.125000 I-0.054166 J0.068594
G02 X24.562245 Y9.001585 Z-0.125000 I-0.000000 J0.090635
G02 X24.482349 Y9.078632 Z-0.125000 I0.213488 J0.301333
G02 X24.108177 Y9.740316 Z-0.125000 I6.515073 J4.120807
G02 X23.826403 Y10.385010 Z-0.125000 I5.903051 J2.963951
G02 X23.621848 Y11.055957 Z-0.125000 I5.932963 J2.175467
G02 X23.479138 Y11.801625 Z-0.125000 I7.190707 J1.762693
G02 X23.464909 Y11.917593 Z-0.125000 I2.912555 J0.416216
G02 X23.457088 Y12.016593 Z-0.125000 I2.111902 J0.216652
G03 X23.454261 Y12.121170 Z-0.125000 I-1.939620 J-0.000094
G03 X23.446064 Y12.220555 Z-0.125000 I-1.759382 J-0.095083
G03 X23.437960 Y12.325026 Z-0.125000 I-2.110311 J-0.111145
G03 X23.424014 Y12.435524 Z-0.125000 I-2.373638 J-0.243456
G03 X23.404291 Y12.550647 Z-0.125000 I-2.085370 J-0.298008
G03 X23.374405 Y12.683569 Z-0.125000 I-2.810408 J-0.562083
G02 X23.374402 Y12.689072 Z-0.125000 I6.503940 J0.005497
G02 X23.374405 Y12.705582 Z-0.125000 I58.535455 J0.000184
G01 X23.373262 Y12.725772 Z-0.125000
G03 X23.357869 Y12.749694 Z-0.125000 I-0.062856 J-0.023531
G03 X23.337255 Y12.772822 Z-0.125000 I-0.071496 J-0.042975
G03 X23.286211 Y12.804812 Z-0.125000 I-0.191314 J-0.248546
G03 X23.233606 Y12.830522 Z-0.125000 I-0.122655 J-0.184293
G03 X23.120847 Y12.859930 Z-0.125000 I-0.276059 J-0.827605
G03 X23.043505 Y12.869368 Z-0.125000 I-0.271873 J-1.906258
G03 X22.955482 Y12.876581 Z-0.125000 I-0.229520 J-2.260254
G03 X22.872679 Y12.883537 Z-0.125000 I-0.113021 J-0.849060
G03 X22.795630 Y12.881943 Z-0.125000 I-0.024301 J-0.688387
G01 X22.795630 Y12.876581 Z-0.125000
G03 X22.760193 Y12.871864 Z-0.125000 R1703.541489
G03 X22.712947 Y12.865574 Z-0.125000 R7055.938828
G03 X22.630653 Y12.857170 Z-0.125000 I0.077792 J-1.168796
G03 X22.514510 Y12.837916 Z-0.125000 I0.295974 J-2.145381
G03 X22.399369 Y12.818167 Z-0.125000 I0.292488 J-2.050755
G03 X22.266463 Y12.788302 Z-0.125000 I0.583611 J-2.907831
G03 X22.142011 Y12.754154 Z-0.125000 I0.253245 J-1.166822
G03 X22.051489 Y12.716646 Z-0.125000 I0.218573 J-0.655480
G03 X21.999339 Y12.679130 Z-0.125000 I0.067611 J-0.148989
G03 X21.902661 Y12.556795 Z-0.125000 I0.707095 J-0.658168
G03 X21.838993 Y12.423194 Z-0.125000 I0.466818 J-0.304434
G03 X21.797930 Y12.231562 Z-0.125000 I0.930076 J-0.299514
G02 X21.661889 Y11.387871 Z-0.125000 I-7.460336 J0.770128
G02 X21.439640 Y10.605482 Z-0.125000 I-6.633946 J1.461709
G02 X21.138050 Y9.850605 Z-0.125000 I-7.724785 J2.648539
G02 X20.739597 Y9.078632 Z-0.125000 I-8.476844 J3.886498
G02 X20.655226 Y9.000161 Z-0.125000 I-0.335922 J0.276586
G02 X20.607305 Y8.984906 Z-0.125000 I-0.047921 J0.067639
G02 X20.569168 Y8.996136 Z-0.125000 I0.000000 J0.070369
G02 X20.530135 Y9.034520 Z-0.125000 I0.073135 J0.113410
G02 X20.506836 Y9.080443 Z-0.125000 I0.245690 J0.153521
G02 X20.486038 Y9.144756 Z-0.125000 I0.463617 J0.185451
G02 X20.472405 Y9.211401 Z-0.125000 I0.765624 J0.191332
G02 X20.463988 Y9.282566 Z-0.125000 I0.864600 J0.138343
G02 X20.468748 Y9.359049 Z-0.125000 I0.616751 J0.000003
G02 X20.480523 Y9.414871 Z-0.125000 I0.339112 J-0.042378
G03 X20.620618 Y9.713992 Z-0.125000 I-13.878206 J6.682304
G03 X20.761643 Y10.032232 Z-0.125000 I-15.594235 J7.100779
G03 X20.897293 Y10.360389 Z-0.125000 I-7.031572 J3.098761
G03 X21.015202 Y10.688173 Z-0.125000 I-6.893482 J2.664786
G03 X21.114771 Y11.027183 Z-0.125000 I-5.392290 J1.767874
G03 X21.191591 Y11.366156 Z-0.125000 I-5.310656 J1.381719
G03 X21.245479 Y11.709756 Z-0.125000 I-3.331476 J0.698512
G03 X21.263249 Y12.049670 Z-0.125000 I-3.242456 J0.339930
G03 X21.238720 Y12.437539 Z-0.125000 I-3.079128 J-0.000013
G03 X21.175054 Y12.744219 Z-0.125000 I-1.984139 J-0.251952
G03 X21.084101 Y13.044603 Z-0.125000 I-5.458182 J-1.488717
G03 X20.982129 Y13.322972 Z-0.125000 I-4.786190 J-1.595419
G01 X21.560905 Y13.846635 Z-0.125000
G00 Z5.000000

(End cutting path id: path3010)


(Start cutting path id: path3008)
(Change tool to Default tool)

G00 Z5.000000
G00 X17.410255 Y12.760757

G01 Z-0.125000 F100.0(Penetrate)
G02 X17.363110 Y12.194556 Z-0.125000 I-11.399374 J0.664106 F400.000000
G02 X17.288988 Y11.641802 Z-0.125000 I-10.938451 J1.185464
G02 X17.191503 Y11.097924 Z-0.125000 I-15.925350 J2.573801
G02 X17.074014 Y10.550392 Z-0.125000 I-16.266695 J3.204117
G02 X17.104297 Y10.573517 Z-0.125000 I0.101913 J-0.102069
G02 X17.151184 Y10.594504 Z-0.125000 I0.129270 J-0.225936
G03 X17.421279 Y10.522837 Z-0.125000 I2682.462353 J10049.935295
G03 X17.691375 Y10.451191 Z-0.125000 I572.604390 J2160.843871
G03 X17.961773 Y10.386343 Z-0.125000 I6.796078 J27.741390
G03 X18.231566 Y10.324389 Z-0.125000 I6.601114 J28.127665
G03 X18.475027 Y10.274367 Z-0.125000 I1.322631 J5.819842
G03 X18.711123 Y10.236194 Z-0.125000 I1.004601 J5.464264
G02 X18.953223 Y10.200456 Z-0.125000 I-1.468104 J-10.783126
G02 X19.196193 Y10.159035 Z-0.125000 I-1.752548 J-11.013493
G01 X19.295412 Y10.142384 Z-0.125000
G02 X19.361787 Y10.150542 Z-0.125000 I0.128887 J-0.774494
G02 X19.433215 Y10.153390 Z-0.125000 I0.071429 J-0.894286
G03 X19.504241 Y10.162264 Z-0.125000 I-0.057561 J0.749427
G03 X19.559995 Y10.175404 Z-0.125000 I-0.082353 J0.474286
G03 X19.616231 Y10.203848 Z-0.125000 I-0.089852 J0.247464
G03 X19.659213 Y10.241557 Z-0.125000 I-0.120622 J0.180839
G03 X19.685937 Y10.295227 Z-0.125000 I-0.119753 J0.093115
G03 X19.697799 Y10.384869 Z-0.125000 I-0.332968 J0.089665
G03 X19.696273 Y10.543881 Z-0.125000 I-1.012511 J0.069798
G03 X19.664726 Y10.759688 Z-0.125000 I-1.902253 J-0.167865
G03 X19.610760 Y10.969883 Z-0.125000 I-1.450720 J-0.260433
G03 X19.493849 Y11.266814 Z-0.125000 I-3.019557 J-1.017420
G01 X19.493849 Y11.272176 Z-0.125000
G03 X19.375616 Y11.493541 Z-0.125000 I-3.071157 J-1.498079
G03 X19.240290 Y11.707645 Z-0.125000 I-3.010128 J-1.752754
G03 X19.085239 Y11.906458 Z-0.125000 I-1.151649 J-0.738282
G03 X18.893024 Y12.076961 Z-0.125000 I-1.035021 J-0.973223
G03 X18.807991 Y12.133739 Z-0.125000 I-0.688890 J-0.939647
G03 X18.711123 Y12.187197 Z-0.125000 I-0.707009 J-1.166639
G03 X18.611365 Y12.235685 Z-0.125000 I-2.207698 J-4.415132
G03 X18.512686 Y12.280894 Z-0.125000 I-1.998164 J-4.231167
G02 X18.413994 Y12.326132 Z-0.125000 I1.923224 J4.326055
G02 X18.314248 Y12.374620 Z-0.125000 I2.110089 J4.467499
G02 X18.224005 Y12.434387 Z-0.125000 I0.515161 J0.875869
G02 X18.143372 Y12.501395 Z-0.125000 I0.566888 J0.764181
G01 X18.137364 Y12.505627 Z-0.125000
G01 X18.132348 Y12.506757 Z-0.125000
G01 X18.127454 Y12.512764 Z-0.125000
G02 X18.121324 Y12.523408 Z-0.125000 I0.087843 J0.057667
G02 X18.092608 Y12.532402 Z-0.125000 I-0.000000 J0.050340
G02 X18.049666 Y12.573023 Z-0.125000 I0.112400 J0.161830
G02 X18.018285 Y12.629030 Z-0.125000 I0.925092 J0.555126
G02 X17.983520 Y12.699797 Z-0.125000 I1.436575 J0.749651
G02 X17.958875 Y12.777779 Z-0.125000 I1.042991 J0.372513
G02 X17.939423 Y12.859648 Z-0.125000 I1.129845 J0.311693
G02 X17.926530 Y12.942686 Z-0.125000 I0.949542 J0.189957
G02 X17.922888 Y13.008492 Z-0.125000 I0.592012 J0.065768
G02 X17.952333 Y13.209134 Z-0.125000 I0.698240 J0.000013
G02 X18.038643 Y13.394318 Z-0.125000 I0.678573 J-0.203564
G02 X18.174660 Y13.561773 Z-0.125000 I0.954246 J-0.636125
G02 X18.341811 Y13.703012 Z-0.125000 I0.841884 J-0.826812
G03 X18.425818 Y13.768071 Z-0.125000 I-0.530595 J0.771894
G03 X18.468591 Y13.813248 Z-0.125000 I-0.210711 J0.242333
G03 X18.510664 Y13.864458 Z-0.125000 I-0.639083 J0.567955
G03 X18.589858 Y13.973099 Z-0.125000 I-2.802895 J2.126357
G03 X18.482231 Y14.027069 Z-0.125000 I-0.503938 J-0.870654
G03 X18.358348 Y14.072328 Z-0.125000 I-0.475555 J-1.109510
G03 X18.235613 Y14.110920 Z-0.125000 I-0.500529 J-1.377383
G03 X18.110301 Y14.138481 Z-0.125000 I-0.373930 J-1.401492
G03 X17.988569 Y14.156486 Z-0.125000 I-0.335874 J-1.850322
G03 X17.867766 Y14.166139 Z-0.125000 I-0.200715 J-1.751182
G03 X17.751891 Y14.174688 Z-0.125000 I-0.260030 J-2.734776
G03 X17.658304 Y14.177146 Z-0.125000 I-0.093586 J-1.780989
G01 X17.651846 Y14.179816 Z-0.125000
G03 X17.614207 Y14.177146 Z-0.125000 I0.000000 J-0.266547
G03 X17.575659 Y14.175606 Z-0.125000 I-0.000000 J-0.483285
G03 X17.526013 Y14.171501 Z-0.125000 I0.751829 J-9.395791
G03 X17.482103 Y14.164832 Z-0.125000 I0.103454 J-0.829020
G03 X17.432306 Y14.154850 Z-0.125000 I0.218379 J-1.218640
G03 X17.388479 Y14.148143 Z-0.125000 I0.099080 J-0.793959
G03 X17.371673 Y14.143843 Z-0.125000 I0.021875 J-0.120507
G02 X17.379837 Y14.082929 Z-0.125000 I-0.650142 J-0.118142
G02 X17.382696 Y14.017069 Z-0.125000 I-0.758170 J-0.065908
G03 X17.388208 Y13.956413 Z-0.125000 I388.181892 J35.127893
G02 X17.393720 Y13.895798 Z-0.125000 I-2513.297592 J-223.769366
G01 X17.393720 Y13.890154 Z-0.125000
G03 X17.399864 Y13.757863 Z-0.125000 I13.730185 J0.571432
G03 X17.404743 Y13.675157 Z-0.125000 I5.377274 J0.275729
G02 X17.413327 Y13.592310 Z-0.125000 I-1.408636 J-0.187818
G02 X17.415767 Y13.526341 Z-0.125000 I-0.890649 J-0.065969
G02 X17.419900 Y13.460131 Z-0.125000 I-1.596919 J-0.132923
G02 X17.421279 Y13.394035 Z-0.125000 I-1.588673 J-0.066198
G02 X17.425157 Y13.333334 Z-0.125000 I-1.130568 J-0.102714
G02 X17.426791 Y13.245220 Z-0.125000 I-2.382370 J-0.088229
G02 X17.422564 Y12.997301 Z-0.125000 I-7.278976 J0.000087
G02 X17.410255 Y12.760136 Z-0.125000 I-6.676053 J0.227596
G00 Z5.000000

(End cutting path id: path3008)


(Start cutting path id: path3008)
(Change tool to Default tool)

G00 Z5.000000
G00 X15.640854 Y8.400028

G01 Z-0.125000 F100.0(Penetrate)
G02 X15.658618 Y8.454731 Z-0.125000 I1.222436 J-0.366731 F400.000000
G02 X15.679439 Y8.510293 Z-0.125000 I1.271811 J-0.444921
G02 X15.702077 Y8.559593 Z-0.125000 I2.069773 J-0.920528
G02 X15.729049 Y8.614997 Z-0.125000 I2.620464 J-1.241442
G01 X15.977095 Y9.243393 Z-0.125000
G03 X16.112615 Y9.604422 Z-0.125000 I-8.370157 J3.347865
G03 X16.230655 Y9.965487 Z-0.125000 I-8.244394 J2.895084
G02 X16.349304 Y10.333845 Z-0.125000 I23.433955 J-7.344842
G02 X16.473189 Y10.698616 Z-0.125000 I23.102575 J-7.642824
G01 X16.473189 Y10.703978 Z-0.125000
G03 X16.584317 Y11.162544 Z-0.125000 I-22.730380 J5.751141
G03 X16.682651 Y11.607964 Z-0.125000 I-21.348463 J4.946624
G03 X16.771569 Y12.056253 Z-0.125000 I-9.761647 J2.169192
G03 X16.842504 Y12.522985 Z-0.125000 I-10.508508 J1.835846
G03 X16.864580 Y12.738374 Z-0.125000 I-4.233644 J0.542753
G03 X16.875576 Y12.952922 Z-0.125000 I-4.190049 J0.322313
G03 X16.883811 Y13.167976 Z-0.125000 I-8.289738 J0.425098
G03 X16.886600 Y13.388391 Z-0.125000 I-8.707683 J0.220415
G03 X16.882349 Y13.581111 Z-0.125000 I-4.373306 J-0.000048
G03 X16.870065 Y13.763210 Z-0.125000 I-3.918537 J-0.172891
G02 X16.857891 Y13.945308 Z-0.125000 I3.799163 J0.345435
G02 X16.853529 Y14.149064 Z-0.125000 I4.752189 J0.203658
G02 X16.860501 Y14.302779 Z-0.125000 I1.697511 J0.000023
G02 X16.881091 Y14.452228 Z-0.125000 I1.624884 J-0.147722
G02 X16.921536 Y14.601637 Z-0.125000 I0.870113 J-0.155360
G02 X16.980310 Y14.722342 Z-0.125000 I0.624369 J-0.229355
G02 X17.070264 Y14.829873 Z-0.125000 I0.456732 J-0.290688
G02 X17.189772 Y14.915261 Z-0.125000 I0.402491 J-0.436993
G02 X17.327364 Y14.965982 Z-0.125000 I0.244672 J-0.451749
G02 X17.526013 Y14.986917 Z-0.125000 I0.198688 J-0.932347
G02 X17.586643 Y14.989663 Z-0.125000 I0.060630 J-0.667963
G02 X17.647280 Y14.986917 Z-0.125000 I-0.000000 J-0.670858
G02 X17.707853 Y14.985489 Z-0.125000 I-0.000180 J-1.292506
G02 X17.768548 Y14.981414 Z-0.125000 I-0.071443 J-1.518244
G02 X18.031480 Y14.944649 Z-0.125000 I-0.391460 J-3.758206
G02 X18.270154 Y14.893220 Z-0.125000 I-0.554003 J-3.150538
G02 X18.500389 Y14.821433 Z-0.125000 I-0.370861 J-1.594530
G02 X18.689077 Y14.727854 Z-0.125000 I-0.458529 J-1.161582
G02 X18.853570 Y14.600112 Z-0.125000 I-0.468540 J-0.773120
G02 X18.975709 Y14.446733 Z-0.125000 I-0.561506 J-0.572456
G02 X19.054686 Y14.271907 Z-0.125000 I-0.489703 J-0.326474
G02 X19.085952 Y14.033334 Z-0.125000 I-0.894722 J-0.238592
G02 X19.067447 Y13.843862 Z-0.125000 I-0.979506 J0.000026
G02 X19.008782 Y13.641948 Z-0.125000 I-1.172706 J0.231243
G02 X18.952896 Y13.501655 Z-0.125000 I-1.559359 J0.539902
G02 X18.904051 Y13.410441 Z-0.125000 I-0.706395 J0.319584
G02 X18.844551 Y13.325734 Z-0.125000 I-0.818586 J0.511744
G02 X18.782784 Y13.256122 Z-0.125000 I-0.612576 J0.481331
G02 X18.720258 Y13.197614 Z-0.125000 I-0.907047 J0.906674
G02 X18.650492 Y13.140354 Z-0.125000 I-0.941678 J1.076220
G03 X18.586461 Y13.088303 Z-0.125000 I0.634189 J-0.845555
G03 X18.512688 Y13.019083 Z-0.125000 I1.045888 J-1.188616
G02 X18.606079 Y12.968891 Z-0.125000 I-4.010824 J-7.574845
G02 X18.694589 Y12.919882 Z-0.125000 I-3.810387 J-6.985949
G03 X18.788848 Y12.871361 Z-0.125000 I2.143945 J4.049020
G03 X18.915076 Y12.809618 Z-0.125000 I3.528671 J7.054187
G02 X19.171959 Y12.632357 Z-0.125000 I-0.624466 J-1.179733
G02 X19.416681 Y12.368646 Z-0.125000 I-1.171744 J-1.332775
G02 X19.622316 Y12.069840 Z-0.125000 I-2.196469 J-1.731742
G02 X19.791508 Y11.740278 Z-0.125000 I-2.504051 J-1.493753
G02 X19.927164 Y11.392355 Z-0.125000 I-3.248876 J-1.467157
G02 X20.023018 Y11.040226 Z-0.125000 I-3.233862 J-1.069409
G02 X20.078502 Y10.680246 Z-0.125000 I-3.009801 J-0.648171
G02 X20.083652 Y10.395292 Z-0.125000 I-1.876647 J-0.176438
G02 X20.083134 Y10.362276 Z-0.125000 I-1.066901 J0.000233
G02 X20.078140 Y10.218903 Z-0.125000 I-19.656336 J0.612849
G02 X20.065676 Y10.083202 Z-0.125000 I-0.745355 J0.000037
G02 X20.023019 Y9.921271 Z-0.125000 I-1.106899 J0.205007
G02 X19.955236 Y9.778272 Z-0.125000 I-0.573996 J0.184516
G02 X19.841118 Y9.640150 Z-0.125000 I-0.648402 J0.419510
G02 X19.699303 Y9.556322 Z-0.125000 I-0.250428 J0.261787
G02 X19.455267 Y9.518879 Z-0.125000 I-0.244036 J0.776540
G02 X19.373005 Y9.522941 Z-0.125000 I0.000000 J0.835029
G02 X19.289903 Y9.535530 Z-0.125000 I0.080156 J0.809688
G01 X19.273367 Y9.535530 Z-0.125000
G02 X19.196196 Y9.552046 Z-0.125000 I87.059437 J406.954282
G02 X19.119027 Y9.568606 Z-0.125000 I18.575671 J86.751493
G03 X19.047070 Y9.583608 Z-0.125000 I-0.395051 J-1.714764
G03 X18.970199 Y9.596264 Z-0.125000 I-0.332883 J-1.782176
G02 X18.504378 Y9.675939 Z-0.125000 I1.135164 J8.038256
G02 X18.038645 Y9.783688 Z-0.125000 I1.634843 J8.126888
G02 X17.582607 Y9.910030 Z-0.125000 I5.404567 J20.394260
G02 X17.123627 Y10.048271 Z-0.125000 I6.013620 J20.797093
G02 X17.107616 Y10.050510 Z-0.125000 I0.000000 J0.058367
G02 X17.085043 Y10.059278 Z-0.125000 I0.035929 J0.125947
G01 X17.085043 Y10.070284 Z-0.125000
G02 X17.030982 Y10.138203 Z-0.125000 I0.187914 J0.205046
G02 X16.991336 Y10.235638 Z-0.125000 I0.355329 J0.201366
G02 X16.825354 Y9.632757 Z-0.125000 I-15.616062 J3.975025
G02 X16.638558 Y9.045028 Z-0.125000 I-15.032069 J4.454048
G02 X16.435235 Y8.462493 Z-0.125000 I-34.741708 J11.799217
G02 X16.219634 Y7.876458 Z-0.125000 I-35.374384 J12.681451
G01 X16.214123 Y7.881820 Z-0.125000
G02 X16.201002 Y7.838492 Z-0.125000 I-0.447069 J0.111724
G02 X16.186561 Y7.804661 Z-0.125000 I-0.287448 J0.102707
G03 X16.171682 Y7.765551 Z-0.125000 I0.457713 J-0.196515
G03 X16.158999 Y7.721970 Z-0.125000 I0.562157 J-0.187236
G01 X15.640856 Y8.399952 Z-0.125000
G00 Z5.000000

(End cutting path id: path3008)


(Start cutting path id: path3006)
(Change tool to Default tool)

G00 Z5.000000
G00 X12.824144 Y12.352861

G01 Z-0.125000 F100.0(Penetrate)
G03 X12.820110 Y12.319705 Z-0.125000 I0.371705 J-0.062046 F400.000000
G03 X12.818632 Y12.281205 Z-0.125000 I0.500724 J-0.038501
G02 X12.817457 Y12.248228 Z-0.125000 I-0.463950 J0.000018
G02 X12.813120 Y12.204045 Z-0.125000 I-0.830239 J0.059194
G03 X12.895977 Y12.195686 Z-0.125000 I0.172820 J1.298203
G03 X12.972973 Y12.193039 Z-0.125000 I0.076996 J1.118232
G01 X13.132825 Y12.193039 Z-0.125000
G03 X13.479339 Y12.204288 Z-0.125000 I-0.000000 J5.342305
G03 X13.810820 Y12.237150 Z-0.125000 I-0.318685 J4.902907
G02 X14.147346 Y12.278769 Z-0.125000 I3.028542 J-23.107219
G02 X14.521888 Y12.319813 Z-0.125000 I3.286325 J-28.259350
G03 X14.517862 Y12.435308 Z-0.125000 I-1.660216 J-0.000055
G03 X14.505352 Y12.556851 Z-0.125000 I-1.852474 J-0.129244
G03 X14.475829 Y12.669794 Z-0.125000 I-0.353950 J-0.032194
G03 X14.411645 Y12.766317 Z-0.125000 I-0.319874 J-0.143100
G03 X14.281164 Y12.814958 Z-0.125000 I-0.337190 J-0.705196
G03 X14.069892 Y12.860014 Z-0.125000 I-0.496912 J-1.812168
G03 X13.854032 Y12.888634 Z-0.125000 I-0.422230 J-2.356229
G03 X13.623408 Y12.898594 Z-0.125000 I-0.230625 J-2.665135
G03 X13.414964 Y12.888439 Z-0.125000 I-0.000000 J-2.144349
G03 X13.226533 Y12.860014 Z-0.125000 I0.176968 J-1.811923
G03 X13.047508 Y12.808392 Z-0.125000 I0.152289 J-0.864365
G03 X12.928876 Y12.738744 Z-0.125000 I0.181194 J-0.444485
G03 X12.890805 Y12.659266 Z-0.125000 I0.528793 J-0.302163
G03 X12.868243 Y12.584396 Z-0.125000 I0.446333 J-0.175336
G02 X12.854877 Y12.507686 Z-0.125000 I-1.261026 J0.180196
G02 X12.829658 Y12.397001 Z-0.125000 I-2.653910 J0.546467
G01 X12.829658 Y12.369343 Z-0.125000
G01 X12.828473 Y12.364331 Z-0.125000
G01 X12.824146 Y12.358336 Z-0.125000
G03 X12.824146 Y12.355514 Z-0.125000 I9.407408 J-0.002858
G03 X12.824146 Y12.352692 Z-0.125000 I9.407408 J0.000036
G00 Z5.000000

(End cutting path id: path3006)


(Start cutting path id: path3006)
(Change tool to Default tool)

G00 Z5.000000
G00 X14.896715 Y11.636130

G01 Z-0.125000 F100.0(Penetrate)
G02 X14.510326 Y11.591830 Z-0.125000 I-1.806321 J14.047799 F400.000000
G02 X14.130526 Y11.558942 Z-0.125000 I-1.360699 J13.504240
G02 X13.749937 Y11.538227 Z-0.125000 I-0.770601 J10.651431
G02 X13.369849 Y11.531284 Z-0.125000 I-0.380088 J10.400583
G02 X13.210006 Y11.532983 Z-0.125000 I-0.000000 J7.519695
G02 X13.044632 Y11.536646 Z-0.125000 I1.977692 J93.017706
G02 X12.884849 Y11.543592 Z-0.125000 I0.304665 J8.849505
G02 X12.724927 Y11.553297 Z-0.125000 I0.516474 J9.833075
G03 X12.698575 Y11.327153 Z-0.125000 I21.136976 J-2.577690
G03 X12.675318 Y11.106822 Z-0.125000 I20.033634 J-2.226020
G03 X12.662962 Y10.891678 Z-0.125000 I5.532678 J-0.425683
G03 X12.658783 Y10.671353 Z-0.125000 I5.799837 J-0.220214
G01 X12.658783 Y10.505999 Z-0.125000
G03 X12.661441 Y10.423474 Z-0.125000 I1.281703 J-0.000020
G03 X12.669806 Y10.335113 Z-0.125000 I1.477629 J0.095315
G03 X12.745914 Y10.246936 Z-0.125000 I0.391453 J0.260937
G03 X12.840683 Y10.180766 Z-0.125000 I0.310501 J0.343752
G03 X12.953119 Y10.131385 Z-0.125000 I0.551620 J1.103294
G03 X13.072194 Y10.092572 Z-0.125000 I0.455828 J1.196359
G03 X13.199582 Y10.069065 Z-0.125000 I0.439559 J2.025182
G03 X13.325753 Y10.053992 Z-0.125000 I0.296290 J1.944474
G02 X13.452480 Y10.042466 Z-0.125000 I-1.342402 J-15.462091
G02 X13.557263 Y10.031978 Z-0.125000 I-1.006181 J-10.581821
G03 X13.623444 Y10.027023 Z-0.125000 I0.332506 J3.996318
G03 X13.722628 Y10.020972 Z-0.125000 I0.597032 J8.969811
G03 X13.821884 Y10.016983 Z-0.125000 I0.180445 J3.253138
G03 X13.932089 Y10.015610 Z-0.125000 I0.110206 J4.421208
G03 X14.058761 Y10.018243 Z-0.125000 I0.000000 J3.047611
G03 X14.196673 Y10.026616 Z-0.125000 I-0.150639 J3.621141
G03 X14.333712 Y10.042547 Z-0.125000 I-0.152492 J1.909148
G03 X14.450232 Y10.065224 Z-0.125000 I-0.221801 J1.450340
G03 X14.568867 Y10.099844 Z-0.125000 I-0.225074 J0.991880
G03 X14.665206 Y10.142384 Z-0.125000 I-0.250472 J0.697585
G03 X14.753851 Y10.207900 Z-0.125000 I-0.207444 J0.373407
G03 X14.808522 Y10.280193 Z-0.125000 I-0.200329 J0.208314
G03 X14.852833 Y10.382977 Z-0.125000 I-0.490149 J0.272255
G03 X14.880180 Y10.506196 Z-0.125000 I-0.679365 J0.215418
G03 X14.895805 Y10.638573 Z-0.125000 I-9.692400 J1.211162
G03 X14.907742 Y10.754242 Z-0.125000 I-7.374243 J0.819449
G02 X14.928982 Y10.868825 Z-0.125000 I1.393089 J-0.198976
G02 X14.951839 Y10.947169 Z-0.125000 I0.672731 J-0.153764
G02 X14.999117 Y11.008850 Z-0.125000 I0.133572 J-0.053422
G02 X15.062082 Y11.029832 Z-0.125000 I0.062965 J-0.083986
G02 X15.112386 Y11.012190 Z-0.125000 I0.000000 J-0.080539
G02 X15.172325 Y10.941637 Z-0.125000 I-0.151548 J-0.189488
G02 X15.210046 Y10.855106 Z-0.125000 I-0.313836 J-0.188295
G02 X15.232959 Y10.732172 Z-0.125000 I-0.617000 J-0.178602
G02 X15.220695 Y10.588996 Z-0.125000 I-8.292394 J0.638159
G02 X15.205397 Y10.440044 Z-0.125000 I-9.020466 J0.851195
G02 X15.188769 Y10.292062 Z-0.125000 I-1.957712 J0.145047
G02 X15.161300 Y10.147887 Z-0.125000 I-1.887908 J0.285001
G02 X15.081698 Y9.915892 Z-0.125000 I-0.906125 J0.181253
G02 X14.962862 Y9.751026 Z-0.125000 I-0.567252 J0.283617
G02 X14.806895 Y9.621175 Z-0.125000 I-0.665705 J0.641000
G02 X14.621109 Y9.525023 Z-0.125000 I-0.541883 J0.819463
G02 X14.424679 Y9.461505 Z-0.125000 I-0.566149 J1.415336
G02 X14.202185 Y9.420290 Z-0.125000 I-0.444178 J1.776681
G02 X13.975920 Y9.403702 Z-0.125000 I-0.459850 J4.721087
G02 X13.755701 Y9.398277 Z-0.125000 I-0.220219 J4.466583
G02 X13.590390 Y9.400601 Z-0.125000 I0.000000 J5.880259
G02 X13.364338 Y9.409283 Z-0.125000 I0.309507 J11.005120
G02 X13.140314 Y9.432654 Z-0.125000 I0.099150 J2.035857
G02 X12.917854 Y9.480968 Z-0.125000 I0.330486 J2.058016
G02 X12.710871 Y9.563209 Z-0.125000 I0.410727 J1.335300
G02 X12.526491 Y9.673867 Z-0.125000 I0.576633 J1.169732
G02 X12.387625 Y9.827187 Z-0.125000 I0.361562 J0.467019
G02 X12.294980 Y10.043183 Z-0.125000 I0.645987 J0.404945
G02 X12.256454 Y10.209669 Z-0.125000 I2.490719 J0.664066
G02 X12.228834 Y10.379422 Z-0.125000 I2.560664 J0.503761
G02 X12.216425 Y10.556025 Z-0.125000 I3.780635 J0.354384
G02 X12.212299 Y10.732200 Z-0.125000 I3.758785 J0.176175
G02 X12.224657 Y11.089665 Z-0.125000 I5.175951 J0.000006
G02 X12.261908 Y11.448790 Z-0.125000 I5.260585 J-0.364173
G03 X12.309839 Y11.812815 Z-0.125000 I-39.492634 J5.385134
G03 X12.350103 Y12.143311 Z-0.125000 I-32.509483 J4.128258
G03 X12.363797 Y12.292363 Z-0.125000 I-3.910520 J0.434428
G03 X12.372153 Y12.446502 Z-0.125000 I-4.175800 J0.303672
G02 X12.384665 Y12.606229 Z-0.125000 I8.573284 J-0.591230
G02 X12.399714 Y12.760672 Z-0.125000 I8.016329 J-0.703198
G02 X12.427603 Y12.919262 Z-0.125000 I2.155278 J-0.297264
G02 X12.465860 Y13.069367 Z-0.125000 I1.969012 J-0.421917
G02 X12.522180 Y13.212092 Z-0.125000 I0.839356 J-0.248738
G02 X12.603664 Y13.344985 Z-0.125000 I0.807496 J-0.403691
G02 X12.702407 Y13.454565 Z-0.125000 I0.571572 J-0.415769
G02 X12.824150 Y13.543416 Z-0.125000 I0.493324 J-0.548119
G02 X12.960286 Y13.611569 Z-0.125000 I0.600258 J-1.028956
G02 X13.110782 Y13.664686 Z-0.125000 I0.510707 J-1.207229
G02 X13.266489 Y13.701598 Z-0.125000 I0.484353 J-1.696300
G02 X13.430487 Y13.725308 Z-0.125000 I0.352391 J-1.858442
G02 X13.601702 Y13.742018 Z-0.125000 I0.356532 J-2.767515
G02 X13.761216 Y13.747321 Z-0.125000 I0.159515 J-2.396555
G02 X14.111132 Y13.727410 Z-0.125000 I0.000000 J-3.084598
G02 X14.339992 Y13.681196 Z-0.125000 I-0.154961 J-1.357200
G02 X14.556883 Y13.597541 Z-0.125000 I-0.392524 J-1.340671
G02 X14.703795 Y13.504808 Z-0.125000 I-0.340155 J-0.701624
G02 X14.831416 Y13.381793 Z-0.125000 I-0.487265 J-0.633222
G02 X14.918768 Y13.245728 Z-0.125000 I-0.511640 J-0.424538
G02 X14.980053 Y13.093448 Z-0.125000 I-1.120550 J-0.539435
G02 X15.023499 Y12.926026 Z-0.125000 I-1.312273 J-0.429886
G02 X15.052127 Y12.759993 Z-0.125000 I-3.108338 J-0.621429
G02 X15.073109 Y12.584255 Z-0.125000 I-3.457094 J-0.501870
G03 X15.095237 Y12.408771 Z-0.125000 I2.754067 J0.258152
G03 X15.128230 Y12.237009 Z-0.125000 I2.669606 J0.423743
G02 X15.126428 Y12.056229 Z-0.125000 I-1.281434 J-0.077626
G02 X15.100668 Y11.895238 Z-0.125000 I-1.039819 J0.083822
G02 X15.036661 Y11.757670 Z-0.125000 I-0.323891 J0.067026
G02 X14.896719 Y11.636186 Z-0.125000 I-0.387573 J0.305117
G00 Z5.000000

(End cutting path id: path3006)


(Start cutting path id: path3004)
(Change tool to Default tool)

G00 Z5.000000
G00 X11.280741 Y8.891236

G01 Z-0.125000 F100.0(Penetrate)
G02 X11.032092 Y9.329424 Z-0.125000 I19.547919 J11.382088 F400.000000
G02 X10.790160 Y9.778684 Z-0.125000 I20.256552 J11.198187
G02 X10.563798 Y10.241130 Z-0.125000 I10.033201 J5.197742
G02 X10.360212 Y10.710243 Z-0.125000 I10.110877 J4.666670
G02 X10.180912 Y11.194422 Z-0.125000 I8.602689 J3.461018
G02 X10.029483 Y11.685914 Z-0.125000 I8.716381 J2.954600
G02 X9.913175 Y12.186066 Z-0.125000 I5.823669 J1.617865
G02 X9.836557 Y12.711170 Z-0.125000 I6.345233 J1.193968
G02 X9.825531 Y12.788309 Z-0.125000 I474.283781 J67.771085
G02 X9.814507 Y12.865490 Z-0.125000 I1022.015339 J146.313106
G02 X9.810321 Y12.948211 Z-0.125000 I2.566446 J0.171359
G02 X9.808995 Y13.025340 Z-0.125000 I2.229769 J0.076884
G01 X9.808995 Y13.041991 Z-0.125000
G03 X9.580671 Y12.282851 Z-0.125000 I20.271795 J-6.511010
G03 X9.379047 Y11.509638 Z-0.125000 I20.834890 J-5.845799
G02 X9.187435 Y10.734935 Z-0.125000 I-30.917632 J7.236006
G02 X8.976660 Y9.966221 Z-0.125000 I-30.662626 J7.994181
G02 X8.860597 Y9.780996 Z-0.125000 I-0.545630 J0.212922
G02 X8.767198 Y9.740217 Z-0.125000 I-0.093398 J0.086567
G02 X8.670063 Y9.782628 Z-0.125000 I-0.000000 J0.132441
G02 X8.557737 Y9.966221 Z-0.125000 I0.400465 J0.371173
G02 X8.422082 Y10.413359 Z-0.125000 I46.378570 J14.314651
G02 X8.293153 Y10.853668 Z-0.125000 I44.924434 J13.393540
G02 X8.169286 Y11.295452 Z-0.125000 I33.463600 J9.620761
G02 X8.050619 Y11.741144 Z-0.125000 I33.941330 J9.275683
G02 X7.947171 Y12.154847 Z-0.125000 I66.514834 J16.852059
G02 X7.841157 Y12.590012 Z-0.125000 I73.489428 J18.133843
G03 X7.730636 Y13.027801 Z-0.125000 I-8.488224 J-1.910030
G03 X7.598622 Y13.455419 Z-0.125000 I-8.224779 J-2.304962
G01 X7.598622 Y13.438768 Z-0.125000
G01 X7.596995 Y13.442572 Z-0.125000
G01 X7.593110 Y13.444130 Z-0.125000
G02 X7.593109 Y13.446952 Z-0.125000 I4.031746 J0.002820
G02 X7.593110 Y13.449774 Z-0.125000 I4.031747 J0.000003
G02 X7.568184 Y12.983077 Z-0.125000 I-5.620223 J0.066165
G02 X7.504916 Y12.523718 Z-0.125000 I-5.507131 J0.524466
G02 X7.412761 Y12.069781 Z-0.125000 I-6.884283 J1.161276
G02 X7.289942 Y11.619732 Z-0.125000 I-6.889474 J1.638363
G02 X7.140776 Y11.182967 Z-0.125000 I-8.400495 J2.625112
G02 X6.964725 Y10.743291 Z-0.125000 I-8.695736 J3.226787
G02 X6.775576 Y10.316718 Z-0.125000 I-12.558136 J5.313244
G02 X6.573362 Y9.899927 Z-0.125000 I-12.190387 J5.656938
G03 X6.556828 Y9.866883 Z-0.125000 I38.509886 J-19.289537
G02 X6.540289 Y9.833802 Z-0.125000 I-148.935748 J74.442279
G03 X6.524861 Y9.805698 Z-0.125000 I0.352020 J-0.211537
G03 X6.512727 Y9.778656 Z-0.125000 I0.321504 J-0.160498
G03 X6.474872 Y9.706648 Z-0.125000 I3.532351 J-1.902918
G03 X6.402484 Y9.563687 Z-0.125000 I13.860562 J-7.108119
G02 X6.333133 Y9.427618 Z-0.125000 I-2.892144 J1.388336
G02 X6.253656 Y9.288097 Z-0.125000 I-3.120188 J1.685009
G02 X6.169767 Y9.155184 Z-0.125000 I-1.303606 J0.729847
G02 X6.093803 Y9.062094 Z-0.125000 I-0.713499 J0.504689
G02 X6.010782 Y8.995941 Z-0.125000 I-0.197327 J0.162472
G02 X5.961512 Y8.995941 Z-0.125000 I-0.024635 J0.049273
G02 X5.913438 Y9.055713 Z-0.125000 I0.251378 J0.251395
G02 X5.873317 Y9.133750 Z-0.125000 I0.392201 J0.250974
G02 X5.854793 Y9.217948 Z-0.125000 I0.245156 J0.098075
G02 X5.862294 Y9.343215 Z-0.125000 I0.558691 J0.029402
G03 X5.875905 Y9.377163 Z-0.125000 I-0.197395 J0.098849
G03 X5.884344 Y9.414871 Z-0.125000 I-0.236261 J0.072669
G02 X5.894402 Y9.451464 Z-0.125000 I0.149310 J-0.021363
G02 X5.911906 Y9.481024 Z-0.125000 I0.113464 J-0.047222
G03 X6.150578 Y9.940479 Z-0.125000 I-27.352947 J14.500707
G03 X6.385951 Y10.412555 Z-0.125000 I-28.600092 J14.554459
G03 X6.609855 Y10.892288 Z-0.125000 I-8.781113 J4.390502
G03 X6.804874 Y11.377191 Z-0.125000 I-8.773196 J3.810092
G03 X6.969134 Y11.872930 Z-0.125000 I-6.977529 J2.587044
G03 X7.097019 Y12.374903 Z-0.125000 I-7.021888 J2.056195
G03 X7.183493 Y12.885306 Z-0.125000 I-4.461996 J1.018493
G03 X7.212774 Y13.411166 Z-0.125000 I-4.707760 J0.525883
G03 X7.210071 Y13.554393 Z-0.125000 I-3.799458 J-0.000067
G03 X7.201750 Y13.703323 Z-0.125000 I-4.120648 J-0.155519
G03 X7.192007 Y13.851736 Z-0.125000 I-2.607762 J-0.096669
G03 X7.174188 Y13.995451 Z-0.125000 I-2.460585 J-0.232118
G03 X7.171554 Y14.016863 Z-0.125000 I-0.088415 J-0.000009
G03 X7.163165 Y14.039562 Z-0.125000 I-0.107605 J-0.026871
G02 X7.159014 Y14.061751 Z-0.125000 I0.180815 J0.045308
G02 X7.157653 Y14.083645 Z-0.125000 I0.174895 J0.021860
G01 X7.157653 Y14.100296 Z-0.125000
G02 X7.143580 Y14.134245 Z-0.125000 I0.230318 J0.115366
G02 X7.124580 Y14.199526 Z-0.125000 I0.841086 J0.280204
G03 X7.111479 Y14.270761 Z-0.125000 I-1.225861 J-0.188622
G03 X7.091507 Y14.353873 Z-0.125000 I-1.688159 J-0.361721
G03 X7.071131 Y14.440976 Z-0.125000 I-0.990788 J-0.185838
G03 X7.041898 Y14.530262 Z-0.125000 I-1.071013 J-0.301237
G03 X7.008681 Y14.621460 Z-0.125000 I-0.737748 J-0.217057
G03 X6.964728 Y14.706651 Z-0.125000 I-0.687854 J-0.300958
G01 X6.970240 Y14.717658 Z-0.125000
G03 X6.967740 Y14.750357 Z-0.125000 I-0.215330 J-0.000014
G03 X6.959216 Y14.789328 Z-0.125000 I-0.313989 J-0.048261
G02 X6.956471 Y14.827941 Z-0.125000 I0.270175 J0.038613
G02 X6.959216 Y14.877522 Z-0.125000 I0.449090 J-0.000000
G02 X6.963314 Y14.954249 Z-0.125000 I0.720034 J0.000016
G02 X6.975751 Y15.031861 Z-0.125000 I0.749531 J-0.080311
G02 X7.003051 Y15.112165 Z-0.125000 I0.611206 J-0.162988
G02 X7.030873 Y15.164153 Z-0.125000 I0.282168 J-0.117569
G02 X7.075425 Y15.201550 Z-0.125000 I0.109403 J-0.085099
G02 X7.124580 Y15.213765 Z-0.125000 I0.049178 J-0.092892
G02 X7.180334 Y15.204141 Z-0.125000 I0.009894 J-0.109002
G02 X7.267895 Y15.147617 Z-0.125000 I-0.155510 J-0.336983
G03 X7.279694 Y15.126110 Z-0.125000 I0.286998 J0.143444
G01 X7.284431 Y15.120044 Z-0.125000
G03 X7.289155 Y15.124770 Z-0.125000 I-4.609198 J4.612747
G03 X7.295454 Y15.131079 Z-0.125000 I-19.801190 J19.775799
G01 X7.299363 Y15.119666 Z-0.125000
G02 X7.300966 Y15.103506 Z-0.125000 I-0.080864 J-0.016181
G01 X7.302287 Y15.092777 Z-0.125000
G03 X7.306478 Y15.081465 Z-0.125000 I0.053435 J0.013367
G02 X7.586845 Y14.611816 Z-0.125000 I-4.849150 J-3.213318
G02 X7.813596 Y14.133364 Z-0.125000 I-4.806334 J-2.570806
G02 X8.003105 Y13.637750 Z-0.125000 I-8.511611 J-3.538643
G02 X8.166374 Y13.124646 Z-0.125000 I-8.960413 J-3.133710
G02 X8.314883 Y12.604904 Z-0.125000 I-23.194760 J-6.908665
G02 X8.453006 Y12.077347 Z-0.125000 I-23.729557 J-6.494649
G03 X8.591699 Y11.549948 Z-0.125000 I21.715674 J5.428745
G03 X8.745150 Y11.019014 Z-0.125000 I22.161183 J6.117409
G03 X8.889754 Y11.604309 Z-0.125000 I-40.594225 J10.339792
G03 X9.026270 Y12.193087 Z-0.125000 I-40.943544 J9.803514
G02 X9.169547 Y12.779986 Z-0.125000 I15.679556 J-3.516848
G02 X9.334950 Y13.361684 Z-0.125000 I15.558253 J-4.109552
G01 X9.368023 Y13.477424 Z-0.125000
G02 X9.505969 Y13.877757 Z-0.125000 I14.157589 J-4.654443
G02 X9.660167 Y14.287712 Z-0.125000 I15.012400 J-5.412715
G02 X9.845429 Y14.681556 Z-0.125000 I3.063622 J-1.200612
G02 X10.084603 Y15.053903 Z-0.125000 I2.975128 J-1.648061
G02 X10.097464 Y15.074718 Z-0.125000 I0.121592 J-0.060749
G02 X10.134212 Y15.120047 Z-0.125000 I0.620462 J-0.465440
G03 X10.167381 Y15.166172 Z-0.125000 I-0.224468 J0.196407
G01 X10.172797 Y15.186194 Z-0.125000
G01 X10.178309 Y15.197229 Z-0.125000
G01 X10.178309 Y15.191726 Z-0.125000
G02 X10.235355 Y15.260845 Z-0.125000 I0.318412 J-0.204691
G02 X10.299577 Y15.307482 Z-0.125000 I0.204996 J-0.214755
G01 X10.349186 Y15.324020 Z-0.125000
G02 X10.382917 Y15.333361 Z-0.125000 I0.040769 J-0.081653
G02 X10.420844 Y15.329524 Z-0.125000 I0.008301 J-0.107316
G02 X10.442075 Y15.327349 Z-0.125000 I-0.000040 J-0.105101
G01 X10.448406 Y15.324020 Z-0.125000
G01 X10.459429 Y15.324020 Z-0.125000
G02 X10.480931 Y15.301463 Z-0.125000 I-0.465846 J-0.465578
G02 X10.514551 Y15.263388 Z-0.125000 I-1.299889 J-1.181656
G02 X10.549636 Y15.227365 Z-0.125000 I-0.181983 J-0.212345
G02 X10.586209 Y15.175193 Z-0.125000 I-0.349602 J-0.283977
G02 X10.614982 Y15.118200 Z-0.125000 I-0.376684 J-0.225929
G02 X10.641330 Y15.042902 Z-0.125000 I-0.633204 J-0.263828
G02 X10.656967 Y14.964824 Z-0.125000 I-0.475844 J-0.135899
G02 X10.663380 Y14.855486 Z-0.125000 I-0.929974 J-0.109409
G01 X10.663380 Y14.822416 Z-0.125000
G03 X10.654722 Y14.799567 Z-0.125000 I0.107733 J-0.053887
G03 X10.641330 Y14.739741 Z-0.125000 I0.733544 J-0.195618
G02 X10.629466 Y14.679257 Z-0.125000 I-2.197046 J0.399546
G02 X10.619280 Y14.635009 Z-0.125000 I-1.183943 J0.249247
G03 X10.624002 Y14.630291 Z-0.125000 I5.371942 J5.371948
G03 X10.630304 Y14.624002 Z-0.125000 I22.961952 J23.002256
G02 X10.617478 Y14.603259 Z-0.125000 I-0.122334 J0.061308
G02 X10.597231 Y14.579919 Z-0.125000 I-0.173044 J0.129657
G01 X10.597231 Y14.574275 Z-0.125000
G03 X10.515230 Y14.339193 Z-0.125000 I2.356096 J-0.953687
G03 X10.442891 Y14.050639 Z-0.125000 I3.481818 J-1.026231
G03 X10.398976 Y13.762238 Z-0.125000 I2.488611 J-0.526486
G03 X10.382257 Y13.405705 Z-0.125000 I3.791659 J-0.356456
G03 X10.409858 Y12.923797 Z-0.125000 I4.219801 J-0.000063
G03 X10.492500 Y12.446601 Z-0.125000 I4.219300 J0.484961
G03 X10.619029 Y11.977554 Z-0.125000 I6.759973 J1.571968
G03 X10.779132 Y11.515042 Z-0.125000 I6.731081 J2.071057
G03 X10.972813 Y11.068529 Z-0.125000 I8.464516 J3.406332
G03 X11.192543 Y10.627594 Z-0.125000 I8.469849 J3.945553
G03 X11.429092 Y10.200513 Z-0.125000 I18.036833 J9.711068
G03 X11.666589 Y9.795236 Z-0.125000 I16.538039 J9.419238
G02 X11.682650 Y9.767432 Z-0.125000 I-0.808074 J-0.485342
G02 X11.694150 Y9.745650 Z-0.125000 I-0.511791 J-0.284132
G02 X11.710675 Y9.723614 Z-0.125000 I-19.650233 J-14.752957
G03 X11.727224 Y9.701539 Z-0.125000 I28.005760 J20.977152
G01 X11.280739 Y8.891250 Z-0.125000
G00 Z5.000000

(End cutting path id: path3004)


(Start cutting path id: path3002)
(Change tool to Default tool)

G00 Z5.000000
G00 X29.107043 Y26.833297

G01 Z-0.125000 F100.0(Penetrate)
G03 X29.122042 Y26.841318 Z-0.125000 I-0.015852 J0.047678 F400.000000
G03 X29.156652 Y26.871882 Z-0.125000 I-0.227890 J0.292929
G03 X29.146076 Y26.865739 Z-0.125000 I0.043736 J-0.087472
G01 X29.140113 Y26.860847 Z-0.125000
G02 X29.135399 Y26.858416 Z-0.125000 I-0.070479 J0.130890
G02 X29.129079 Y26.855344 Z-0.125000 I-0.267774 J0.542843
G03 X29.105074 Y26.838044 Z-0.125000 I0.041356 J-0.082689
G01 X29.107037 Y26.833302 Z-0.125000
G00 Z5.000000

(End cutting path id: path3002)


(Start cutting path id: path3002)
(Change tool to Default tool)

G00 Z5.000000
G00 X27.789633 Y23.680352

G01 Z-0.125000 F100.0(Penetrate)
G03 X28.112556 Y24.466144 Z-0.125000 I-7.593657 J3.579876 F400.000000
G03 X28.318799 Y25.179658 Z-0.125000 I-6.050635 J2.135516
G03 X28.453671 Y25.912101 Z-0.125000 I-7.466423 J1.753506
G03 X28.517238 Y26.656914 Z-0.125000 I-7.658386 J1.028732
G03 X28.521370 Y26.695584 Z-0.125000 I-0.545727 J0.077875
G03 X28.522741 Y26.734084 Z-0.125000 I-0.539978 J0.038501
G02 X28.529316 Y26.772449 Z-0.125000 I0.688605 J-0.098264
G02 X28.539279 Y26.816767 Z-0.125000 I0.950515 J-0.190414
G03 X28.526899 Y26.932353 Z-0.125000 I-4.863419 J-0.462471
G03 X28.511706 Y27.048277 Z-0.125000 I-4.956563 J-0.590632
G03 X28.492502 Y27.169052 Z-0.125000 I-2.751064 J-0.375529
G03 X28.467609 Y27.290810 Z-0.125000 I-2.785079 J-0.505973
G03 X28.456024 Y27.329203 Z-0.125000 I-1.281719 J-0.365804
G03 X28.429024 Y27.412078 Z-0.125000 I-6.056455 J-1.927355
G02 X28.411569 Y27.495357 Z-0.125000 I0.760260 J0.202814
G02 X28.406982 Y27.555393 Z-0.125000 I0.390606 J0.060036
G02 X28.405838 Y27.648058 Z-0.125000 I0.440808 J0.051780
G02 X28.423520 Y27.731782 Z-0.125000 I0.368452 J-0.034085
G02 X28.455573 Y27.818012 Z-0.125000 I0.828684 J-0.258964
G02 X28.495176 Y27.897148 Z-0.125000 I0.737036 J-0.319369
G01 X28.511715 Y27.913686 Z-0.125000
G02 X28.529974 Y27.926043 Z-0.125000 I0.041399 J-0.041505
G02 X28.550300 Y27.930224 Z-0.125000 I0.020326 J-0.047313
G01 X28.561335 Y27.930224 Z-0.125000
G02 X28.604538 Y27.918255 Z-0.125000 I-0.000014 J-0.084008
G02 X28.644018 Y27.880615 Z-0.125000 I-0.063955 J-0.106604
G02 X28.677581 Y27.833490 Z-0.125000 I-0.218907 J-0.191423
G02 X28.710162 Y27.764859 Z-0.125000 I-0.434339 J-0.248243
G02 X28.734873 Y27.697765 Z-0.125000 I-0.788488 J-0.328495
G02 X28.759771 Y27.610520 Z-0.125000 I-1.308227 J-0.420526
G02 X28.781179 Y27.527668 Z-0.125000 I-5.296747 J-1.412791
G02 X28.798356 Y27.456178 Z-0.125000 I-3.860825 J-0.965497
G01 X28.809391 Y27.467213 Z-0.125000
G01 X28.809391 Y27.461710 Z-0.125000
G02 X28.815954 Y27.471966 Z-0.125000 I0.051688 J-0.025844
G02 X28.831433 Y27.489283 Z-0.125000 I0.165899 J-0.132718
G01 X28.847971 Y27.505821 Z-0.125000
G02 X28.969320 Y27.597352 Z-0.125000 I0.387498 J-0.387528
G02 X29.145628 Y27.671186 Z-0.125000 I0.420836 J-0.757487
G02 X29.334942 Y27.715978 Z-0.125000 I0.511383 J-1.738914
G02 X29.542503 Y27.742845 Z-0.125000 I0.372717 J-2.064209
G02 X29.752245 Y27.759540 Z-0.125000 I0.432406 J-4.106525
G02 X29.950402 Y27.764887 Z-0.125000 I0.198156 J-3.669407
G01 X30.297668 Y27.764887 Z-0.125000
G02 X30.385820 Y27.763458 Z-0.125000 I-0.000131 J-2.728270
G02 X30.474057 Y27.759384 Z-0.125000 I-0.103707 J-3.203235
G02 X30.560913 Y27.747744 Z-0.125000 I-0.038523 J-0.617342
G02 X30.633910 Y27.726310 Z-0.125000 I-0.094732 J-0.457650
G02 X30.697993 Y27.689289 Z-0.125000 I-0.085128 J-0.221332
G02 X30.749666 Y27.632604 Z-0.125000 I-0.160334 J-0.198051
G02 X30.784434 Y27.561508 Z-0.125000 I-0.168891 J-0.126641
G02 X30.799275 Y27.450703 Z-0.125000 I-0.406327 J-0.110820
G02 X30.786461 Y27.355027 Z-0.125000 I-0.363691 J0.000016
G02 X30.749666 Y27.268802 Z-0.125000 I-0.330915 J0.090247
G02 X30.688395 Y27.212980 Z-0.125000 I-0.135322 J0.086994
G02 X30.600836 Y27.191631 Z-0.125000 I-0.087550 J0.168851
G01 X30.507130 Y27.191631 Z-0.125000
G03 X30.309555 Y27.178087 Z-0.125000 I0.067427 J-2.431301
G03 X30.104743 Y27.147534 Z-0.125000 I0.289995 J-2.645778
G03 X29.901504 Y27.105732 Z-0.125000 I1.223772 J-6.464788
G03 X29.707868 Y27.059340 Z-0.125000 I1.306408 J-5.880152
G01 X29.697137 Y27.057973 Z-0.125000
G03 X29.685827 Y27.053836 Z-0.125000 I0.015478 J-0.059856
G02 X29.674495 Y27.049648 Z-0.125000 I-0.024690 J0.049381
G01 X29.663785 Y27.048333 Z-0.125000
G03 X29.570140 Y27.015086 Z-0.125000 I8.423304 J-23.874296
G03 X29.509444 Y26.993212 Z-0.125000 I3.891254 J-10.892582
G03 X29.449548 Y26.974577 Z-0.125000 I0.235116 J-0.861272
G03 X29.399202 Y26.954627 Z-0.125000 I0.220910 J-0.630981
G03 X29.350150 Y26.936650 Z-0.125000 I0.282561 J-0.846889
G03 X29.288957 Y26.910530 Z-0.125000 I0.540170 J-1.350226
G03 X29.234466 Y26.887072 Z-0.125000 I0.425603 J-1.063681
G03 X29.145642 Y26.844382 Z-0.125000 I1.322547 J-2.865565
G01 X29.129104 Y26.827844 Z-0.125000
G02 X29.124732 Y26.684809 Z-0.125000 I-2.344077 J0.000069
G02 X29.112566 Y26.557749 Z-0.125000 I-1.853710 J0.113379
G01 X29.079495 Y26.315213 Z-0.125000
G01 X29.046421 Y26.072680 Z-0.125000
G03 X29.034358 Y25.956600 Z-0.125000 I1.501759 J-0.214733
G03 X29.029883 Y25.819120 Z-0.125000 I2.109609 J-0.137480
G02 X29.013869 Y25.561096 Z-0.125000 I-3.172599 J0.067393
G02 X28.974759 Y25.284441 Z-0.125000 I-3.686202 J0.380016
G02 X28.924343 Y25.015676 Z-0.125000 I-5.720448 J0.933967
G02 X28.859006 Y24.738739 Z-0.125000 I-6.140413 J1.302510
G02 X28.789014 Y24.469698 Z-0.125000 I-9.422248 J2.307604
G02 X28.710176 Y24.198546 Z-0.125000 I-9.647210 J2.657908
G02 X28.631499 Y23.928900 Z-0.125000 I-24.106116 J6.887408
G02 X28.555837 Y23.680406 Z-0.125000 I-20.542884 J6.119109
G03 X28.547050 Y23.657817 Z-0.125000 I0.118198 J-0.058986
G03 X28.544802 Y23.641821 Z-0.125000 I0.055810 J-0.015996
G01 X28.511729 Y23.542600 Z-0.125000
G02 X28.483720 Y23.465597 Z-0.125000 I-6.587572 J2.352575
G02 X28.456608 Y23.393773 Z-0.125000 I-5.790104 J2.144581
G03 X28.429521 Y23.327437 Z-0.125000 I4.653797 J-1.938958
G03 X28.401484 Y23.255969 Z-0.125000 I5.318583 J-2.127738
G02 X28.398358 Y23.234656 Z-0.125000 I-0.074215 J-0.000000
G02 X28.384946 Y23.200848 Z-0.125000 I-0.201898 J0.060532
G02 X28.371705 Y23.168870 Z-0.125000 I-0.230794 J0.076833
G02 X28.351872 Y23.134701 Z-0.125000 I-0.284548 J0.142319
G02 X28.334813 Y23.096367 Z-0.125000 I-1.450086 J0.622375
G02 X28.318799 Y23.063045 Z-0.125000 I-1.051108 J0.484622
G03 X28.309734 Y23.024178 Z-0.125000 I0.395065 J-0.112628
G03 X28.307764 Y23.002409 Z-0.125000 I0.119269 J-0.021769
G01 X27.789622 Y23.680406 Z-0.125000
G00 Z5.000000

(End cutting path id: path3002)


(Start cutting path id: path3000)
(Change tool to Default tool)

G00 Z5.000000
G00 X26.847061 Y23.002350

G01 Z-0.125000 F100.0(Penetrate)
G03 X26.752331 Y23.227917 Z-0.125000 I-24.992616 J-10.363233 F400.000000
G03 X26.643111 Y23.481908 Z-0.125000 I-31.825307 J-13.534956
G02 X26.541344 Y23.736619 Z-0.125000 I10.920617 J4.510881
G02 X26.428137 Y24.038636 Z-0.125000 I15.239385 J5.884517
G02 X26.327007 Y23.847468 Z-0.125000 I-0.989816 J0.401291
G02 X26.207651 Y23.707906 Z-0.125000 I-0.640788 J0.427193
G02 X26.066056 Y23.595303 Z-0.125000 I-0.679200 J0.708749
G02 X25.904483 Y23.509470 Z-0.125000 I-0.549873 J0.840095
G02 X25.735785 Y23.449503 Z-0.125000 I-0.528779 J1.220294
G02 X25.551705 Y23.410249 Z-0.125000 I-0.397949 J1.414898
G02 X25.363971 Y23.393618 Z-0.125000 I-0.382674 J3.251743
G02 X25.182391 Y23.388207 Z-0.125000 I-0.181580 J3.044388
G02 X24.945546 Y23.392643 Z-0.125000 I-0.000000 J6.325006
G02 X24.741419 Y23.404745 Z-0.125000 I0.175928 J4.694909
G02 X24.312302 Y23.514624 Z-0.125000 I0.110221 J1.323319
G02 X23.997278 Y23.735476 Z-0.125000 I0.406940 J0.915564
G02 X23.801820 Y24.062141 Z-0.125000 I0.609480 J0.586486
G02 X23.716158 Y24.606397 Z-0.125000 I1.686127 J0.544255
G02 X23.729579 Y25.024377 Z-0.125000 I6.515362 J0.000007
G02 X23.765768 Y25.378097 Z-0.125000 I4.699848 J-0.302127
G03 X23.810693 Y25.736903 Z-0.125000 I-13.749970 J1.903827
G03 X23.842938 Y26.067117 Z-0.125000 I-11.613565 J1.300713
G03 X23.862209 Y26.403578 Z-0.125000 I-4.108880 J0.404132
G03 X23.853961 Y26.739599 Z-0.125000 I-4.106348 J0.067313
G03 X23.805842 Y27.070326 Z-0.125000 I-2.113102 J-0.138584
G03 X23.688596 Y27.467202 Z-0.125000 I-3.165921 J-0.719522
G02 X23.664079 Y27.551528 Z-0.125000 I0.418333 J0.167355
G02 X23.655524 Y27.643591 Z-0.125000 I0.491024 J0.092060
G02 X23.665932 Y27.751652 Z-0.125000 I0.566151 J0.000002
G02 X23.694108 Y27.842030 Z-0.125000 I0.422591 J-0.082169
G02 X23.750037 Y27.917087 Z-0.125000 I0.212602 J-0.100054
G02 X23.798839 Y27.935736 Z-0.125000 I0.048813 J-0.054557
G02 X23.861761 Y27.911809 Z-0.125000 I-0.000010 J-0.094726
G02 X23.947668 Y27.803444 Z-0.125000 I-0.265563 J-0.298759
G02 X24.094946 Y27.399517 Z-0.125000 I-3.470500 J-1.494217
G02 X24.190202 Y26.998671 Z-0.125000 I-3.322343 J-1.001254
G02 X24.243691 Y26.589180 Z-0.125000 I-4.622792 J-0.812083
G02 X24.261860 Y26.166335 Z-0.125000 I-4.911691 J-0.422860
G02 X24.247929 Y25.803611 Z-0.125000 I-4.729475 J0.000017
G02 X24.206739 Y25.449756 Z-0.125000 I-4.542218 J0.349408
G03 X24.169678 Y25.101596 Z-0.125000 I4.834964 J-0.690723
G03 X24.157129 Y24.744200 Z-0.125000 I5.082799 J-0.357384
G02 X24.156011 Y24.672569 Z-0.125000 I-2.296448 J0.000027
G02 X24.151618 Y24.567811 Z-0.125000 I-4.894473 J0.152803
G03 X24.164485 Y24.472776 Z-0.125000 I0.357363 J-0.000003
G03 X24.195715 Y24.407958 Z-0.125000 I0.193897 J0.053488
G03 X24.290272 Y24.309884 Z-0.125000 I0.288660 J0.183689
G03 X24.443762 Y24.237081 Z-0.125000 I0.301831 J0.438143
G03 X24.621589 Y24.204684 Z-0.125000 I0.338608 J1.354377
G03 X24.824100 Y24.192984 Z-0.125000 I0.202511 J1.746713
G03 X25.038558 Y24.200228 Z-0.125000 I0.000000 J3.178168
G03 X25.231999 Y24.220557 Z-0.125000 I-0.176555 J2.610505
G03 X25.428707 Y24.255678 Z-0.125000 I-0.355387 J2.558912
G03 X25.584777 Y24.297728 Z-0.125000 I-0.361323 J1.651718
G03 X25.735315 Y24.360410 Z-0.125000 I-0.532216 J1.490266
G03 X25.838336 Y24.418993 Z-0.125000 I-0.360695 J0.754184
G03 X25.929573 Y24.500826 Z-0.125000 I-0.264804 J0.387009
G03 X25.970628 Y24.573335 Z-0.125000 I-0.164568 J0.141057
G03 X26.012060 Y24.717368 Z-0.125000 I-3.897031 J1.198981
G03 X26.053310 Y24.882015 Z-0.125000 I-5.050822 J1.352901
G03 X26.087409 Y25.048177 Z-0.125000 I-3.080420 J0.718728
G03 X26.113944 Y25.223769 Z-0.125000 I-3.414504 J0.605788
G03 X26.112154 Y25.245386 Z-0.125000 I-0.131714 J-0.000023
G01 X26.108432 Y25.256840 Z-0.125000
G02 X26.067400 Y25.610409 Z-0.125000 I7.287372 J1.024874
G02 X26.042286 Y25.978934 Z-0.125000 I7.891966 J0.722929
G02 X26.046467 Y26.193738 Z-0.125000 I5.515439 J0.000098
G02 X26.058822 Y26.403368 Z-0.125000 I5.264686 J-0.205100
G02 X26.082386 Y26.618160 Z-0.125000 I15.165487 J-1.555075
G02 X26.108431 Y26.827805 Z-0.125000 I14.483473 J-1.692904
G03 X26.118804 Y26.866542 Z-0.125000 I-1.155695 J0.330217
G03 X26.141504 Y26.960096 Z-0.125000 I-6.760539 J1.689915
G02 X26.164847 Y27.058988 Z-0.125000 I3.763588 J-0.836192
G02 X26.196625 Y27.180582 Z-0.125000 I5.727066 J-1.431801
G02 X26.230621 Y27.307098 Z-0.125000 I8.620678 J-2.248585
G02 X26.268283 Y27.439654 Z-0.125000 I9.520071 J-2.633277
G02 X26.314550 Y27.576668 Z-0.125000 I4.315152 J-1.380809
G02 X26.356478 Y27.687699 Z-0.125000 I2.874278 J-1.021964
G02 X26.410114 Y27.795661 Z-0.125000 I1.437079 J-0.646644
G02 X26.455697 Y27.869603 Z-0.125000 I0.718450 J-0.391882
G02 X26.512990 Y27.926581 Z-0.125000 I0.182935 J-0.126651
G02 X26.560427 Y27.941259 Z-0.125000 I0.047444 J-0.069341
G02 X26.608309 Y27.922220 Z-0.125000 I-0.000005 J-0.069742
G02 X26.659646 Y27.847553 Z-0.125000 I-0.148089 J-0.156799
G02 X26.692853 Y27.756782 Z-0.125000 I-0.383801 J-0.191864
G02 X26.703743 Y27.665652 Z-0.125000 I-0.375996 J-0.091151
G02 X26.699273 Y27.605738 Z-0.125000 I-0.404171 J0.000034
G02 X26.687208 Y27.555407 Z-0.125000 I-0.296570 J0.044480
G03 X26.674422 Y27.510625 Z-0.125000 I0.270553 J-0.101464
G03 X26.670673 Y27.472728 Z-0.125000 I0.189229 J-0.037855
G03 X26.616242 Y27.327357 Z-0.125000 I1.703173 J-0.720589
G03 X26.571454 Y27.169559 Z-0.125000 I1.962451 J-0.642260
G03 X26.535502 Y27.014648 Z-0.125000 I4.549333 J-1.137458
G03 X26.505308 Y26.860878 Z-0.125000 I4.453873 J-0.954387
G03 X26.479985 Y26.689709 Z-0.125000 I6.534674 J-1.054199
G03 X26.466723 Y26.574245 Z-0.125000 I2.962112 J-0.398725
G03 X26.462475 Y26.463965 Z-0.125000 I4.798313 J-0.240072
G03 X26.461211 Y26.370297 Z-0.125000 I3.460108 J-0.093512
G03 X26.544889 Y25.689833 Z-0.125000 I5.156274 J0.288698
G03 X26.720283 Y25.014307 Z-0.125000 I5.257011 J1.004396
G03 X26.982399 Y24.367086 Z-0.125000 I5.061703 J1.673241
G03 X27.365204 Y23.680367 Z-0.125000 I6.084350 J2.941607
G01 X26.847062 Y23.002370 Z-0.125000
G00 Z5.000000

(End cutting path id: path3000)


(Start cutting path id: path2998)
(Change tool to Default tool)

G00 Z5.000000
G00 X20.320672 Y29.131864

G01 Z-0.125000 F100.0(Penetrate)
G02 X20.382890 Y28.783173 Z-0.125000 I-6.446544 J-1.330173 F400.000000
G02 X20.425403 Y28.437332 Z-0.125000 I-6.298845 J-0.949828
G02 X20.450354 Y28.089673 Z-0.125000 I-7.447565 J-0.709231
G02 X20.458476 Y27.753827 Z-0.125000 I-6.941933 J-0.335899
G02 X20.523777 Y27.807808 Z-0.125000 I0.317184 J-0.317213
G02 X20.612816 Y27.858556 Z-0.125000 I0.368503 J-0.543054
G02 X20.708037 Y27.898560 Z-0.125000 I0.522729 J-1.110940
G02 X20.805741 Y27.930216 Z-0.125000 I0.422618 J-1.137778
G02 X20.911571 Y27.957989 Z-0.125000 I0.335271 J-1.062001
G02 X21.015203 Y27.974313 Z-0.125000 I0.210832 J-1.001388
G02 X21.120215 Y27.987216 Z-0.125000 I0.241647 J-1.532832
G02 X21.202616 Y27.990851 Z-0.125000 I0.082402 J-0.932199
G02 X21.525028 Y27.946986 Z-0.125000 I-0.000015 J-1.206915
G02 X21.759344 Y27.836512 Z-0.125000 I-0.204373 J-0.737207
G02 X21.957278 Y27.661644 Z-0.125000 I-0.672551 J-0.960723
G02 X22.117634 Y27.439637 Z-0.125000 I-0.935929 J-0.844935
G02 X22.237587 Y27.195222 Z-0.125000 I-1.674071 J-0.973237
G02 X22.332608 Y26.910470 Z-0.125000 I-2.180907 J-0.885993
G02 X22.404088 Y26.617060 Z-0.125000 I-7.577860 J-2.001514
G02 X22.459387 Y26.342718 Z-0.125000 I-6.569033 J-1.466870
G03 X22.588373 Y25.689695 Z-0.125000 I16.109158 J2.842643
G03 X22.729483 Y25.107996 Z-0.125000 I12.922113 J2.826715
G03 X22.906990 Y24.535264 Z-0.125000 I9.299586 J2.568356
G03 X23.131870 Y23.939418 Z-0.125000 I10.290982 J3.543587
G03 X23.177819 Y23.824441 Z-0.125000 I3.560080 J1.356054
G03 X23.231088 Y23.702397 Z-0.125000 I4.063983 J1.701202
G02 X23.279171 Y23.584237 Z-0.125000 I-0.995048 J-0.473772
G02 X23.313771 Y23.459863 Z-0.125000 I-1.068357 J-0.364212
G01 X23.313771 Y23.371669 Z-0.125000
G02 X23.304149 Y23.279973 Z-0.125000 I-0.442050 J0.000032
G02 X23.275186 Y23.189766 Z-0.125000 I-0.456655 J0.096868
G02 X23.226860 Y23.117610 Z-0.125000 I-0.165004 J0.058249
G02 X23.170455 Y23.096059 Z-0.125000 I-0.056405 J0.063041
G01 X23.159431 Y23.096059 Z-0.125000
G02 X23.105129 Y23.126767 Z-0.125000 I0.064592 J0.177589
G02 X23.043676 Y23.189766 Z-0.125000 I0.236494 J0.292162
G02 X22.803064 Y23.716691 Z-0.125000 I18.661946 J8.840082
G02 X22.580655 Y24.242587 Z-0.125000 I18.367573 J8.077876
G02 X22.382650 Y24.782900 Z-0.125000 I8.606055 J3.460254
G02 X22.216853 Y25.339506 Z-0.125000 I8.967619 J2.974187
G02 X22.168865 Y25.521817 Z-0.125000 I10.220625 J2.787765
G02 X22.123147 Y25.708822 Z-0.125000 I10.708089 J2.716963
G01 X22.034952 Y26.083647 Z-0.125000
G02 X21.993772 Y26.244189 Z-0.125000 I4.410489 J1.216865
G02 X21.957782 Y26.408863 Z-0.125000 I4.605306 J1.092778
G03 X21.916363 Y26.571633 Z-0.125000 I-1.592243 J-0.318514
G03 X21.858563 Y26.728570 Z-0.125000 I-1.537519 J-0.477155
G01 X21.857165 Y26.728104 Z-0.125000
G02 X21.842028 Y26.750611 Z-0.125000 I0.209627 J0.157331
G03 X21.824850 Y26.777751 Z-0.125000 I-0.579738 J-0.347932
G03 X21.797931 Y26.816759 Z-0.125000 I-1.231145 J-0.820833
G03 X21.770026 Y26.860630 Z-0.125000 I-2.825882 J-1.766617
G03 X21.737297 Y26.910465 Z-0.125000 I-3.687289 J-2.385935
G03 X21.702220 Y26.958429 Z-0.125000 I-0.571319 J-0.381010
G03 X21.671151 Y26.993147 Z-0.125000 I-0.329371 J-0.263484
G03 X21.589379 Y27.044218 Z-0.125000 I-0.277280 J-0.352969
G03 X21.500275 Y27.075830 Z-0.125000 I-0.187992 J-0.388509
G03 X21.405532 Y27.096216 Z-0.125000 I-0.184710 J-0.628083
G03 X21.301837 Y27.103375 Z-0.125000 I-0.103695 J-0.747412
G03 X21.046073 Y27.071519 Z-0.125000 I0.000017 J-1.042804
G03 X20.844328 Y26.987622 Z-0.125000 I0.183823 J-0.726541
G03 X20.676954 Y26.853709 Z-0.125000 I0.343066 J-0.600343
G03 X20.552184 Y26.667915 Z-0.125000 I0.556456 J-0.508480
G01 X20.519111 Y26.596258 Z-0.125000
G03 X20.509099 Y26.573952 Z-0.125000 I0.262010 J-0.131005
G01 X20.508088 Y26.568685 Z-0.125000
G03 X20.456811 Y26.497128 Z-0.125000 I0.270672 J-0.248110
G03 X20.414381 Y26.397808 Z-0.125000 I0.484566 J-0.265731
G03 X20.383996 Y26.292353 Z-0.125000 I2.063962 J-0.651808
G03 X20.348235 Y26.144248 Z-0.125000 I4.036108 J-1.052902
G02 X20.312756 Y26.001560 Z-0.125000 I-4.239212 J0.978318
G02 X20.260041 Y25.813521 Z-0.125000 I-7.417283 J1.977962
G02 X20.201586 Y25.634891 Z-0.125000 I-1.814059 J0.494752
G02 X20.105701 Y25.411134 Z-0.125000 I-2.945083 J1.129620
G02 X19.942373 Y24.859121 Z-0.125000 I-10.514970 J2.810956
G02 X19.752923 Y24.325239 Z-0.125000 I-10.024659 J3.256740
G02 X19.549500 Y23.803581 Z-0.125000 I-27.305527 J10.347417
G02 X19.328487 Y23.266905 Z-0.125000 I-29.120761 J11.678641
G03 X19.318542 Y23.249763 Z-0.125000 I0.133376 J-0.088826
G03 X19.295414 Y23.200761 Z-0.125000 I1.063423 J-0.531886
G02 X19.270218 Y23.153805 Z-0.125000 I-0.328308 J0.145930
G01 X19.256829 Y23.140125 Z-0.125000
G02 X19.178848 Y23.104573 Z-0.125000 I-0.081979 J0.076515
G02 X19.102489 Y23.134622 Z-0.125000 I-0.003665 J0.102732
G02 X19.049862 Y23.216983 Z-0.125000 I0.132421 J0.142608
G02 X19.025319 Y23.371646 Z-0.125000 I0.475039 J0.154663
G01 X19.025319 Y23.415744 Z-0.125000
G01 X19.041854 Y23.525985 Z-0.125000
G03 X19.146156 Y23.823790 Z-0.125000 I-103.440610 J36.395905
G03 X19.251316 Y24.126811 Z-0.125000 I-107.101283 J37.337935
G03 X19.357423 Y24.431354 Z-0.125000 I-11.217233 J4.079001
G03 X19.455266 Y24.738660 Z-0.125000 I-11.321943 J3.773992
G03 X19.493137 Y24.882157 Z-0.125000 I-14.463156 J3.893811
G03 X19.537948 Y25.058365 Z-0.125000 I-21.740151 J5.622526
G03 X19.585056 Y25.240880 Z-0.125000 I-6.658132 J1.815847
G03 X19.642679 Y25.488313 Z-0.125000 I-12.178713 J2.966616
G03 X19.695381 Y25.736850 Z-0.125000 I-12.770147 J2.837774
G03 X19.758434 Y26.061577 Z-0.125000 I-21.733850 J4.388579
G03 X19.816192 Y26.392782 Z-0.125000 I-19.075973 J3.497229
G03 X19.885214 Y26.827765 Z-0.125000 I-32.833026 J5.432821
G01 X19.885214 Y26.833269 Z-0.125000
G03 X19.894793 Y26.993190 Z-0.125000 I-8.852694 J0.610514
G03 X19.901749 Y27.158484 Z-0.125000 I-9.451532 J0.480553
G03 X19.908660 Y27.329421 Z-0.125000 I-3.554623 J0.229319
G03 X19.907261 Y27.494727 Z-0.125000 I-3.325507 J0.054513
G03 X19.900616 Y27.671060 Z-0.125000 I-13.716711 J-0.428637
G03 X19.890725 Y27.869555 Z-0.125000 I-17.456427 J-0.770281
G03 X19.870799 Y28.066637 Z-0.125000 I-2.186443 J-0.121513
G03 X19.835604 Y28.244380 Z-0.125000 I-1.812326 J-0.266510
G01 X19.835604 Y28.260918 Z-0.125000
G02 X19.830384 Y28.283032 Z-0.125000 I0.842133 J0.210452
G02 X19.824580 Y28.310530 Z-0.125000 I1.281734 J0.284886
G03 X19.817765 Y28.343290 Z-0.125000 I-0.413566 J-0.068945
G03 X19.802530 Y28.398724 Z-0.125000 I-1.202791 J-0.300751
G03 X19.785800 Y28.453779 Z-0.125000 I-7.938012 J-2.382196
G03 X19.758433 Y28.542039 Z-0.125000 I-20.291436 J-6.243350
G03 X19.735893 Y28.630097 Z-0.125000 I-7.937557 J-1.984866
G03 X19.697799 Y28.773549 Z-0.125000 I-21.026173 J-5.506703
G01 X20.320672 Y29.131839 Z-0.125000
G00 Z5.000000

(End cutting path id: path2998)


(Start cutting path id: path2996)
(Change tool to Default tool)

G00 Z5.000000
G00 X17.829179 Y27.086856

G01 Z-0.125000 F100.0(Penetrate)
G02 X17.729843 Y27.077192 Z-0.125000 I-0.397045 J3.565507 F400.000000
G02 X17.630741 Y27.070318 Z-0.125000 I-0.297954 J3.578121
G02 X17.531482 Y27.066190 Z-0.125000 I-0.198751 J3.583331
G02 X17.432304 Y27.064815 Z-0.125000 I-0.099179 J3.576149
G02 X17.382692 Y27.064813 Z-0.125000 I-0.180714 J581.406135
G02 X17.333085 Y27.064815 Z-0.125000 I0.131071 J581.306918
G02 X17.283556 Y27.066134 Z-0.125000 I-0.000079 J0.927706
G02 X17.233866 Y27.070318 Z-0.125000 I0.043318 J0.811512
G02 X17.203473 Y26.541325 Z-0.125000 I-49.437382 J2.575074
G02 X17.167720 Y26.017500 Z-0.125000 I-48.495818 J3.046822
G03 X17.142995 Y25.493577 Z-0.125000 I16.441913 J-1.038494
G03 X17.134648 Y24.959166 Z-0.125000 I17.099778 J-0.534357
G01 X17.138225 Y24.952852 Z-0.125000
G02 X17.140159 Y24.937125 Z-0.125000 I-0.062968 J-0.015727
G03 X17.282537 Y24.752756 Z-0.125000 I1.103421 J0.704954
G03 X17.481913 Y24.567811 Z-0.125000 I1.309727 J1.211984
G03 X17.701356 Y24.409063 Z-0.125000 I2.804963 J3.646359
G03 X17.911861 Y24.275666 Z-0.125000 I2.189322 J3.222023
G02 X18.128153 Y24.130616 Z-0.125000 I-1.076614 J-1.839191
G02 X18.330784 Y23.955962 Z-0.125000 I-1.364440 J-1.787874
G02 X18.517891 Y23.763232 Z-0.125000 I-3.196133 J-3.290058
G02 X18.689074 Y23.564599 Z-0.125000 I-3.224066 J-2.951606
G01 X18.685234 Y23.558389 Z-0.125000
G01 X18.683562 Y23.548061 Z-0.125000
G02 X18.694277 Y23.503890 Z-0.125000 I-3.199779 J-0.799561
G02 X18.705613 Y23.454352 Z-0.125000 I-4.031234 J-0.948501
G02 X18.713758 Y23.404429 Z-0.125000 I-0.434457 J-0.096509
G02 X18.716636 Y23.349622 Z-0.125000 I-0.521088 J-0.054848
G02 X18.702514 Y23.238013 Z-0.125000 I-0.448226 J0.000016
G02 X18.667027 Y23.156698 Z-0.125000 I-0.269976 J0.069421
G02 X18.609503 Y23.113334 Z-0.125000 I-0.075439 J0.040238
G02 X18.512686 Y23.123624 Z-0.125000 I-0.032726 J0.152707
G01 X18.508846 Y23.117414 Z-0.125000
G01 X18.507174 Y23.107086 Z-0.125000
G03 X18.272506 Y23.334350 Z-0.125000 I-2.969652 J-2.831605
G03 X18.038642 Y23.526008 Z-0.125000 I-2.342986 J-2.620451
G03 X17.790317 Y23.699001 Z-0.125000 I-2.592375 J-3.456524
G03 X17.509475 Y23.867762 Z-0.125000 I-2.747969 J-4.254943
G02 X17.293676 Y23.996154 Z-0.125000 I1.786246 J3.247849
G02 X17.140161 Y24.104784 Z-0.125000 I1.123151 J1.750022
G02 X17.004173 Y24.232862 Z-0.125000 I1.134641 J1.340945
G02 X16.908650 Y24.347320 Z-0.125000 I0.809228 J0.772441
G02 X16.829117 Y24.473247 Z-0.125000 I0.920169 J0.669245
G02 X16.770846 Y24.600877 Z-0.125000 I0.887192 J0.482170
G02 X16.733174 Y24.740139 Z-0.125000 I1.509780 J0.483142
G02 X16.704700 Y24.898534 Z-0.125000 I1.925521 J0.427895
G01 X16.704700 Y24.975704 Z-0.125000
G03 X16.704334 Y24.986699 Z-0.125000 I-0.165666 J-0.000013
G03 X16.699189 Y25.058387 Z-0.125000 I-6.942026 J-0.462265
G01 X16.699189 Y25.245800 Z-0.125000
G01 X16.699189 Y25.499359 Z-0.125000
G01 X16.699189 Y25.774966 Z-0.125000
G01 X16.699189 Y25.951355 Z-0.125000
G03 X16.698181 Y26.034013 Z-0.125000 I-3.395751 J-0.000052
G03 X16.693677 Y26.177353 Z-0.125000 I-10.161341 J-0.247573
G03 X16.692395 Y26.326156 Z-0.125000 I-8.645400 J-0.000074
G03 X16.688165 Y26.497057 Z-0.125000 I-11.358948 J-0.195635
G03 X16.686788 Y26.667908 Z-0.125000 I-10.610208 J-0.000079
G03 X16.682653 Y26.838811 Z-0.125000 I-10.578972 J-0.170448
G03 X16.681107 Y27.015166 Z-0.125000 I-10.066357 J-0.000048
G03 X16.677141 Y27.153004 Z-0.125000 I-6.133092 J-0.107493
G02 X16.605521 Y27.169681 Z-0.125000 I3.526998 J15.308348
G02 X16.489728 Y27.197101 Z-0.125000 I9.814621 J41.705434
G02 X16.380840 Y27.233800 Z-0.125000 I0.489618 J1.632599
G02 X16.269242 Y27.279784 Z-0.125000 I0.661309 J1.763361
G02 X16.165473 Y27.343586 Z-0.125000 I0.311159 J0.622362
G02 X16.076317 Y27.423099 Z-0.125000 I0.399065 J0.537204
G02 X16.020280 Y27.519229 Z-0.125000 I0.220439 J0.192896
G02 X15.999147 Y27.643585 Z-0.125000 I0.355303 J0.124356
G01 X15.999147 Y27.682170 Z-0.125000
G02 X16.013556 Y27.770969 Z-0.125000 I0.280813 J0.000000
G02 X16.054268 Y27.847536 Z-0.125000 I0.247521 J-0.082505
G02 X16.120386 Y27.894836 Z-0.125000 I0.102210 J-0.073012
G02 X16.219633 Y27.897145 Z-0.125000 I0.053825 J-0.179421
G02 X16.313060 Y27.874038 Z-0.125000 I-0.976363 J-4.148194
G02 X16.368461 Y27.858559 Z-0.125000 I-0.386058 J-1.488630
G03 X16.429602 Y27.844582 Z-0.125000 I0.197892 J0.724903
G03 X16.517289 Y27.830986 Z-0.125000 I0.276661 J1.494824
G03 X16.489684 Y27.836250 Z-0.125000 I-0.318633 J-1.595861
G03 X16.456655 Y27.842021 Z-0.125000 I-0.438864 J-2.414464
G02 X16.434539 Y27.846986 Z-0.125000 I0.093390 J0.467738
G01 X16.434605 Y27.847524 Z-0.125000
G02 X16.436953 Y27.849947 Z-0.125000 I0.057737 J-0.053613
G02 X16.440117 Y27.853028 Z-0.125000 I0.207617 J-0.210041
G02 X16.484214 Y27.855769 Z-0.125000 I0.044097 J-0.353332
G02 X16.528312 Y27.853028 Z-0.125000 I0.000000 J-0.356094
G03 X16.577992 Y27.848816 Z-0.125000 I0.106094 J0.956366
G03 X16.622018 Y27.847524 Z-0.125000 I0.044027 J0.749654
G01 X16.671628 Y27.847524 Z-0.125000
G03 X16.670253 Y27.908087 Z-0.125000 I-1.335802 J-0.000028
G03 X16.666116 Y27.968792 Z-0.125000 I-1.340859 J-0.060883
G01 X16.666116 Y28.095572 Z-0.125000
G01 X16.666116 Y28.608201 Z-0.125000
G01 X17.327574 Y28.608201 Z-0.125000
G01 X17.305524 Y28.277473 Z-0.125000
G03 X17.294681 Y28.117601 Z-0.125000 I69.263891 J-4.778147
G03 X17.283474 Y27.946742 Z-0.125000 I79.747216 J-5.316437
G03 X17.397862 Y27.983567 Z-0.125000 I-0.496740 J1.739111
G03 X17.498448 Y28.023913 Z-0.125000 I-0.497720 J1.386390
G03 X17.598819 Y28.074485 Z-0.125000 I-0.319760 J0.759533
G03 X17.647276 Y28.112108 Z-0.125000 I-0.125192 J0.211259
G01 X17.647275 Y28.115331 Z-0.125000
G01 X17.641764 Y28.117611 Z-0.125000
G01 X17.635800 Y28.112719 Z-0.125000
G02 X17.625229 Y28.106576 Z-0.125000 I-0.053800 J0.080415
G01 X17.619901 Y28.105679 Z-0.125000
G03 X17.608693 Y28.101073 Z-0.125000 I0.034219 J-0.099203
G01 X17.603419 Y28.100054 Z-0.125000
G03 X17.581132 Y28.090038 Z-0.125000 I0.107426 J-0.268845
G02 X17.564245 Y28.079595 Z-0.125000 I-0.157144 J0.235235
G02 X17.542547 Y28.067996 Z-0.125000 I-0.219003 J0.383611
G03 X17.520835 Y28.056371 Z-0.125000 I0.203369 J-0.405881
G03 X17.503962 Y28.045955 Z-0.125000 I0.143405 J-0.251191
G01 X17.491454 Y28.045911 Z-0.125000
G01 X17.487426 Y28.051458 Z-0.125000
G01 X17.486426 Y28.053324 Z-0.125000
G02 X17.498450 Y28.067996 Z-0.125000 I0.080294 J-0.053538
G01 X17.520500 Y28.090038 Z-0.125000
G02 X17.550887 Y28.111938 Z-0.125000 I0.082656 J-0.082656
G02 X17.586646 Y28.123109 Z-0.125000 I0.052315 J-0.104648
G03 X17.629265 Y28.137462 Z-0.125000 I-0.067951 J0.272225
G03 X17.663816 Y28.156182 Z-0.125000 I-0.084761 J0.197680
G01 X17.829180 Y27.086825 Z-0.125000
G00 Z5.000000

(End cutting path id: path2996)


(Start cutting path id: path2994)
(Change tool to Default tool)

G00 Z5.000000
G00 X14.224231 Y26.833297

G01 Z-0.125000 F100.0(Penetrate)
G03 X14.239215 Y26.841313 Z-0.125000 I-0.015864 J0.047667 F400.000000
G03 X14.273840 Y26.871882 Z-0.125000 I-0.228644 J0.293875
G03 X14.263262 Y26.865737 Z-0.125000 I0.043122 J-0.086411
G01 X14.257305 Y26.860847 Z-0.125000
G02 X14.252590 Y26.858417 Z-0.125000 I-0.073612 J0.137023
G02 X14.246281 Y26.855344 Z-0.125000 I-0.277970 J0.562633
G03 X14.222269 Y26.838041 Z-0.125000 I0.041380 J-0.082737
G01 X14.224231 Y26.833302 Z-0.125000
G00 Z5.000000

(End cutting path id: path2994)


(Start cutting path id: path2994)
(Change tool to Default tool)

G00 Z5.000000
G00 X12.906827 Y23.680352

G01 Z-0.125000 F100.0(Penetrate)
G03 X13.229749 Y24.466144 Z-0.125000 I-7.593682 J3.579887 F400.000000
G03 X13.435993 Y25.179658 Z-0.125000 I-6.050735 J2.135554
G03 X13.570864 Y25.912101 Z-0.125000 I-7.466794 J1.753563
G03 X13.634431 Y26.656914 Z-0.125000 I-7.658179 J1.028712
G03 X13.638570 Y26.695584 Z-0.125000 I-0.544905 J0.077878
G03 X13.639943 Y26.734084 Z-0.125000 I-0.539144 J0.038500
G02 X13.646514 Y26.772449 Z-0.125000 I0.695720 J-0.099432
G02 X13.656478 Y26.816767 Z-0.125000 I0.936175 J-0.187190
G03 X13.644093 Y26.932354 Z-0.125000 I-4.924529 J-0.469183
G03 X13.628916 Y27.048277 Z-0.125000 I-4.962682 J-0.590786
G03 X13.609710 Y27.169053 Z-0.125000 I-2.736352 J-0.373234
G03 X13.584819 Y27.290810 Z-0.125000 I-2.804206 J-0.509839
G03 X13.573225 Y27.329206 Z-0.125000 I-1.307926 J-0.374001
G03 X13.546234 Y27.412078 Z-0.125000 I-6.056552 J-1.926744
G02 X13.528775 Y27.495357 Z-0.125000 I0.761621 J0.203138
G02 X13.524184 Y27.555393 Z-0.125000 I0.390235 J0.060036
G02 X13.523089 Y27.648077 Z-0.125000 I0.437913 J0.051519
G02 X13.540719 Y27.731782 Z-0.125000 I0.374061 J-0.035074
G02 X13.572773 Y27.818012 Z-0.125000 I0.828552 J-0.258923
G02 X13.612377 Y27.897148 Z-0.125000 I0.737148 J-0.319433
G01 X13.628913 Y27.913686 Z-0.125000
G02 X13.647171 Y27.926045 Z-0.125000 I0.041338 J-0.041402
G02 X13.667498 Y27.930224 Z-0.125000 I0.020327 J-0.047349
G01 X13.678521 Y27.930224 Z-0.125000
G02 X13.721725 Y27.918254 Z-0.125000 I-0.000014 J-0.084008
G02 X13.761204 Y27.880615 Z-0.125000 I-0.063955 J-0.106603
G02 X13.794774 Y27.833487 Z-0.125000 I-0.218559 J-0.191202
G02 X13.827349 Y27.764859 Z-0.125000 I-0.434544 J-0.248312
G02 X13.852059 Y27.697765 Z-0.125000 I-0.788352 J-0.328438
G02 X13.876959 Y27.610520 Z-0.125000 I-1.309143 J-0.420801
G02 X13.898358 Y27.527670 Z-0.125000 I-5.302530 J-1.413791
G02 X13.915544 Y27.456178 Z-0.125000 I-3.936327 J-0.984051
G03 X13.920269 Y27.460903 Z-0.125000 I-3.225642 J3.230605
G03 X13.926567 Y27.467213 Z-0.125000 I-13.844829 J13.825592
G01 X13.926567 Y27.461710 Z-0.125000
G02 X13.933129 Y27.471964 Z-0.125000 I0.051927 J-0.026004
G02 X13.948618 Y27.489283 Z-0.125000 I0.163980 J-0.131059
G01 X13.965153 Y27.505821 Z-0.125000
G02 X14.086499 Y27.597351 Z-0.125000 I0.387476 J-0.387494
G02 X14.262809 Y27.671186 Z-0.125000 I0.420836 J-0.757489
G02 X14.452124 Y27.715978 Z-0.125000 I0.511389 J-1.738942
G02 X14.659684 Y27.742845 Z-0.125000 I0.372717 J-2.064208
G02 X14.869424 Y27.759540 Z-0.125000 I0.432394 J-4.106367
G02 X15.067583 Y27.764887 Z-0.125000 I0.198160 J-3.669470
G01 X15.414849 Y27.764887 Z-0.125000
G02 X15.503000 Y27.763458 Z-0.125000 I-0.000131 J-2.728229
G02 X15.591238 Y27.759384 Z-0.125000 I-0.103711 J-3.203378
G02 X15.678092 Y27.747744 Z-0.125000 I-0.038524 J-0.617337
G02 X15.751090 Y27.726310 Z-0.125000 I-0.094735 J-0.457661
G02 X15.815174 Y27.689289 Z-0.125000 I-0.085126 J-0.221329
G02 X15.866846 Y27.632604 Z-0.125000 I-0.160328 J-0.198042
G02 X15.901614 Y27.561507 Z-0.125000 I-0.168870 J-0.126633
G02 X15.916455 Y27.450703 Z-0.125000 I-0.406357 J-0.110823
G02 X15.903639 Y27.355027 Z-0.125000 I-0.363680 J0.000019
G02 X15.866846 Y27.268802 Z-0.125000 I-0.330969 J0.090268
G02 X15.805574 Y27.212979 Z-0.125000 I-0.135322 J0.086992
G02 X15.718018 Y27.191631 Z-0.125000 I-0.087549 J0.168847
G01 X15.624311 Y27.191631 Z-0.125000
G03 X15.426736 Y27.178087 Z-0.125000 I0.067427 J-2.431298
G03 X15.221924 Y27.147534 Z-0.125000 I0.289998 J-2.645812
G03 X15.018685 Y27.105732 Z-0.125000 I1.223786 J-6.464853
G03 X14.825049 Y27.059340 Z-0.125000 I1.306432 J-5.880258
G01 X14.814310 Y27.057971 Z-0.125000
G03 X14.802999 Y27.053836 Z-0.125000 I0.015556 J-0.060103
G02 X14.791661 Y27.049650 Z-0.125000 I-0.024773 J0.049641
G01 X14.780949 Y27.048333 Z-0.125000
G03 X14.687302 Y27.015086 Z-0.125000 I8.420956 J-23.867750
G03 X14.626608 Y26.993212 Z-0.125000 I3.878421 J-10.856672
G03 X14.566712 Y26.974577 Z-0.125000 I0.235077 J-0.861162
G03 X14.516365 Y26.954627 Z-0.125000 I0.220918 J-0.631005
G03 X14.467312 Y26.936649 Z-0.125000 I0.282488 J-0.846698
G03 X14.406122 Y26.910530 Z-0.125000 I0.539994 J-1.349767
G03 X14.351629 Y26.887071 Z-0.125000 I0.425532 J-1.063535
G03 X14.262806 Y26.844382 Z-0.125000 I1.322204 J-2.864836
G01 X14.246271 Y26.827844 Z-0.125000
G02 X14.241895 Y26.684809 Z-0.125000 I-2.341209 J0.000041
G02 X14.229736 Y26.557749 Z-0.125000 I-1.859836 J0.113872
G01 X14.196663 Y26.315213 Z-0.125000
G01 X14.163590 Y26.072680 Z-0.125000
G03 X14.151530 Y25.956601 Z-0.125000 I1.504736 J-0.214994
G03 X14.147054 Y25.819120 Z-0.125000 I2.107186 J-0.137416
G02 X14.131034 Y25.561095 Z-0.125000 I-3.174599 J0.067591
G02 X14.091933 Y25.284441 Z-0.125000 I-3.688839 J0.380280
G02 X14.041516 Y25.015676 Z-0.125000 I-5.720814 J0.934045
G02 X13.976178 Y24.738739 Z-0.125000 I-6.139253 J1.302264
G02 X13.906187 Y24.469699 Z-0.125000 I-9.420063 J2.306995
G02 X13.827350 Y24.198546 Z-0.125000 I-9.647940 J2.658101
G02 X13.748671 Y23.928900 Z-0.125000 I-24.120523 J6.891751
G02 X13.673009 Y23.680406 Z-0.125000 I-20.551521 J6.121727
G03 X13.664223 Y23.657815 Z-0.125000 I0.117081 J-0.058540
G03 X13.661986 Y23.641821 Z-0.125000 I0.055947 J-0.015979
G01 X13.628913 Y23.542600 Z-0.125000
G02 X13.600902 Y23.465596 Z-0.125000 I-6.624936 J2.366282
G02 X13.573791 Y23.393773 Z-0.125000 I-5.779575 J2.140565
G03 X13.546705 Y23.327436 Z-0.125000 I4.617358 J-1.924072
G03 X13.518670 Y23.255969 Z-0.125000 I5.343552 J-2.137372
G02 X13.515541 Y23.234654 Z-0.125000 I-0.074195 J0.000004
G02 X13.502135 Y23.200848 Z-0.125000 I-0.202537 J0.060760
G02 X13.488887 Y23.168868 Z-0.125000 I-0.231791 J0.077284
G02 X13.469062 Y23.134701 Z-0.125000 I-0.284436 J0.142207
G02 X13.452002 Y23.096367 Z-0.125000 I-1.420003 J0.608996
G02 X13.435989 Y23.063045 Z-0.125000 I-1.071626 J0.494458
G03 X13.426927 Y23.024178 Z-0.125000 I0.391139 J-0.111681
G03 X13.424965 Y23.002409 Z-0.125000 I0.119515 J-0.021745
G01 X12.906823 Y23.680406 Z-0.125000
G00 Z5.000000

(End cutting path id: path2994)


(Start cutting path id: path2992)
(Change tool to Default tool)

G00 Z5.000000
G00 X9.687729 Y27.957777

G01 Z-0.125000 F100.0(Penetrate)
G03 X9.676193 Y27.985105 Z-0.125000 I-0.731885 J-0.292866 F400.000000
G03 X9.665679 Y28.007386 Z-0.125000 I-0.497861 J-0.221298
G02 X9.655164 Y28.029665 Z-0.125000 I0.486304 J0.243152
G02 X9.643629 Y28.056995 Z-0.125000 I0.714647 J0.317713
G01 X9.356997 Y27.395537 Z-0.125000
G03 X9.226152 Y27.062231 Z-0.125000 I7.980143 J-3.325068
G03 X9.108950 Y26.723055 Z-0.125000 I8.146456 J-3.004844
G02 X9.219176 Y26.711884 Z-0.125000 I-4.987763 J-49.764294
G02 X9.323924 Y26.701014 Z-0.125000 I-4.133803 J-40.343311
G02 X9.428441 Y26.688455 Z-0.125000 I-0.370062 J-3.521065
G02 X9.527874 Y26.673440 Z-0.125000 I-0.436987 J-3.230599
G01 X9.759384 Y26.640370 Z-0.125000
G03 X9.875470 Y26.614405 Z-0.125000 I1.006029 J4.225414
G03 X9.996407 Y26.590761 Z-0.125000 I0.950997 J4.543041
G03 X10.117693 Y26.574403 Z-0.125000 I5.150482 J37.732351
G03 X10.244454 Y26.557687 Z-0.125000 I6.345429 J47.628242
G02 X10.102320 Y26.905427 Z-0.125000 I50.927941 J21.018966
G02 X9.963334 Y27.252219 Z-0.125000 I50.490570 J20.436664
G01 X9.687726 Y27.957775 Z-0.125000
G00 Z5.000000

(End cutting path id: path2992)


(Start cutting path id: path2992)
(Change tool to Default tool)

G00 Z5.000000
G00 X8.734124 Y25.780472

G01 Z-0.125000 F100.0(Penetrate)
G02 X8.417238 Y25.112288 Z-0.125000 I-11.618431 J5.100801 F400.000000
G02 X8.061641 Y24.463068 Z-0.125000 I-11.323049 J5.779962
G02 X7.675098 Y23.840554 Z-0.125000 I-11.251341 J6.555142
G02 X7.256867 Y23.244884 Z-0.125000 I-10.719014 J7.081346
G01 X7.168673 Y23.123615 Z-0.125000
G02 X7.129145 Y23.063622 Z-0.125000 I-1.914308 J1.218245
G02 X7.085990 Y23.002347 Z-0.125000 I-2.038704 J1.390002
G01 X6.639506 Y23.812636 Z-0.125000
G03 X7.061007 Y24.364582 Z-0.125000 I-18.042858 J14.215585
G03 X7.455304 Y24.915066 Z-0.125000 I-17.552031 J12.988515
G03 X7.822301 Y25.483138 Z-0.125000 I-8.559360 J5.932265
G03 X8.160860 Y26.089153 Z-0.125000 I-9.404669 J5.651629
G03 X8.336619 Y26.439361 Z-0.125000 I-9.992100 J5.233958
G03 X8.497101 Y26.789197 Z-0.125000 I-9.812360 J4.712999
G03 X8.655801 Y27.142480 Z-0.125000 I-54.278248 J24.594758
G03 X8.811294 Y27.494752 Z-0.125000 I-53.798870 J23.957330
G01 X9.119974 Y28.211331 Z-0.125000
G02 X9.279891 Y28.566999 Z-0.125000 I11.336644 J-4.883434
G02 X9.450704 Y28.916887 Z-0.125000 I11.142986 J-5.223285
G02 X9.561892 Y29.058227 Z-0.125000 I0.480107 J-0.263283
G02 X9.638117 Y29.087764 Z-0.125000 I0.076235 J-0.083613
G02 X9.723398 Y29.061727 Z-0.125000 I0.011937 J-0.113581
G02 X9.842067 Y28.916887 Z-0.125000 I-0.323365 J-0.385970
G02 X10.117622 Y28.209212 Z-0.125000 I-45.050274 J-17.949237
G02 X10.376745 Y27.511288 Z-0.125000 I-43.562746 J-16.570900
G03 X10.642615 Y26.821753 Z-0.125000 I19.309758 J7.049404
G03 X10.938985 Y26.127738 Z-0.125000 I19.855988 J8.068955
G03 X11.282585 Y25.438541 Z-0.125000 I8.079829 J3.597962
G03 X11.672101 Y24.804822 Z-0.125000 I7.217924 J3.999932
G03 X12.099545 Y24.199168 Z-0.125000 I21.511785 J14.728426
G03 X12.554046 Y23.592149 Z-0.125000 I22.062932 J16.045782
G02 X12.572663 Y23.552176 Z-0.125000 I-0.231442 J-0.132115
G02 X12.592631 Y23.487417 Z-0.125000 I-0.589602 J-0.217255
G01 X12.592631 Y23.470879 Z-0.125000
G02 X12.603915 Y23.376899 Z-0.125000 I-0.846722 J-0.149332
G02 X12.603654 Y23.300002 Z-0.125000 I-0.566279 J-0.036532
G02 X12.594919 Y23.225629 Z-0.125000 I-0.321266 J0.000037
G02 X12.576093 Y23.184245 Z-0.125000 I-0.115181 J0.027423
G02 X12.546275 Y23.147707 Z-0.125000 I-0.300922 J0.215138
G02 X12.504435 Y23.107077 Z-0.125000 I-0.412585 J0.383018
G01 X12.493411 Y23.107077 Z-0.125000
G02 X12.466414 Y23.103260 Z-0.125000 I-0.021276 J0.053092
G02 X12.438290 Y23.112581 Z-0.125000 I0.006795 J0.067594
G03 X12.415722 Y23.122281 Z-0.125000 I-0.096427 J-0.193225
G03 X12.377656 Y23.134622 Z-0.125000 I-0.192455 J-0.528763
G02 X11.929215 Y23.692884 Z-0.125000 I17.176984 J14.257195
G02 X11.512248 Y24.248076 Z-0.125000 I16.574799 J12.882360
G02 X11.124707 Y24.828466 Z-0.125000 I8.270625 J5.942091
G02 X10.768107 Y25.449728 Z-0.125000 I9.121877 J5.648862
G01 X10.701962 Y25.582019 Z-0.125000
G03 X10.651770 Y25.675407 Z-0.125000 I-7.578830 J-4.013075
G03 X10.602743 Y25.763920 Z-0.125000 I-6.841977 J-3.731926
G02 X10.558643 Y25.857624 Z-0.125000 I1151.586683 J540.568610
G02 X10.514549 Y25.951333 Z-0.125000 I1543.675136 J729.064259
G01 X10.492498 Y25.951333 Z-0.125000
G03 X10.437426 Y25.949973 Z-0.125000 I0.000086 J-1.119437
G03 X10.376743 Y25.945829 Z-0.125000 I0.079361 J-1.608665
G03 X10.316170 Y25.944334 Z-0.125000 I0.000086 J-1.231073
G03 X10.260988 Y25.940326 Z-0.125000 I0.058729 J-1.190465
G01 X10.211379 Y25.940326 Z-0.125000
G02 X10.178269 Y25.935026 Z-0.125000 I-0.449043 J2.699093
G02 X10.139721 Y25.929291 Z-0.125000 I-0.602344 J3.916433
G02 X10.101130 Y25.929289 Z-0.125000 I-0.019196 J351.794236
G02 X10.062550 Y25.929291 Z-0.125000 I-0.019377 J351.585878
G01 X10.012941 Y25.929291 Z-0.125000
G02 X9.935607 Y25.919762 Z-0.125000 I-0.281752 J1.967992
G02 X9.853089 Y25.912753 Z-0.125000 I-0.233061 J2.254609
G03 X9.770604 Y25.909912 Z-0.125000 I0.000061 J-1.200593
G03 X9.693236 Y25.901718 Z-0.125000 I0.072883 J-1.057539
G02 X9.715201 Y25.898977 Z-0.125000 I-0.000010 J-0.089459
G01 X9.715286 Y25.896215 Z-0.125000
G02 X9.664746 Y25.877066 Z-0.125000 I-0.195616 J0.440036
G02 X9.610555 Y25.863141 Z-0.125000 I-0.154736 J0.489759
G03 X9.555630 Y25.856277 Z-0.125000 I0.110748 J-1.109352
G03 X9.500312 Y25.846603 Z-0.125000 I0.174061 J-1.158305
G03 X9.375424 Y25.834923 Z-0.125000 I0.000022 J-0.673766
G03 X9.208168 Y25.791479 Z-0.125000 I0.236939 J-1.255890
G02 X9.042413 Y25.743219 Z-0.125000 I-3.049588 J10.165312
G02 X8.739635 Y25.659187 Z-0.125000 I-9.553491 J33.835264
G01 X8.734123 Y25.780455 Z-0.125000
G00 Z5.000000

(End cutting path id: path2992)


(Footer)
M5
G00 X0.0000 Y0.0000
M2
(Using default footer. To add your own footer create file "footer" in the output dir.)
(end)
%