%
(Header)
(Generated by gcodetools from Inkscape.)
(Using default header. To add your own header create file "header" in the output dir.)
M3
(Header end.)
G21 (All units in mm)

(Start cutting path id: path3512)
(Change tool to Default tool)

G00 Z5.000000
G00 X32.005482 Y13.339855

G01 Z-1.000000 F100.0(Penetrate)
G02 X31.600117 Y13.419250 Z-1.000000 I0.000000 J1.074537 F400.000000
G01 X31.332781 Y13.613850 Z-1.000000
G01 X31.174379 Y13.910034 Z-1.000000
G02 X31.111618 Y14.320963 Z-1.000000 I1.313813 J0.410915
G02 X31.150935 Y14.702157 Z-1.000000 I1.867383 J0.000021
G02 X31.277490 Y15.116441 Z-1.000000 I2.335522 J-0.486984
G02 X31.473675 Y15.504139 Z-1.000000 I2.482419 J-1.012681
G02 X31.710600 Y15.823553 Z-1.000000 I1.915915 J-1.173549
G02 X31.013829 Y15.669950 Z-1.000000 I-1.687838 J5.999191
G02 X30.503423 Y15.629106 Z-1.000000 I-0.510407 J3.168733
G01 X30.439184 Y15.632998 Z-1.000000
G02 X29.922874 Y15.699809 Z-1.000000 I4.088652 J33.624804
G02 X29.657005 Y14.917559 Z-1.000000 I-1.283735 J0.000006
G02 X28.734129 Y14.153023 Z-1.000000 I-2.141622 J1.645890
G02 X28.389820 Y14.013406 Z-1.000000 I-1.531364 J3.282154
G01 X28.301021 Y14.002772 Z-1.000000
G01 X28.236515 Y14.011617 Z-1.000000
G01 X28.279643 Y14.091161 Z-1.000000
G01 X28.457677 Y14.223726 Z-1.000000
G02 X28.654215 Y14.342150 Z-1.000000 I2.317207 J-3.623346
G02 X28.863141 Y14.453552 Z-1.000000 I2.266831 J-3.999663
G01 X29.054566 Y14.591550 Z-1.000000
G03 X29.250173 Y14.815939 Z-1.000000 I-1.005811 J1.074249
G01 X29.385187 Y15.088119 Z-1.000000
G03 X29.434476 Y15.416970 Z-1.000000 I-1.072459 J0.328865
G01 X29.402423 Y15.628246 Z-1.000000
G01 X29.305464 Y15.832398 Z-1.000000
G02 X29.181016 Y16.028221 Z-1.000000 I4.916509 J3.261957
G01 X29.176454 Y16.044507 Z-1.000000
G01 X29.202498 Y16.108084 Z-1.000000
G01 X29.333110 Y16.203603 Z-1.000000
G02 X29.493756 Y16.276800 Z-1.000000 I0.503923 J-0.893070
G01 X29.581917 Y16.291995 Z-1.000000
G01 X29.634870 Y16.282185 Z-1.000000
G02 X29.812293 Y16.203603 Z-1.000000 I-0.687522 J-1.791862
G02 X29.996442 Y16.123737 Z-1.000000 I-21.169335 J-49.062910
G01 X30.015025 Y16.115238 Z-1.000000
G03 X30.501907 Y15.981575 Z-1.000000 I1.023070 J2.773060
G03 X30.973392 Y15.938453 Z-1.000000 I0.471485 J2.555967
G03 X31.522529 Y15.996578 Z-1.000000 I0.000000 J2.623020
G03 X32.005482 Y16.159406 Z-1.000000 I-0.467895 J2.185432
G02 X32.284248 Y16.281801 Z-1.000000 I1.965889 J-4.098861
G01 X32.337224 Y16.291995 Z-1.000000
G01 X32.373449 Y16.289072 Z-1.000000
G01 X32.392514 Y16.283150 Z-1.000000
G01 X32.398510 Y16.273009 Z-1.000000
G01 X32.401736 Y16.247799 Z-1.000000
G01 X32.398982 Y16.240099 Z-1.000000
G02 X32.199004 Y16.000311 Z-1.000000 I-13.299915 J10.888525
G03 X32.020659 Y15.751703 Z-1.000000 I2.012364 J-1.631889
G03 X31.802756 Y15.372773 Z-1.000000 I4.471662 J-2.823545
G03 X31.647650 Y14.980794 Z-1.000000 I1.645763 J-0.877908
G03 X31.600025 Y14.621464 Z-1.000000 I1.331630 J-0.359313
G03 X31.642792 Y14.269847 Z-1.000000 I1.466656 J-0.000017
G03 X31.765894 Y13.949731 Z-1.000000 I1.335008 J0.329653
G01 X31.987985 Y13.731010 Z-1.000000
G01 X32.300370 Y13.649202 Z-1.000000
G01 X32.348877 Y13.665384 Z-1.000000
G03 X32.512317 Y13.808325 Z-1.000000 I-0.874658 J1.165003
G02 X32.675324 Y13.969318 Z-1.000000 I2.048210 J-1.910802
G02 X32.871706 Y14.135333 Z-1.000000 I2.372625 J-2.607461
G01 X33.095820 Y14.268304 Z-1.000000
G01 X33.267953 Y14.303273 Z-1.000000
G01 X33.325649 Y14.287332 Z-1.000000
G01 X33.341672 Y14.259077 Z-1.000000
G01 X33.318823 Y14.201097 Z-1.000000
G01 X33.185016 Y14.091164 Z-1.000000
G03 X33.030033 Y14.000526 Z-1.000000 I2.848346 J-5.048214
G01 X33.009931 Y13.985082 Z-1.000000
G02 X32.824704 Y13.782652 Z-1.000000 I-22.314158 J20.231760
G02 X32.724262 Y13.675736 Z-1.000000 I-6.272848 J5.792443
G01 X32.614262 Y13.580973 Z-1.000000
G02 X32.410951 Y13.454755 Z-1.000000 I-1.175610 J1.666803
G01 X32.201050 Y13.367032 Z-1.000000
G01 X32.005488 Y13.339855 Z-1.000000
G00 Z5.000000

(End cutting path id: path3512)


(Start cutting path id: path3510)
(Change tool to Default tool)

G00 Z5.000000
G00 X28.724914 Y14.276767

G01 Z-1.000000 F100.0(Penetrate)
G01 X28.724914 Y14.250232 Z-1.000000 F400.000000
G01 X28.689801 Y14.176205 Z-1.000000
G01 X28.476106 Y14.046941 Z-1.000000
G03 X28.081019 Y13.902391 Z-1.000000 I8.906405 J-24.955537
G03 X27.674395 Y13.746411 Z-1.000000 I10.046384 J-26.797926
G02 X27.264929 Y13.609202 Z-1.000000 I-2.379191 J6.420518
G02 X26.762102 Y13.472417 Z-1.000000 I-2.862507 J9.530030
G02 X26.251786 Y13.366908 Z-1.000000 I-1.268932 J4.850612
G02 X25.895885 Y13.339828 Z-1.000000 I-0.355901 J2.325139
G02 X25.317539 Y13.435073 Z-1.000000 I-0.000000 J1.803543
G01 X24.955948 Y13.658019 Z-1.000000
G02 X24.718564 Y14.013414 Z-1.000000 I0.811451 J0.798979
G02 X24.559699 Y14.594930 Z-1.000000 I2.086684 J0.882522
G03 X24.496220 Y14.532050 Z-1.000000 I1.907298 J-1.988958
G03 X24.421473 Y14.453524 Z-1.000000 I2.940967 J-2.874262
G02 X24.355654 Y14.384068 Z-1.000000 I-1.849912 J1.687127
G02 X24.264817 Y14.294429 Z-1.000000 I-3.156327 J3.107659
G02 X24.178808 Y14.218676 Z-1.000000 I-0.932527 J0.972084
G02 X24.089730 Y14.152995 Z-1.000000 I-0.787585 J0.974888
G01 X24.003709 Y14.096451 Z-1.000000
G01 X23.905429 Y14.046941 Z-1.000000
G01 X23.801946 Y14.012895 Z-1.000000
G01 X23.711912 Y14.002744 Z-1.000000
G01 X23.657064 Y14.005706 Z-1.000000
G01 X23.628977 Y14.011589 Z-1.000000
G01 X23.675078 Y14.112665 Z-1.000000
G01 X23.748773 Y14.179502 Z-1.000000
G01 X23.845401 Y14.239119 Z-1.000000
G01 X23.933074 Y14.312091 Z-1.000000
G03 X24.021921 Y14.394953 Z-1.000000 I-1.035364 J1.199192
G03 X24.117376 Y14.497720 Z-1.000000 I-1.492281 J1.481820
G02 X24.221742 Y14.609498 Z-1.000000 I2.036193 J-1.796564
G01 X24.283247 Y14.665633 Z-1.000000
G01 X24.532054 Y14.851263 Z-1.000000
G01 X24.559703 Y14.884097 Z-1.000000
G01 X24.596560 Y14.983852 Z-1.000000
G02 X24.670883 Y15.196278 Z-1.000000 I1.196527 J-0.299426
G02 X24.790076 Y15.408097 Z-1.000000 I1.308170 J-0.596674
G02 X25.284727 Y15.885578 Z-1.000000 I1.474216 J-1.032269
G02 X26.043326 Y16.221264 Z-1.000000 I1.426385 J-2.198407
G02 X26.341692 Y16.274511 Z-1.000000 I0.454648 J-1.685062
G02 X26.927974 Y16.300812 Z-1.000000 I0.586281 J-6.521132
G02 X27.130590 Y16.297908 Z-1.000000 I0.000000 J-7.069912
G02 X27.241286 Y16.291967 Z-1.000000 I-0.063666 J-2.220590
G01 X27.350717 Y16.276852 Z-1.000000
G02 X27.508524 Y16.238954 Z-1.000000 I-0.397410 J-2.002278
G01 X27.648482 Y16.179814 Z-1.000000
G01 X27.738900 Y16.088676 Z-1.000000
G01 X27.791306 Y15.975931 Z-1.000000
G01 X27.812621 Y15.814681 Z-1.000000
G01 X27.739204 Y15.476212 Z-1.000000
G01 X27.526954 Y15.187144 Z-1.000000
G02 X27.340378 Y15.035771 Z-1.000000 I-1.003181 J1.045813
G02 X27.112275 Y14.904276 Z-1.000000 I-0.981216 J1.438514
G02 X26.868150 Y14.813060 Z-1.000000 I-0.892460 J2.016231
G02 X26.623876 Y14.754026 Z-1.000000 I-0.602862 J1.959636
G02 X26.374347 Y14.715084 Z-1.000000 I-1.052498 J5.925227
G02 X26.098617 Y14.683323 Z-1.000000 I-0.967338 J7.185044
G02 X25.821902 Y14.665437 Z-1.000000 I-0.425422 J4.432368
G02 X25.573358 Y14.665633 Z-1.000000 I-0.121408 J3.633309
G03 X25.324548 Y14.669985 Z-1.000000 I-0.248809 J-7.110251
G03 X25.075744 Y14.665633 Z-1.000000 I0.000000 J-7.114356
G03 X25.184418 Y14.306815 Z-1.000000 I1.062219 J0.125845
G03 X25.435132 Y13.958548 Z-1.000000 I1.249331 J0.635005
G03 X25.789289 Y13.717451 Z-1.000000 I0.835957 J0.847306
G01 X26.153907 Y13.640357 Z-1.000000
G03 X26.510793 Y13.662415 Z-1.000000 I0.000000 J2.898125
G03 X26.937189 Y13.737567 Z-1.000000 I-0.522947 J4.214318
G03 X27.357100 Y13.847946 Z-1.000000 I-1.536736 J6.700069
G03 X27.711255 Y13.967393 Z-1.000000 I-1.451373 J4.888003
G02 X28.063267 Y14.103857 Z-1.000000 I5.048571 J-12.500659
G02 X28.448461 Y14.241388 Z-1.000000 I5.525702 J-14.868114
G02 X28.598041 Y14.292587 Z-1.000000 I0.453648 J-1.081234
G01 X28.678838 Y14.303246 Z-1.000000
G01 X28.695472 Y14.298798 Z-1.000000
G01 X28.724914 Y14.276711 Z-1.000000
G00 Z5.000000

(End cutting path id: path3510)


(Start cutting path id: path3510)
(Change tool to Default tool)

G00 Z5.000000
G00 X27.324222 Y15.576010

G01 Z-1.000000 F100.0(Penetrate)
G01 X27.270775 Y15.789068 Z-1.000000 F400.000000
G01 X27.149136 Y15.903046 Z-1.000000
G01 X26.976420 Y15.964059 Z-1.000000
G03 X26.688382 Y15.991438 Z-1.000000 I-0.288038 J-1.501423
G01 X26.218413 Y15.991438 Z-1.000000
G03 X25.748611 Y15.914343 Z-1.000000 I-0.000000 J-1.469978
G03 X25.379841 Y15.708599 Z-1.000000 I0.369616 J-1.095847
G01 X25.138876 Y15.391830 Z-1.000000
G03 X25.048098 Y14.966135 Z-1.000000 I0.952728 J-0.425691
G01 X26.338209 Y14.983824 Z-1.000000
G03 X26.558980 Y14.989346 Z-1.000000 I0.000822 J4.383413
G03 X26.688382 Y15.001514 Z-1.000000 I-0.074887 J1.490546
G03 X26.825080 Y15.026123 Z-1.000000 I-0.178286 J1.382282
G03 X26.992479 Y15.072217 Z-1.000000 I-0.481945 J2.077320
G01 X27.142004 Y15.146969 Z-1.000000
G01 X27.241286 Y15.249002 Z-1.000000
G01 X27.300787 Y15.388315 Z-1.000000
G01 X27.324222 Y15.576038 Z-1.000000
G00 Z5.000000

(End cutting path id: path3510)


(Start cutting path id: path3508)
(Change tool to Default tool)

G00 Z5.000000
G00 X22.799621 Y13.339855

G01 Z-1.000000 F100.0(Penetrate)
G01 X22.340584 Y13.489024 Z-1.000000 F400.000000
G01 X22.191426 Y13.781791 Z-1.000000
G02 X22.237738 Y14.089681 Z-1.000000 I1.046516 J0.000014
G02 X22.477094 Y14.709857 Z-1.000000 I4.559821 J-1.403575
G03 X22.725242 Y15.330437 Z-1.000000 I-4.303035 J2.080535
G01 X22.771976 Y15.629106 Z-1.000000
G01 X22.653506 Y15.873011 Z-1.000000
G01 X22.311222 Y15.991494 Z-1.000000
G01 X22.117087 Y15.963433 Z-1.000000
G01 X21.951834 Y15.885411 Z-1.000000
G01 X21.821238 Y15.772982 Z-1.000000
G01 X21.721457 Y15.629106 Z-1.000000
G03 X21.652723 Y15.468007 Z-1.000000 I2.597359 J-1.203392
G03 X21.583231 Y15.275536 Z-1.000000 I3.639085 J-1.422678
G03 X21.536828 Y15.088171 Z-1.000000 I1.979437 J-0.589664
G03 X21.509511 Y14.904304 Z-1.000000 I1.878763 J-0.373092
G02 X21.494736 Y14.728230 Z-1.000000 I-2.792860 J0.145691
G02 X21.472651 Y14.586113 Z-1.000000 I-1.838524 J0.212943
G02 X21.450738 Y14.436415 Z-1.000000 I-3.228867 J0.396177
G02 X21.398930 Y14.153023 Z-1.000000 I-11.621911 J1.978235
G01 X21.392314 Y14.108464 Z-1.000000
G03 X21.371286 Y13.843676 Z-1.000000 I13.413445 J-1.198479
G02 X21.349201 Y13.579530 Z-1.000000 I-9.439846 J0.656271
G01 X21.343639 Y13.560837 Z-1.000000
G01 X21.297842 Y13.508013 Z-1.000000
G01 X21.168553 Y13.419403 Z-1.000000
G01 X21.026248 Y13.344951 Z-1.000000
G01 X20.956606 Y13.331011 Z-1.000000
G01 X20.889428 Y13.356000 Z-1.000000
G01 X20.864455 Y13.410558 Z-1.000000
G02 X20.878372 Y13.869326 Z-1.000000 I7.567292 J0.000036
G02 X20.919746 Y14.320963 Z-1.000000 I7.375200 J-0.447911
G01 X20.932186 Y14.399977 Z-1.000000
G02 X21.002681 Y14.736391 Z-1.000000 I17.761937 J-3.546395
G03 X21.072022 Y15.073921 Z-1.000000 I-4.239640 J1.046862
G03 X21.085617 Y15.240185 Z-1.000000 I-1.010098 J0.166280
G01 X20.884797 Y15.799493 Z-1.000000
G01 X20.458992 Y16.000311 Z-1.000000
G01 X20.327092 Y15.950092 Z-1.000000
G01 X20.200970 Y15.770512 Z-1.000000
G03 X20.133314 Y15.545782 Z-1.000000 I1.650310 J-0.619384
G03 X20.081174 Y15.249029 Z-1.000000 I2.831475 J-0.650452
G02 X20.017993 Y14.965282 Z-1.000000 I-1.546569 J0.195461
G02 X19.878442 Y14.621464 Z-1.000000 I-2.417189 J0.780873
G02 X19.682592 Y14.330937 Z-1.000000 I-1.082923 J0.518743
G02 X19.426903 Y14.126516 Z-1.000000 I-0.774351 J0.706435
G02 X19.183157 Y14.019865 Z-1.000000 I-0.949558 J1.838318
G01 X19.085945 Y14.002772 Z-1.000000
G01 X19.058301 Y14.002772 Z-1.000000
G01 X19.030494 Y14.010529 Z-1.000000
G01 X19.021441 Y14.011617 Z-1.000000
G01 X19.070088 Y14.101941 Z-1.000000
G01 X19.196528 Y14.206064 Z-1.000000
G01 X19.329219 Y14.316608 Z-1.000000
G01 X19.408474 Y14.427017 Z-1.000000
G03 X19.490995 Y14.636669 Z-1.000000 I-1.153625 J0.575141
G03 X19.583561 Y15.019231 Z-1.000000 I-3.770219 J1.114734
G02 X19.677812 Y15.410486 Z-1.000000 I3.726695 J-0.690759
G02 X19.786293 Y15.699809 Z-1.000000 I2.140861 J-0.637709
G01 X19.965504 Y15.951128 Z-1.000000
G02 X20.247046 Y16.150589 Z-1.000000 I0.766475 J-0.783456
G02 X20.523350 Y16.255479 Z-1.000000 I0.559215 J-1.056727
G02 X20.827596 Y16.291995 Z-1.000000 I0.304246 J-1.249217
G02 X21.140512 Y16.259976 Z-1.000000 I-0.000000 J-1.545045
G01 X21.297565 Y16.194785 Z-1.000000
G01 X21.421732 Y16.079798 Z-1.000000
G02 X21.546372 Y15.823553 Z-1.000000 I-0.861945 J-0.577692
G02 X22.092794 Y16.179432 Z-1.000000 I1.212238 J-1.263857
G02 X22.707471 Y16.300840 Z-1.000000 I0.614677 J-1.495330
G01 X23.115215 Y16.155691 Z-1.000000
G01 X23.260376 Y15.850060 Z-1.000000
G02 X23.212794 Y15.533760 Z-1.000000 I-1.075219 J0.000020
G02 X22.974709 Y14.921994 Z-1.000000 I-4.328869 J1.332482
G03 X22.737476 Y14.310024 Z-1.000000 I4.016067 J-1.908813
G03 X22.689041 Y13.985082 Z-1.000000 I1.065665 J-0.324924
G01 X22.719085 Y13.839593 Z-1.000000
G01 X22.799622 Y13.728777 Z-1.000000
G01 X22.927472 Y13.664881 Z-1.000000
G01 X23.094505 Y13.640385 Z-1.000000
G01 X23.126549 Y13.651864 Z-1.000000
G03 X23.288021 Y13.799480 Z-1.000000 I-1.321346 J1.607500
G02 X23.450993 Y13.960552 Z-1.000000 I2.066433 J-1.927829
G02 X23.656624 Y14.135333 Z-1.000000 I2.634632 J-2.891304
G01 X23.881100 Y14.267277 Z-1.000000
G01 X24.062087 Y14.303273 Z-1.000000
G01 X24.098948 Y14.294429 Z-1.000000
G01 X24.117379 Y14.250232 Z-1.000000
G01 X24.081134 Y14.184171 Z-1.000000
G01 X23.969938 Y14.099954 Z-1.000000
G03 X23.845841 Y14.031951 Z-1.000000 I0.564516 J-1.177415
G01 X23.813281 Y14.002744 Z-1.000000
G02 X23.618933 Y13.791373 Z-1.000000 I-26.837401 J24.481041
G02 X23.518399 Y13.684553 Z-1.000000 I-7.010086 J6.496851
G01 X23.418598 Y13.596972 Z-1.000000
G02 X23.214301 Y13.463572 Z-1.000000 I-1.436497 J1.976797
G02 X22.994643 Y13.368302 Z-1.000000 I-0.507344 J0.868897
G01 X22.799623 Y13.339828 Z-1.000000
G00 Z5.000000

(End cutting path id: path3508)


(Start cutting path id: path3506)
(Change tool to Default tool)

G00 Z5.000000
G00 X19.509839 Y14.232570

G01 Z-1.000000 F100.0(Penetrate)
G02 X19.192033 Y13.911869 Z-1.000000 I-1.290566 J0.961095 F400.000000
G02 X18.671267 Y13.596188 Z-1.000000 I-1.769378 J2.331491
G02 X18.105634 Y13.397538 Z-1.000000 I-1.310084 J2.825699
G02 X17.629963 Y13.339855 Z-1.000000 I-0.475671 J1.932424
G02 X17.345175 Y13.379021 Z-1.000000 I0.000000 J1.054977
G02 X17.030983 Y13.507796 Z-1.000000 I0.397217 J1.416834
G01 X16.797503 Y13.717421 Z-1.000000
G01 X16.726886 Y13.940886 Z-1.000000
G01 X16.754373 Y14.033420 Z-1.000000
G01 X16.865112 Y14.153023 Z-1.000000
G01 X17.020463 Y14.244886 Z-1.000000
G01 X17.132349 Y14.267922 Z-1.000000
G01 X17.159993 Y14.259077 Z-1.000000
G01 X17.187637 Y14.250232 Z-1.000000
G01 X17.514598 Y13.812570 Z-1.000000
G01 X18.063069 Y13.640357 Z-1.000000
G01 X18.342466 Y13.722046 Z-1.000000
G01 X18.533038 Y13.940858 Z-1.000000
G03 X18.641204 Y14.250508 Z-1.000000 I-1.229888 J0.603338
G03 X18.680479 Y14.612620 Z-1.000000 I-1.649919 J0.362139
G03 X18.487353 Y15.382978 Z-1.000000 I-1.633044 J-0.000011
G03 X17.961703 Y15.956114 Z-1.000000 I-1.380702 J-0.738689
G03 X17.204379 Y16.305677 Z-1.000000 I-1.506618 J-2.268925
G03 X16.293775 Y16.433401 Z-1.000000 I-0.910605 J-3.182203
G03 X16.186249 Y15.088309 Z-1.000000 I29.495784 J-3.034707
G03 X16.155548 Y14.011589 Z-1.000000 I18.864273 J-1.076683
G03 X16.228945 Y12.390866 Z-1.000000 I17.930410 J-0.000024
G03 X16.514936 Y10.051807 Z-1.000000 I37.673346 J3.419227
G01 X16.498177 Y10.002750 Z-1.000000
G01 X16.349065 Y9.892712 Z-1.000000
G02 X16.179482 Y9.809162 Z-1.000000 I-0.660907 J1.127579
G01 X16.109473 Y9.795502 Z-1.000000
G01 X16.100564 Y9.796913 Z-1.000000
G01 X16.081829 Y9.804347 Z-1.000000
G01 X16.063090 Y9.811782 Z-1.000000
G01 X16.054185 Y9.813192 Z-1.000000
G01 X16.018441 Y9.905110 Z-1.000000
G02 X15.962035 Y10.157917 Z-1.000000 I3.001770 J0.802454
G02 X15.919267 Y10.414753 Z-1.000000 I9.953652 J1.789430
G02 X15.869884 Y10.758948 Z-1.000000 I17.850796 J2.736782
G02 X15.833729 Y11.103718 Z-1.000000 I83.967388 J8.979577
G02 X15.805378 Y11.386485 Z-1.000000 I56.476173 J5.805241
G01 X15.750088 Y11.952164 Z-1.000000
G01 X15.731657 Y12.235004 Z-1.000000
G02 X15.724495 Y12.350045 Z-1.000000 I3.220512 J0.258242
G02 X15.713225 Y12.650432 Z-1.000000 I21.952407 J0.973957
G03 X15.700895 Y12.941929 Z-1.000000 I-13.641009 J-0.431000
G03 X15.685581 Y13.171915 Z-1.000000 I-8.510121 J-0.451147
G03 X15.669254 Y13.401051 Z-1.000000 I-3.695818 J-0.148204
G03 X15.630291 Y13.711088 Z-1.000000 I-6.811013 J-0.698486
G03 X15.572497 Y14.026505 Z-1.000000 I-4.241704 J-0.614207
G03 X15.510495 Y14.250260 Z-1.000000 I-2.194072 J-0.487502
G03 X15.420249 Y14.471770 Z-1.000000 I-1.491817 J-0.478648
G03 X15.298548 Y14.674505 Z-1.000000 I-1.368836 J-0.683806
G01 X15.140147 Y14.853890 Z-1.000000
G01 X14.966806 Y14.966190 Z-1.000000
G01 X14.873611 Y14.995857 Z-1.000000
G01 X14.828579 Y15.001541 Z-1.000000
G01 X14.775182 Y14.993210 Z-1.000000
G01 X14.662708 Y14.948500 Z-1.000000
G01 X14.558961 Y14.905171 Z-1.000000
G01 X14.496837 Y14.895487 Z-1.000000
G01 X14.441988 Y14.898448 Z-1.000000
G01 X14.413901 Y14.904332 Z-1.000000
G01 X14.482783 Y15.031384 Z-1.000000
G01 X14.717999 Y15.187199 Z-1.000000
G02 X15.008628 Y15.286967 Z-1.000000 I0.783435 J-1.808988
G01 X15.197183 Y15.310915 Z-1.000000
G01 X15.459338 Y15.243784 Z-1.000000
G01 X15.713227 Y15.028076 Z-1.000000
G02 X15.752884 Y15.793938 Z-1.000000 I7.414762 J0.000017
G02 X15.943604 Y17.246624 Z-1.000000 I26.920722 J-2.795501
G02 X16.247455 Y18.677997 Z-1.000000 I13.771517 J-2.175477
G02 X16.459648 Y19.173459 Z-1.000000 I1.827096 J-0.489325
G02 X16.653423 Y19.420228 Z-1.000000 I1.108707 J-0.671144
G02 X16.929617 Y19.641929 Z-1.000000 I1.166369 J-1.170169
G02 X17.255900 Y19.790827 Z-1.000000 I0.745126 J-1.200863
G02 X17.556242 Y19.836376 Z-1.000000 I0.300476 J-0.968314
G02 X18.115810 Y19.727144 Z-1.000000 I-0.000101 J-1.488396
G02 X18.514610 Y19.447454 Z-1.000000 I-0.408485 J-1.006606
G02 X18.767982 Y19.029605 Z-1.000000 I-0.907222 J-0.835858
G02 X18.864783 Y18.475191 Z-1.000000 I-1.539366 J-0.554430
G02 X18.528996 Y17.450066 Z-1.000000 I-1.732726 J0.000008
G02 X17.528597 Y16.654410 Z-1.000000 I-1.961366 J1.439335
G02 X18.220476 Y16.373212 Z-1.000000 I-0.850502 J-3.084403
G02 X18.717342 Y16.000338 Z-1.000000 I-1.067150 J-1.939495
G02 X19.046285 Y15.506864 Z-1.000000 I-1.003409 J-1.025231
G02 X19.168880 Y14.868980 Z-1.000000 I-1.598304 J-0.637902
G02 X19.111885 Y14.432972 Z-1.000000 I-1.696418 J0.000026
G02 X18.938503 Y14.002800 Z-1.000000 I-1.823898 J0.485099
G02 X19.271658 Y14.253931 Z-1.000000 I1.220234 J-1.272228
G01 X19.454548 Y14.303301 Z-1.000000
G01 X19.505949 Y14.290103 Z-1.000000
G01 X19.519053 Y14.267950 Z-1.000000
G01 X19.509837 Y14.250260 Z-1.000000
G01 X19.509837 Y14.232570 Z-1.000000
G00 Z5.000000

(End cutting path id: path3506)


(Start cutting path id: path3506)
(Change tool to Default tool)

G00 Z5.000000
G00 X18.376383 Y18.218859

G01 Z-1.000000 F100.0(Penetrate)
G03 X18.291273 Y18.718462 Z-1.000000 I-1.509014 J-0.000016 F400.000000
G03 X18.053855 Y19.138080 Z-1.000000 I-1.288759 J-0.452200
G03 X17.688369 Y19.428302 Z-1.000000 I-0.795756 J-0.626876
G03 X17.206068 Y19.535819 Z-1.000000 I-0.482301 J-1.027999
G01 X16.953145 Y19.374475 Z-1.000000
G03 X16.561013 Y18.148128 Z-1.000000 I4.658304 J-2.165386
G03 X16.425476 Y17.352202 Z-1.000000 I117.776270 J-20.465433
G03 X16.376712 Y17.043304 Z-1.000000 I17.689642 J-2.950905
G01 X16.375666 Y17.025546 Z-1.000000
G02 X16.321421 Y16.574835 Z-1.000000 I-99.684960 J11.768777
G01 X16.524153 Y16.689734 Z-1.000000
G01 X16.581869 Y16.707884 Z-1.000000
G02 X16.957261 Y16.760465 Z-1.000000 I1.344831 J-8.234874
G03 X17.334419 Y16.808350 Z-1.000000 I-2.218183 J18.980081
G01 X17.408800 Y16.822323 Z-1.000000
G03 X17.827838 Y17.016742 Z-1.000000 I-0.334200 J1.269108
G03 X18.127576 Y17.326144 Z-1.000000 I-0.654786 J0.934222
G03 X18.310134 Y17.734415 Z-1.000000 I-1.271679 J0.813579
G03 X18.376383 Y18.218859 Z-1.000000 I-1.738247 J0.484463
G00 Z5.000000

(End cutting path id: path3506)


(Start cutting path id: path3504)
(Change tool to Default tool)

G00 Z5.000000
G00 X14.902301 Y14.276767

G01 Z-1.000000 F100.0(Penetrate)
G01 X14.902301 Y14.250232 Z-1.000000 F400.000000
G01 X14.867188 Y14.176204 Z-1.000000
G01 X14.653494 Y14.046941 Z-1.000000
G03 X14.258406 Y13.902391 Z-1.000000 I8.906405 J-24.955537
G03 X13.851782 Y13.746411 Z-1.000000 I10.046384 J-26.797926
G02 X13.442317 Y13.609202 Z-1.000000 I-2.379185 J6.420502
G02 X12.939490 Y13.472417 Z-1.000000 I-2.862516 J9.530065
G02 X12.429174 Y13.366908 Z-1.000000 I-1.268933 J4.850615
G02 X12.073273 Y13.339828 Z-1.000000 I-0.355901 J2.325136
G02 X11.494926 Y13.435072 Z-1.000000 I0.000000 J1.803544
G01 X11.133335 Y13.658019 Z-1.000000
G02 X10.895952 Y14.013414 Z-1.000000 I0.811454 J0.798980
G02 X10.737087 Y14.594930 Z-1.000000 I2.086677 J0.882519
G03 X10.673607 Y14.532050 Z-1.000000 I1.907423 J-1.989088
G03 X10.598861 Y14.453524 Z-1.000000 I2.940732 J-2.874044
G02 X10.533042 Y14.384068 Z-1.000000 I-1.849686 J1.686910
G02 X10.442204 Y14.294429 Z-1.000000 I-3.156478 J3.107816
G02 X10.356196 Y14.218676 Z-1.000000 I-0.932504 J0.972055
G02 X10.267118 Y14.152995 Z-1.000000 I-0.787582 J0.974884
G01 X10.181097 Y14.096451 Z-1.000000
G01 X10.082816 Y14.046941 Z-1.000000
G01 X9.979334 Y14.012895 Z-1.000000
G01 X9.889300 Y14.002744 Z-1.000000
G01 X9.834451 Y14.005706 Z-1.000000
G01 X9.806364 Y14.011589 Z-1.000000
G01 X9.852466 Y14.112665 Z-1.000000
G01 X9.926160 Y14.179502 Z-1.000000
G01 X10.022788 Y14.239119 Z-1.000000
G01 X10.110462 Y14.312091 Z-1.000000
G03 X10.199308 Y14.394953 Z-1.000000 I-1.035407 J1.199237
G03 X10.294763 Y14.497720 Z-1.000000 I-1.492209 J1.481751
G02 X10.399129 Y14.609498 Z-1.000000 I2.036270 J-1.796639
G01 X10.460634 Y14.665633 Z-1.000000
G01 X10.709442 Y14.851263 Z-1.000000
G01 X10.737091 Y14.884097 Z-1.000000
G01 X10.773947 Y14.983852 Z-1.000000
G02 X10.848271 Y15.196278 Z-1.000000 I1.196524 J-0.299425
G02 X10.967464 Y15.408097 Z-1.000000 I1.308162 J-0.596670
G02 X11.462114 Y15.885578 Z-1.000000 I1.474214 J-1.032266
G02 X12.220714 Y16.221264 Z-1.000000 I1.426385 J-2.198409
G02 X12.519080 Y16.274511 Z-1.000000 I0.454648 J-1.685062
G02 X13.105361 Y16.300812 Z-1.000000 I0.586281 J-6.521126
G02 X13.307978 Y16.297908 Z-1.000000 I0.000000 J-7.069927
G02 X13.418674 Y16.291967 Z-1.000000 I-0.063665 J-2.220567
G01 X13.528105 Y16.276852 Z-1.000000
G02 X13.685911 Y16.238954 Z-1.000000 I-0.397405 J-2.002255
G01 X13.825870 Y16.179814 Z-1.000000
G01 X13.916288 Y16.088676 Z-1.000000
G01 X13.968694 Y15.975931 Z-1.000000
G01 X13.990008 Y15.814681 Z-1.000000
G01 X13.916591 Y15.476212 Z-1.000000
G01 X13.704341 Y15.187144 Z-1.000000
G02 X13.517765 Y15.035771 Z-1.000000 I-1.003181 J1.045813
G02 X13.289663 Y14.904276 Z-1.000000 I-0.981216 J1.438514
G02 X13.045537 Y14.813060 Z-1.000000 I-0.892460 J2.016231
G02 X12.801264 Y14.754026 Z-1.000000 I-0.602862 J1.959636
G02 X12.551735 Y14.715084 Z-1.000000 I-1.052498 J5.925227
G02 X12.276004 Y14.683323 Z-1.000000 I-0.967338 J7.185044
G02 X11.999289 Y14.665437 Z-1.000000 I-0.425423 J4.432384
G02 X11.750745 Y14.665633 Z-1.000000 I-0.121408 J3.633305
G03 X11.501936 Y14.669985 Z-1.000000 I-0.248809 J-7.110267
G03 X11.253131 Y14.665633 Z-1.000000 I-0.000000 J-7.114372
G03 X11.361805 Y14.306815 Z-1.000000 I1.062217 J0.125845
G03 X11.612519 Y13.958548 Z-1.000000 I1.249335 J0.635007
G03 X11.966676 Y13.717451 Z-1.000000 I0.835957 J0.847306
G01 X12.331295 Y13.640357 Z-1.000000
G03 X12.688181 Y13.662415 Z-1.000000 I0.000000 J2.898125
G03 X13.114576 Y13.737567 Z-1.000000 I-0.522947 J4.214318
G03 X13.534488 Y13.847946 Z-1.000000 I-1.536735 J6.700065
G03 X13.888643 Y13.967393 Z-1.000000 I-1.451365 J4.887975
G02 X14.240655 Y14.103857 Z-1.000000 I5.048680 J-12.500944
G02 X14.625849 Y14.241388 Z-1.000000 I5.525661 J-14.867995
G02 X14.775428 Y14.292587 Z-1.000000 I0.453651 J-1.081243
G01 X14.856226 Y14.303246 Z-1.000000
G01 X14.872860 Y14.298798 Z-1.000000
G01 X14.902301 Y14.276711 Z-1.000000
G00 Z5.000000

(End cutting path id: path3504)


(Start cutting path id: path3504)
(Change tool to Default tool)

G00 Z5.000000
G00 X13.501609 Y15.576010

G01 Z-1.000000 F100.0(Penetrate)
G01 X13.448163 Y15.789068 Z-1.000000 F400.000000
G01 X13.326523 Y15.903046 Z-1.000000
G01 X13.153807 Y15.964059 Z-1.000000
G03 X12.865769 Y15.991438 Z-1.000000 I-0.288038 J-1.501423
G01 X12.395800 Y15.991438 Z-1.000000
G03 X11.925999 Y15.914343 Z-1.000000 I0.000000 J-1.469979
G03 X11.557228 Y15.708599 Z-1.000000 I0.369615 J-1.095847
G01 X11.316263 Y15.391830 Z-1.000000
G03 X11.225486 Y14.966135 Z-1.000000 I0.952728 J-0.425691
G01 X12.515596 Y14.983824 Z-1.000000
G03 X12.736368 Y14.989346 Z-1.000000 I0.000822 J4.383421
G03 X12.865769 Y15.001514 Z-1.000000 I-0.074886 J1.490545
G03 X13.002468 Y15.026123 Z-1.000000 I-0.178285 J1.382276
G03 X13.169867 Y15.072217 Z-1.000000 I-0.481952 J2.077349
G01 X13.319392 Y15.146969 Z-1.000000
G01 X13.418674 Y15.249002 Z-1.000000
G01 X13.478175 Y15.388315 Z-1.000000
G01 X13.501609 Y15.576038 Z-1.000000
G00 Z5.000000

(End cutting path id: path3504)


(Start cutting path id: path3502)
(Change tool to Default tool)

G00 Z5.000000
G00 X10.294698 Y19.032026

G01 Z-1.000000 F100.0(Penetrate)
G02 X10.246337 Y18.509636 Z-1.000000 I-2.846192 J0.000058 F400.000000
G02 X10.073536 Y17.847627 Z-1.000000 I-4.759082 J0.888679
G02 X9.840970 Y17.210827 Z-1.000000 I-9.827825 J3.228366
G02 X9.603567 Y16.680917 Z-1.000000 I-7.040746 J2.836156
G03 X9.367247 Y16.159279 Z-1.000000 I6.250506 J-3.146045
G03 X9.124383 Y15.496517 Z-1.000000 I9.857195 J-3.987974
G03 X8.959815 Y14.826224 Z-1.000000 I4.787701 J-1.530812
G03 X8.912437 Y14.276767 Z-1.000000 I3.161832 J-0.549407
G01 X8.952351 Y14.018984 Z-1.000000
G01 X9.041448 Y13.870183 Z-1.000000
G01 X9.193333 Y13.760322 Z-1.000000
G03 X9.474556 Y13.640385 Z-1.000000 I0.847279 J1.596985
G01 X9.574703 Y13.844979 Z-1.000000
G02 X9.769439 Y14.082320 Z-1.000000 I1.295583 J-0.864454
G01 X10.010262 Y14.255743 Z-1.000000
G01 X10.211762 Y14.303273 Z-1.000000
G01 X10.238563 Y14.299692 Z-1.000000
G01 X10.276268 Y14.285584 Z-1.000000
G01 X10.282673 Y14.275672 Z-1.000000
G01 X10.285484 Y14.259049 Z-1.000000
G01 X10.271841 Y14.221417 Z-1.000000
G01 X10.174903 Y14.126488 Z-1.000000
G01 X10.073537 Y14.038096 Z-1.000000
G01 X10.039451 Y13.991964 Z-1.000000
G03 X9.981386 Y13.896662 Z-1.000000 I1.547987 J-1.008485
G02 X9.933983 Y13.809087 Z-1.000000 I-2.842526 J1.482012
G01 X9.916880 Y13.781763 Z-1.000000
G02 X9.563665 Y13.448869 Z-1.000000 I-0.898633 J0.599654
G01 X9.161244 Y13.339828 Z-1.000000
G01 X8.898594 Y13.382207 Z-1.000000
G01 X8.654415 Y13.507768 Z-1.000000
G01 X8.480961 Y13.712627 Z-1.000000
G01 X8.424038 Y13.940858 Z-1.000000
G01 X8.424038 Y14.144150 Z-1.000000
G02 X8.470349 Y14.658232 Z-1.000000 I2.876029 J0.000043
G02 X8.635985 Y15.310860 Z-1.000000 I4.814600 J-0.874607
G02 X8.875876 Y15.948277 Z-1.000000 I10.827741 J-3.711158
G02 X9.115169 Y16.477597 Z-1.000000 I7.706375 J-3.165114
G03 X9.351852 Y17.007758 Z-1.000000 I-6.577804 J3.254488
G03 X9.585138 Y17.653152 Z-1.000000 I-9.520814 J3.806274
G03 X9.758398 Y18.315060 Z-1.000000 I-4.629927 J1.565551
G03 X9.806300 Y18.828706 Z-1.000000 I-2.730497 J0.513699
G01 X9.763490 Y19.105798 Z-1.000000
G01 X9.649643 Y19.323655 Z-1.000000
G01 X9.464812 Y19.469673 Z-1.000000
G01 X9.198105 Y19.526947 Z-1.000000
G01 X9.126609 Y19.492875 Z-1.000000
G03 X8.940083 Y19.208756 Z-1.000000 I1.316384 J-1.067502
G03 X8.655854 Y18.537120 Z-1.000000 I4.712604 J-2.390277
G03 X8.350318 Y17.494056 Z-1.000000 I11.098336 J-3.817231
G02 X8.233246 Y17.027238 Z-1.000000 I-16.835554 J3.974040
G02 X7.981715 Y16.106365 Z-1.000000 I-65.807104 J17.480058
G03 X7.910967 Y15.875674 Z-1.000000 I8.923659 J-2.862867
G03 X7.834274 Y15.602544 Z-1.000000 I12.433492 J-3.638610
G02 X7.754754 Y15.333792 Z-1.000000 I-2.417747 J0.569235
G02 X7.631542 Y15.036865 Z-1.000000 I-3.076252 J1.102485
G02 X7.491644 Y14.751113 Z-1.000000 I-3.749526 J1.658566
G02 X7.345875 Y14.506538 Z-1.000000 I-2.889199 J1.556260
G02 X7.175345 Y14.290616 Z-1.000000 I-1.019675 J0.630014
G02 X6.949626 Y14.108799 Z-1.000000 I-0.942008 J0.938447
G01 X6.698955 Y13.997049 Z-1.000000
G01 X6.424367 Y13.958548 Z-1.000000
G01 X6.211095 Y14.015962 Z-1.000000
G01 X6.074194 Y14.161840 Z-1.000000
G01 X6.006617 Y14.371109 Z-1.000000
G01 X6.000473 Y14.612620 Z-1.000000
G02 X6.167997 Y16.012522 Z-1.000000 I25.475018 J-2.338568
G02 X6.479657 Y17.856444 Z-1.000000 I44.524069 J-6.577179
G03 X6.497018 Y17.927387 Z-1.000000 I-2.355057 J0.613904
G03 X6.562593 Y18.218831 Z-1.000000 I-39.633416 J9.070659
G03 X6.625326 Y18.510852 Z-1.000000 I-24.185734 J5.348443
G03 X6.673174 Y18.749159 Z-1.000000 I-16.006838 J3.337832
G03 X6.711835 Y18.988479 Z-1.000000 I-3.893386 J0.751744
G01 X6.719249 Y19.102701 Z-1.000000
G01 X6.699893 Y19.220967 Z-1.000000
G01 X6.627099 Y19.376696 Z-1.000000
G01 X6.524621 Y19.493846 Z-1.000000
G01 X6.424367 Y19.526947 Z-1.000000
G01 X6.330513 Y19.479995 Z-1.000000
G01 X6.212420 Y19.244107 Z-1.000000
G03 X6.144893 Y18.967835 Z-1.000000 I2.512257 J-0.760438
G01 X6.129485 Y18.802172 Z-1.000000
G03 X6.134227 Y18.607901 Z-1.000000 I3.977852 J-0.000097
G03 X6.157129 Y18.236493 Z-1.000000 I14.574070 J0.712262
G02 X6.190745 Y17.865112 Z-1.000000 I-21.382227 J-2.122703
G01 X6.193989 Y17.785713 Z-1.000000
G02 X6.199355 Y17.644170 Z-1.000000 I-2.603663 J-0.169588
G02 X6.203205 Y16.928377 Z-1.000000 I-66.627251 J-0.716196
G02 X6.184013 Y16.426085 Z-1.000000 I-6.584254 J0.000062
G02 X6.129484 Y15.964932 Z-1.000000 I-5.603414 J0.428769
G02 X6.042027 Y15.510868 Z-1.000000 I-4.505761 J0.632401
G02 X5.899107 Y15.028020 Z-1.000000 I-5.241776 J1.288957
G02 X5.700961 Y14.573655 Z-1.000000 I-2.506767 J0.822798
G02 X5.419923 Y14.161840 Z-1.000000 I-2.335527 J1.292048
G02 X5.073586 Y13.823950 Z-1.000000 I-1.726851 J1.423579
G02 X4.664287 Y13.569626 Z-1.000000 I-1.369225 J1.747065
G02 X4.155673 Y13.389893 Z-1.000000 I-1.218918 J2.639818
G02 X3.751994 Y13.339828 Z-1.000000 I-0.403679 J1.602401
G02 X3.443660 Y13.362856 Z-1.000000 I-0.000000 J2.075700
G01 X3.282026 Y13.410531 Z-1.000000
G01 X3.157068 Y13.481869 Z-1.000000
G01 X3.014788 Y13.622667 Z-1.000000
G01 X2.911839 Y13.791011 Z-1.000000
G01 X2.885777 Y13.914352 Z-1.000000
G01 X2.916642 Y14.023031 Z-1.000000
G01 X3.033218 Y14.152995 Z-1.000000
G01 X3.180375 Y14.243171 Z-1.000000
G01 X3.300456 Y14.267894 Z-1.000000
G01 X3.334600 Y14.261146 Z-1.000000
G01 X3.364961 Y14.241360 Z-1.000000
G03 X3.480310 Y13.924925 Z-1.000000 I1.524199 J0.376369
G01 X3.595338 Y13.772890 Z-1.000000
G01 X3.767436 Y13.682496 Z-1.000000
G03 X4.083737 Y13.640329 Z-1.000000 I0.316302 J1.165244
G03 X4.528575 Y13.725750 Z-1.000000 I0.000000 J1.200986
G03 X4.903879 Y13.967365 Z-1.000000 I-0.431946 J1.083235
G03 X5.197610 Y14.329626 Z-1.000000 I-1.155062 J1.236770
G03 X5.410708 Y14.807039 Z-1.000000 I-1.820427 J1.098831
G03 X5.555932 Y15.333218 Z-1.000000 I-6.729527 J2.140458
G03 X5.641085 Y15.788147 Z-1.000000 I-4.942576 J1.160580
G03 X5.696824 Y16.249177 Z-1.000000 I-5.921277 J0.949771
G03 X5.714806 Y16.689679 Z-1.000000 I-5.387660 J0.440550
G03 X5.702484 Y17.546513 Z-1.000000 I-29.808647 J-0.000135
G03 X5.677945 Y17.971315 Z-1.000000 I-7.347220 J-0.211313
G02 X5.646988 Y18.307496 Z-1.000000 I9.594533 J1.053029
G02 X5.641085 Y18.466291 Z-1.000000 I2.131606 J0.158749
G02 X5.793471 Y19.182554 Z-1.000000 I1.759488 J0.000008
G02 X6.157129 Y19.624156 Z-1.000000 I0.980734 J-0.437095
G02 X6.492909 Y19.791985 Z-1.000000 I0.874303 J-1.329424
G01 X6.746894 Y19.836293 Z-1.000000
G01 X7.054715 Y19.692558 Z-1.000000
G01 X7.198433 Y19.297121 Z-1.000000
G02 X7.189410 Y19.147759 Z-1.000000 I-1.241573 J0.000050
G02 X7.152357 Y18.917044 Z-1.000000 I-3.005119 J0.364284
G02 X7.110982 Y18.688116 Z-1.000000 I-5.818200 J0.933362
G02 X7.050991 Y18.413250 Z-1.000000 I-8.442573 J1.698634
G02 X6.995022 Y18.148232 Z-1.000000 I-51.907165 J10.823949
G02 X6.977271 Y18.068525 Z-1.000000 I-4.732414 J1.012081
G03 X6.654148 Y16.163045 Z-1.000000 I50.141591 J-9.482928
G03 X6.488872 Y14.815884 Z-1.000000 I24.890991 J-3.737467
G01 X6.491984 Y14.659436 Z-1.000000
G01 X6.544162 Y14.462314 Z-1.000000
G01 X6.648143 Y14.321290 Z-1.000000
G01 X6.774539 Y14.276711 Z-1.000000
G01 X6.820872 Y14.293013 Z-1.000000
G01 X6.829830 Y14.294401 Z-1.000000
G01 X6.921792 Y14.405291 Z-1.000000
G03 X7.097067 Y14.745153 Z-1.000000 I-2.788566 J1.653254
G03 X7.245236 Y15.110603 Z-1.000000 I-7.934822 J3.429875
G03 X7.318229 Y15.328522 Z-1.000000 I-2.743847 J1.040248
G01 X8.221306 Y18.483953 Z-1.000000
G02 X8.429871 Y19.004028 Z-1.000000 I2.620690 J-0.749113
G02 X8.718920 Y19.429709 Z-1.000000 I2.034413 J-1.070447
G02 X9.116513 Y19.732824 Z-1.000000 I0.915454 J-0.788475
G02 X9.575922 Y19.836293 Z-1.000000 I0.459497 J-0.968564
G01 X9.912688 Y19.770459 Z-1.000000
G01 X10.119612 Y19.615312 Z-1.000000
G01 X10.244073 Y19.376709 Z-1.000000
G02 X10.294698 Y19.031971 Z-1.000000 I-1.148697 J-0.344774
G00 Z5.000000

(End cutting path id: path3502)


(Start cutting path id: path3500)
(Change tool to Default tool)

G00 Z5.000000
G00 X31.083916 Y24.388296

G01 Z-1.000000 F100.0(Penetrate)
G02 X30.678561 Y24.467684 Z-1.000000 I0.000000 J1.074573 F400.000000
G01 X30.411218 Y24.662297 Z-1.000000
G01 X30.252818 Y24.958467 Z-1.000000
G02 X30.190055 Y25.369398 Z-1.000000 I1.313774 J0.410917
G02 X30.229372 Y25.750588 Z-1.000000 I1.867314 J0.000021
G02 X30.355927 Y26.164884 Z-1.000000 I2.335971 J-0.487090
G02 X30.552112 Y26.552580 Z-1.000000 I2.482772 J-1.012866
G02 X30.789034 Y26.871986 Z-1.000000 I1.915490 J-1.173261
G02 X30.092262 Y26.718376 Z-1.000000 I-1.687832 J5.998914
G02 X29.581860 Y26.677533 Z-1.000000 I-0.510377 J3.168431
G01 X29.517616 Y26.681430 Z-1.000000
G02 X29.001311 Y26.748242 Z-1.000000 I4.217467 J34.619847
G02 X28.735441 Y25.965990 Z-1.000000 I-1.283734 J0.000006
G02 X27.812565 Y25.201461 Z-1.000000 I-2.141592 J1.645875
G02 X27.468256 Y25.061833 Z-1.000000 I-1.531174 J3.281404
G01 X27.379457 Y25.051202 Z-1.000000
G01 X27.314951 Y25.060046 Z-1.000000
G01 X27.358078 Y25.139596 Z-1.000000
G01 X27.536113 Y25.272178 Z-1.000000
G02 X27.732652 Y25.390596 Z-1.000000 I2.320171 J-3.628466
G02 X27.941576 Y25.501984 Z-1.000000 I2.261473 J-3.990088
G01 X28.133008 Y25.639998 Z-1.000000
G03 X28.328610 Y25.864372 Z-1.000000 I-1.006110 J1.074539
G01 X28.463626 Y26.136572 Z-1.000000
G03 X28.512911 Y26.465408 Z-1.000000 I-1.072398 J0.328840
G01 X28.480855 Y26.676706 Z-1.000000
G01 X28.383900 Y26.880828 Z-1.000000
G02 X28.259457 Y27.076654 Z-1.000000 I4.910175 J3.257750
G01 X28.254889 Y27.092959 Z-1.000000
G01 X28.280929 Y27.156522 Z-1.000000
G01 X28.411545 Y27.252057 Z-1.000000
G02 X28.572190 Y27.325248 Z-1.000000 I0.503948 J-0.893213
G01 X28.660352 Y27.340444 Z-1.000000
G01 X28.713305 Y27.330633 Z-1.000000
G02 X28.890730 Y27.252057 Z-1.000000 I-0.687544 J-1.792081
G02 X29.074875 Y27.172172 Z-1.000000 I-21.847576 J-50.613718
G01 X29.093462 Y27.163670 Z-1.000000
G03 X29.580342 Y27.030012 Z-1.000000 I1.023042 J2.773048
G03 X30.051829 Y26.986893 Z-1.000000 I0.471465 J2.555967
G03 X30.600959 Y27.045018 Z-1.000000 I0.000019 J2.622840
G03 X31.083916 Y27.207864 Z-1.000000 I-0.467805 J2.184963
G02 X31.362681 Y27.330248 Z-1.000000 I1.966100 J-4.099685
G01 X31.415661 Y27.340444 Z-1.000000
G01 X31.451866 Y27.337561 Z-1.000000
G01 X31.470951 Y27.331599 Z-1.000000
G01 X31.476945 Y27.321388 Z-1.000000
G01 X31.480173 Y27.296245 Z-1.000000
G01 X31.477381 Y27.288439 Z-1.000000
G02 X31.277441 Y27.048760 Z-1.000000 I-13.490125 J11.050248
G03 X31.099098 Y26.800146 Z-1.000000 I2.012860 J-1.632198
G03 X30.881193 Y26.421209 Z-1.000000 I4.471441 J-2.823386
G03 X30.726088 Y26.029233 Z-1.000000 I1.645960 J-0.877984
G03 X30.678461 Y25.669914 Z-1.000000 I1.331517 J-0.359303
G03 X30.721232 Y25.318270 Z-1.000000 I1.466775 J-0.000017
G03 X30.844334 Y24.998169 Z-1.000000 I1.334768 J0.329592
G01 X31.066429 Y24.779451 Z-1.000000
G01 X31.378807 Y24.697654 Z-1.000000
G01 X31.427316 Y24.713834 Z-1.000000
G03 X31.590754 Y24.856749 Z-1.000000 I-0.874254 J1.164709
G02 X31.753765 Y25.017760 Z-1.000000 I2.047632 J-1.910033
G02 X31.950142 Y25.183785 Z-1.000000 I2.373496 J-2.608276
G01 X32.174258 Y25.316749 Z-1.000000
G01 X32.346390 Y25.351720 Z-1.000000
G01 X32.404128 Y25.335739 Z-1.000000
G01 X32.420112 Y25.307526 Z-1.000000
G01 X32.397256 Y25.249528 Z-1.000000
G01 X32.263456 Y25.139589 Z-1.000000
G03 X32.108466 Y25.048951 Z-1.000000 I2.846827 J-5.045897
G01 X32.088368 Y25.033526 Z-1.000000
G02 X31.903141 Y24.831087 Z-1.000000 I-22.211785 J20.137298
G02 X31.802701 Y24.724169 Z-1.000000 I-6.295655 J5.813526
G01 X31.692698 Y24.629400 Z-1.000000
G02 X31.489388 Y24.503201 Z-1.000000 I-1.174851 J1.665849
G01 X31.279486 Y24.415471 Z-1.000000
G01 X31.083925 Y24.388296 Z-1.000000
G00 Z5.000000

(End cutting path id: path3500)


(Start cutting path id: path3498)
(Change tool to Default tool)

G00 Z5.000000
G00 X26.642252 Y24.379457

G01 Z-1.000000 F100.0(Penetrate)
G01 X26.395224 Y24.414973 Z-1.000000 F400.000000
G01 X26.190713 Y24.512038 Z-1.000000
G01 X26.038824 Y24.667298 Z-1.000000
G01 X25.941906 Y24.874428 Z-1.000000
G02 X25.380033 Y24.493435 Z-1.000000 I-1.399459 J1.459057
G02 X24.854527 Y24.379457 Z-1.000000 I-0.525506 J1.154457
G02 X24.483633 Y24.428999 Z-1.000000 I-0.000000 J1.413108
G01 X24.237117 Y24.547395 Z-1.000000
G01 X24.042972 Y24.743663 Z-1.000000
G02 X23.859299 Y25.077719 Z-1.000000 I1.337784 J0.953069
G02 X23.744323 Y25.444391 Z-1.000000 I2.966877 J1.131682
G01 X23.721073 Y25.634559 Z-1.000000
G02 X23.078075 Y25.137763 Z-1.000000 I-2.639962 J2.752365
G01 X22.771920 Y25.051202 Z-1.000000
G01 X22.744276 Y25.051202 Z-1.000000
G01 X22.716464 Y25.058974 Z-1.000000
G01 X22.707416 Y25.060046 Z-1.000000
G01 X22.751998 Y25.139306 Z-1.000000
G02 X23.011513 Y25.334047 Z-1.000000 I1.213261 J-1.346527
G03 X23.265544 Y25.547089 Z-1.000000 I-0.744240 J1.145401
G01 X23.407761 Y25.758309 Z-1.000000
G03 X23.543910 Y26.179161 Z-1.000000 I-1.524731 J0.725710
G03 X23.638139 Y27.013411 Z-1.000000 I-5.983459 J1.098278
G01 X23.673162 Y27.114272 Z-1.000000
G01 X23.785580 Y27.234379 Z-1.000000
G01 X23.932737 Y27.324560 Z-1.000000
G01 X24.052817 Y27.349284 Z-1.000000
G01 X24.108107 Y27.322777 Z-1.000000
G01 X24.123857 Y27.275167 Z-1.000000
G02 X24.135751 Y26.978065 Z-1.000000 I-3.704601 J-0.297102
G03 X24.139871 Y26.677650 Z-1.000000 I10.949725 J-0.000063
G03 X24.154183 Y26.306321 Z-1.000000 I16.751883 J0.459679
G03 X24.192554 Y25.945376 Z-1.000000 I6.077706 J0.463599
G03 X24.255548 Y25.563867 Z-1.000000 I6.854014 J0.935770
G03 X24.381659 Y25.215433 Z-1.000000 I1.422342 J0.317757
G03 X24.578076 Y24.936316 Z-1.000000 I1.099621 J0.565145
G01 X24.854393 Y24.755502 Z-1.000000
G01 X25.204701 Y24.688831 Z-1.000000
G01 X25.577430 Y24.911150 Z-1.000000
G03 X25.868187 Y25.917415 Z-1.000000 I-2.171055 J1.172458
G03 X25.937720 Y26.880997 Z-1.000000 I-111.229049 J8.510694
G03 X25.941907 Y27.004583 Z-1.000000 I-1.823481 J0.123650
G01 X25.970123 Y27.106244 Z-1.000000
G01 X26.080133 Y27.234390 Z-1.000000
G01 X26.235849 Y27.325200 Z-1.000000
G01 X26.356585 Y27.349295 Z-1.000000
G01 X26.411876 Y27.322788 Z-1.000000
G01 X26.427438 Y27.286726 Z-1.000000
G01 X26.430307 Y27.269755 Z-1.000000
G01 X26.430307 Y26.774787 Z-1.000000
G02 X26.422541 Y26.571941 Z-1.000000 I-2.654779 J0.000073
G02 X26.384232 Y26.173751 Z-1.000000 I-10.279358 J0.788015
G03 X26.345803 Y25.784393 Z-1.000000 I9.932881 J-1.176923
G03 X26.338156 Y25.590393 Z-1.000000 I2.455383 J-0.193934
G03 X26.457882 Y25.043219 Z-1.000000 I1.310166 J-0.000011
G01 X26.715974 Y24.768390 Z-1.000000
G01 X26.737330 Y24.756098 Z-1.000000
G03 X26.992427 Y24.688842 Z-1.000000 I1.625697 J5.648753
G01 X27.081403 Y24.889821 Z-1.000000
G02 X27.287309 Y25.130780 Z-1.000000 I1.113089 J-0.742707
G02 X27.544941 Y25.305559 Z-1.000000 I0.711360 J-0.771305
G01 X27.748063 Y25.351747 Z-1.000000
G01 X27.797312 Y25.336495 Z-1.000000
G01 X27.812568 Y25.307554 Z-1.000000
G01 X27.802761 Y25.267539 Z-1.000000
G01 X27.766493 Y25.219167 Z-1.000000
G01 X27.728028 Y25.185771 Z-1.000000
G02 X27.665127 Y25.139616 Z-1.000000 I-0.745897 J0.950585
G03 X27.601611 Y25.094197 Z-1.000000 I1.093588 J-1.596445
G01 X27.582191 Y25.077747 Z-1.000000
G01 X27.550950 Y25.038261 Z-1.000000
G03 X27.462395 Y24.874455 Z-1.000000 I2.173526 J-1.280864
G01 X27.109588 Y24.509579 Z-1.000000
G01 X26.642254 Y24.379485 Z-1.000000
G00 Z5.000000

(End cutting path id: path3498)


(Start cutting path id: path3496)
(Change tool to Default tool)

G00 Z5.000000
G00 X19.491353 Y26.712888

G01 Z-1.000000 F100.0(Penetrate)
G02 X19.815882 Y26.964265 Z-1.000000 I1.552903 J-1.669631 F400.000000
G02 X20.210128 Y27.172501 Z-1.000000 I1.449057 J-2.266128
G02 X20.642495 Y27.306926 Z-1.000000 I0.931663 J-2.234072
G02 X21.048700 Y27.349278 Z-1.000000 I0.406225 J-1.926998
G01 X21.549582 Y27.149814 Z-1.000000
G01 X21.749046 Y26.686370 Z-1.000000
G02 X21.741500 Y26.483496 Z-1.000000 I-2.732703 J0.000070
G02 X21.702971 Y26.067658 Z-1.000000 I-11.532363 J0.858820
G03 X21.672324 Y25.651962 Z-1.000000 I13.911133 J-1.234553
G03 X21.666110 Y25.440107 Z-1.000000 I3.605519 J-0.211766
G03 X21.839248 Y24.870794 Z-1.000000 I1.022554 J-0.000007
G01 X22.163724 Y24.697654 Z-1.000000
G01 X22.209086 Y24.700740 Z-1.000000
G01 X22.228230 Y24.706498 Z-1.000000
G03 X22.345899 Y24.823472 Z-1.000000 I-3.218654 J3.355464
G03 X22.477037 Y24.962823 Z-1.000000 I-4.436443 J4.306350
G02 X22.614879 Y25.093752 Z-1.000000 I0.981791 J-0.895600
G02 X22.799565 Y25.227987 Z-1.000000 I1.217305 J-1.480657
G01 X23.000812 Y25.325266 Z-1.000000
G01 X23.158953 Y25.351728 Z-1.000000
G01 X23.184057 Y25.339976 Z-1.000000
G01 X23.195813 Y25.307535 Z-1.000000
G01 X23.173122 Y25.249675 Z-1.000000
G01 X23.048372 Y25.148436 Z-1.000000
G03 X22.901734 Y25.058989 Z-1.000000 I5.723267 J-9.547477
G01 X22.891715 Y25.051210 Z-1.000000
G03 X22.828427 Y24.988129 Z-1.000000 I1.605604 J-1.674156
G03 X22.661338 Y24.812564 Z-1.000000 I12.270993 J-11.845877
G02 X22.491904 Y24.648714 Z-1.000000 I-3.657524 J3.612655
G01 X22.412532 Y24.582757 Z-1.000000
G01 X22.333159 Y24.530772 Z-1.000000
G02 X22.163724 Y24.459016 Z-1.000000 I-0.672976 J1.353156
G01 X21.984966 Y24.407175 Z-1.000000
G02 X21.776691 Y24.388305 Z-1.000000 I-0.208275 J1.139954
G01 X21.374321 Y24.584918 Z-1.000000
G01 X21.177711 Y25.157276 Z-1.000000
G02 X21.183675 Y25.369156 Z-1.000000 I3.764374 J0.000069
G02 X21.214572 Y25.811344 Z-1.000000 I16.438492 J-0.926418
G03 X21.253196 Y26.253664 Z-1.000000 I-13.165273 J1.372465
G03 X21.260647 Y26.465411 Z-1.000000 I-3.006720 J0.211808
G01 X21.215098 Y26.702309 Z-1.000000
G01 X21.094776 Y26.880831 Z-1.000000
G01 X20.909843 Y27.003155 Z-1.000000
G01 X20.670882 Y27.048768 Z-1.000000
G03 X20.196950 Y26.949022 Z-1.000000 I0.000009 J-1.175832
G03 X19.767805 Y26.651024 Z-1.000000 I0.551541 J-1.252275
G03 X19.441305 Y26.222592 Z-1.000000 I1.802915 J-1.712594
G03 X19.224115 Y25.749472 Z-1.000000 I1.988966 J-1.199464
G03 X19.102761 Y25.248697 Z-1.000000 I3.574380 J-1.131279
G03 X19.058244 Y24.777210 Z-1.000000 I3.121968 J-0.532618
G02 X19.051086 Y24.646383 Z-1.000000 I-1.199325 J0.000008
G01 X19.039813 Y24.609272 Z-1.000000
G01 X18.994023 Y24.556465 Z-1.000000
G01 X18.864726 Y24.467852 Z-1.000000
G01 X18.722424 Y24.393406 Z-1.000000
G01 X18.652780 Y24.379465 Z-1.000000
G01 X18.597024 Y24.406645 Z-1.000000
G01 X18.569844 Y24.485531 Z-1.000000
G01 X18.569844 Y24.512038 Z-1.000000
G01 X18.579059 Y25.201461 Z-1.000000
G02 X18.305916 Y25.073759 Z-1.000000 I-0.987679 J1.756599
G01 X18.182811 Y25.051202 Z-1.000000
G01 X18.127975 Y25.054122 Z-1.000000
G01 X18.099875 Y25.060046 Z-1.000000
G01 X18.158101 Y25.159082 Z-1.000000
G01 X18.357898 Y25.289853 Z-1.000000
G03 X18.566028 Y25.420599 Z-1.000000 I-0.559233 J1.121253
G01 X18.597490 Y25.475469 Z-1.000000
G01 X18.596590 Y25.484185 Z-1.000000
G01 X18.588274 Y25.519663 Z-1.000000
G01 X18.588274 Y25.572693 Z-1.000000
G02 X18.592594 Y25.775810 Z-1.000000 I4.777198 J-0.000000
G02 X18.606705 Y26.005794 Z-1.000000 I6.139420 J-0.261272
G02 X18.636797 Y26.244108 Z-1.000000 I11.597242 J-1.343329
G02 X18.680426 Y26.544956 Z-1.000000 I18.542389 J-2.535408
G03 X18.726049 Y26.854374 Z-1.000000 I-106.069668 J15.797988
G03 X18.744931 Y26.986893 Z-1.000000 I-19.449416 J2.838834
G02 X18.867061 Y27.675870 Z-1.000000 I6.075006 J-0.721554
G02 X19.067459 Y28.348061 Z-1.000000 I5.982050 J-1.417444
G02 X19.355306 Y28.990478 Z-1.000000 I5.302308 J-1.990106
G02 X19.721729 Y29.594324 Z-1.000000 I5.048312 J-2.650294
G02 X20.182402 Y30.116650 Z-1.000000 I2.484179 J-1.726646
G02 X20.763033 Y30.531233 Z-1.000000 I2.123459 J-2.360062
G02 X21.422744 Y30.792706 Z-1.000000 I1.329025 J-2.390221
G02 X22.163724 Y30.884784 Z-1.000000 I0.741030 J-2.935819
G02 X23.120213 Y30.726243 Z-1.000000 I-0.000033 J-2.964759
G01 X23.278749 Y30.504718 Z-1.000000
G01 X23.242942 Y30.358582 Z-1.000000
G02 X23.057587 Y30.080456 Z-1.000000 I-1.383540 J0.721221
G02 X22.825298 Y29.835600 Z-1.000000 I-2.709556 J2.337881
G02 X22.541542 Y29.585488 Z-1.000000 I-3.111002 J3.243453
G02 X22.245587 Y29.357068 Z-1.000000 I-24.448513 J31.371050
G02 X21.951778 Y29.134711 Z-1.000000 I-23.458045 J30.690819
G02 X21.663504 Y28.917375 Z-1.000000 I-8.916172 J11.526548
G02 X21.518669 Y28.816514 Z-1.000000 I-2.063540 J2.808792
G01 X20.320709 Y27.932641 Z-1.000000
G03 X19.965376 Y27.653643 Z-1.000000 I9.626306 J-12.625886
G03 X19.675654 Y27.411156 Z-1.000000 I6.979637 J-8.633531
G01 X19.537428 Y27.278572 Z-1.000000
G01 X19.510566 Y27.185475 Z-1.000000
G03 X19.491353 Y26.712893 Z-1.000000 I5.801862 J-0.472561
G00 Z5.000000

(End cutting path id: path3496)


(Start cutting path id: path3496)
(Change tool to Default tool)

G00 Z5.000000
G00 X22.781135 Y30.292581

G01 Z-1.000000 F100.0(Penetrate)
G01 X22.663929 Y30.458212 Z-1.000000 F400.000000
G03 X21.979423 Y30.575421 Z-1.000000 I-0.684527 J-1.940298
G03 X21.259310 Y30.506971 Z-1.000000 I0.000043 J-3.822583
G03 X20.827539 Y30.354453 Z-1.000000 I0.288592 J-1.504414
G03 X20.445682 Y30.069856 Z-1.000000 I0.734035 J-1.383362
G03 X20.044257 Y29.558965 Z-1.000000 I2.077001 J-2.045124
G03 X19.728212 Y28.977433 Z-1.000000 I4.984980 J-3.085832
G03 X19.509783 Y28.427606 Z-1.000000 I4.235644 J-2.000995
G03 X19.357897 Y27.865565 Z-1.000000 I6.824057 J-2.145669
G03 X19.260976 Y27.331599 Z-1.000000 I6.061109 J-1.375949
G02 X19.609879 Y27.622390 Z-1.000000 I5.434679 J-6.166059
G02 X20.652452 Y28.427606 Z-1.000000 I42.787928 J-54.323133
G01 X21.905702 Y29.346836 Z-1.000000
G02 X21.989156 Y29.407973 Z-1.000000 I3.575601 J-4.793325
G02 X22.090004 Y29.479417 Z-1.000000 I4.982675 J-6.926456
G03 X22.198257 Y29.561864 Z-1.000000 I-1.454949 J2.022622
G03 X22.320381 Y29.665030 Z-1.000000 I-2.158358 J2.678856
G03 X22.439159 Y29.772185 Z-1.000000 I-5.688767 J6.425283
G03 X22.541542 Y29.868322 Z-1.000000 I-4.470566 J4.863605
G03 X22.635884 Y29.979572 Z-1.000000 I-0.887785 J0.848484
G01 X22.707414 Y30.089289 Z-1.000000
G01 X22.766359 Y30.208516 Z-1.000000
G01 X22.781135 Y30.292581 Z-1.000000
G00 Z5.000000

(End cutting path id: path3496)


(Start cutting path id: path3494)
(Change tool to Default tool)

G00 Z5.000000
G00 X18.588332 Y25.307526

G01 Z-1.000000 F100.0(Penetrate)
G01 X18.564139 Y25.250804 Z-1.000000 F400.000000
G01 X18.404030 Y25.130752 Z-1.000000
G01 X18.219729 Y25.024687 Z-1.000000
G02 X18.087647 Y24.904485 Z-1.000000 I-2.358691 J2.459157
G02 X17.943277 Y24.786041 Z-1.000000 I-2.434947 J2.820703
G02 X17.801892 Y24.675451 Z-1.000000 I-1.930198 J2.322009
G02 X17.666824 Y24.582749 Z-1.000000 I-1.490526 J2.026960
G01 X17.532208 Y24.506034 Z-1.000000
G02 X17.362727 Y24.441329 Z-1.000000 I-0.542271 J1.166056
G02 X17.194662 Y24.402337 Z-1.000000 I-0.322827 J1.009761
G02 X17.003339 Y24.388296 Z-1.000000 I-0.191323 J1.296509
G02 X16.595592 Y24.446414 Z-1.000000 I0.000000 J1.459404
G02 X16.183197 Y24.626942 Z-1.000000 I0.487119 J1.674064
G02 X15.851463 Y24.918723 Z-1.000000 I0.783428 J1.225174
G02 X15.657938 Y25.254493 Z-1.000000 I0.858098 J0.718229
G01 X15.482851 Y25.714110 Z-1.000000
G01 X15.356698 Y25.550955 Z-1.000000
G02 X15.031313 Y25.289848 Z-1.000000 I-1.832518 J1.950339
G02 X14.677397 Y25.092312 Z-1.000000 I-1.145657 J1.636811
G01 X14.478408 Y25.051202 Z-1.000000
G01 X14.450764 Y25.051202 Z-1.000000
G01 X14.422952 Y25.058974 Z-1.000000
G01 X14.413904 Y25.060046 Z-1.000000
G01 X14.472902 Y25.168862 Z-1.000000
G01 X14.662711 Y25.307532 Z-1.000000
G02 X14.893284 Y25.430887 Z-1.000000 I37.353999 J-69.544209
G01 X14.911518 Y25.440112 Z-1.000000
G01 X15.046927 Y25.589030 Z-1.000000
G03 X15.206400 Y25.864372 Z-1.000000 I-1.586770 J1.102887
G03 X15.304458 Y26.146430 Z-1.000000 I-1.283191 J0.604177
G03 X15.363057 Y26.536119 Z-1.000000 I-2.405352 J0.560948
G02 X15.403739 Y26.942164 Z-1.000000 I21.501357 J-1.949199
G02 X15.418347 Y27.039926 Z-1.000000 I1.259473 J-0.138223
G01 X15.519713 Y27.561412 Z-1.000000
G01 X15.759305 Y28.772321 Z-1.000000
G02 X16.008178 Y29.308181 Z-1.000000 I1.184974 J-0.224622
G01 X16.312210 Y29.452905 Z-1.000000
G01 X16.364792 Y29.431761 Z-1.000000
G01 X16.385930 Y29.382196 Z-1.000000
G02 X16.358757 Y29.041220 Z-1.000000 I-2.153101 J0.000016
G02 X16.256919 Y28.577868 Z-1.000000 I-4.089492 J0.655942
G02 X16.127195 Y28.121402 Z-1.000000 I-10.475494 J2.730391
G02 X16.017327 Y27.800058 Z-1.000000 I-5.299078 J1.632301
G02 X16.312516 Y27.832325 Z-1.000000 I1.686588 J-14.062951
G02 X16.643952 Y27.861930 Z-1.000000 I1.755733 J-17.786012
G02 X16.985033 Y27.895973 Z-1.000000 I4.563270 J-43.994154
G02 X17.381158 Y27.932641 Z-1.000000 I5.752406 J-59.985007
G02 X17.786680 Y27.967233 Z-1.000000 I9.274482 J-106.330876
G02 X18.016998 Y27.985674 Z-1.000000 I2.915221 J-34.962257
G01 X18.062968 Y27.987583 Z-1.000000
G03 X18.228945 Y28.003336 Z-1.000000 I-0.604955 J7.256162
G02 X18.394967 Y28.018068 Z-1.000000 I0.501961 J-4.713998
G02 X18.477752 Y28.021025 Z-1.000000 I0.083374 J-1.173579
G01 X18.570486 Y28.003180 Z-1.000000
G01 X18.588333 Y27.976832 Z-1.000000
G01 X18.570658 Y27.933468 Z-1.000000
G01 X18.450107 Y27.835412 Z-1.000000
G02 X18.308387 Y27.756501 Z-1.000000 I-0.718292 J1.123294
G01 X18.247376 Y27.738186 Z-1.000000
G01 X15.989682 Y27.526055 Z-1.000000
G02 X15.979239 Y27.367973 Z-1.000000 I-1.201880 J0.000013
G02 X15.925176 Y27.039923 Z-1.000000 I-5.247532 J0.696308
G03 X15.879024 Y26.720938 Z-1.000000 I5.599028 J-0.972931
G03 X15.869886 Y26.562631 Z-1.000000 I1.366452 J-0.158292
G01 X15.876383 Y26.483749 Z-1.000000
G03 X15.934391 Y26.173726 Z-1.000000 I7.550462 J1.252343
G03 X16.130902 Y25.588066 Z-1.000000 I2.564811 J0.534792
G03 X16.432006 Y25.121916 Z-1.000000 I1.911229 J0.904209
G03 X16.854411 Y24.805264 Z-1.000000 I0.911301 J0.775586
G03 X17.399589 Y24.688817 Z-1.000000 I0.545178 J1.217977
G01 X17.482663 Y24.714062 Z-1.000000
G03 X17.887988 Y25.015850 Z-1.000000 I-2.813838 J4.202285
G02 X18.312866 Y25.297834 Z-1.000000 I1.539192 J-1.858088
G01 X18.533043 Y25.351723 Z-1.000000
G01 X18.573980 Y25.337372 Z-1.000000
G01 X18.588333 Y25.307529 Z-1.000000
G00 Z5.000000

(End cutting path id: path3494)


(Start cutting path id: path3492)
(Change tool to Default tool)

G00 Z5.000000
G00 X13.575331 Y24.388296

G01 Z-1.000000 F100.0(Penetrate)
G02 X13.169974 Y24.467684 Z-1.000000 I0.000000 J1.074582 F400.000000
G01 X12.902630 Y24.662297 Z-1.000000
G01 X12.744231 Y24.958467 Z-1.000000
G02 X12.681468 Y25.369398 Z-1.000000 I1.313794 J0.410919
G02 X12.720785 Y25.750588 Z-1.000000 I1.867338 J0.000019
G02 X12.847340 Y26.164884 Z-1.000000 I2.335974 J-0.487087
G02 X13.043524 Y26.552579 Z-1.000000 I2.482727 J-1.012843
G02 X13.280448 Y26.871986 Z-1.000000 I1.915463 J-1.173247
G02 X12.583677 Y26.718376 Z-1.000000 I-1.687827 J5.998888
G02 X12.073273 Y26.677533 Z-1.000000 I-0.510378 J3.168439
G01 X12.009030 Y26.681430 Z-1.000000
G02 X11.492723 Y26.748242 Z-1.000000 I4.217601 J34.621017
G02 X11.226854 Y25.965991 Z-1.000000 I-1.283729 J0.000003
G02 X10.303979 Y25.201461 Z-1.000000 I-2.141591 J1.645873
G02 X9.959669 Y25.061833 Z-1.000000 I-1.531174 J3.281404
G01 X9.870870 Y25.051202 Z-1.000000
G01 X9.806364 Y25.060046 Z-1.000000
G01 X9.849492 Y25.139596 Z-1.000000
G01 X10.027526 Y25.272178 Z-1.000000
G02 X10.224065 Y25.390596 Z-1.000000 I2.320225 J-3.628560
G02 X10.432990 Y25.501984 Z-1.000000 I2.261426 J-3.990003
G01 X10.624421 Y25.639998 Z-1.000000
G03 X10.820023 Y25.864372 Z-1.000000 I-1.006111 J1.074540
G01 X10.955039 Y26.136572 Z-1.000000
G03 X11.004324 Y26.465408 Z-1.000000 I-1.072397 J0.328840
G01 X10.972269 Y26.676706 Z-1.000000
G01 X10.875313 Y26.880828 Z-1.000000
G02 X10.750871 Y27.076654 Z-1.000000 I4.910175 J3.257750
G01 X10.746302 Y27.092959 Z-1.000000
G01 X10.772343 Y27.156522 Z-1.000000
G01 X10.902959 Y27.252057 Z-1.000000
G02 X11.063604 Y27.325248 Z-1.000000 I0.503949 J-0.893214
G01 X11.151766 Y27.340444 Z-1.000000
G01 X11.204719 Y27.330633 Z-1.000000
G02 X11.382142 Y27.252057 Z-1.000000 I-0.687522 J-1.792023
G02 X11.566290 Y27.172172 Z-1.000000 I-21.870831 J-50.667712
G01 X11.584874 Y27.163670 Z-1.000000
G03 X12.071756 Y27.030012 Z-1.000000 I1.023041 J2.773048
G03 X12.543242 Y26.986893 Z-1.000000 I0.471464 J2.555967
G03 X13.092374 Y27.045018 Z-1.000000 I0.000019 J2.622852
G03 X13.575331 Y27.207864 Z-1.000000 I-0.467803 J2.184960
G02 X13.854095 Y27.330248 Z-1.000000 I1.966153 J-4.099795
G01 X13.907073 Y27.340444 Z-1.000000
G01 X13.943275 Y27.337562 Z-1.000000
G01 X13.962364 Y27.331599 Z-1.000000
G01 X13.968356 Y27.321387 Z-1.000000
G01 X13.971579 Y27.296245 Z-1.000000
G01 X13.968787 Y27.288439 Z-1.000000
G02 X13.768848 Y27.048760 Z-1.000000 I-13.487017 J11.047609
G03 X13.590503 Y26.800145 Z-1.000000 I2.012668 J-1.632068
G03 X13.372599 Y26.421209 Z-1.000000 I4.471665 J-2.823507
G03 X13.217493 Y26.029232 Z-1.000000 I1.645911 J-0.877967
G03 X13.169868 Y25.669914 Z-1.000000 I1.331522 J-0.359301
G03 X13.212638 Y25.318270 Z-1.000000 I1.466775 J-0.000019
G03 X13.335739 Y24.998169 Z-1.000000 I1.334767 J0.329590
G01 X13.557833 Y24.779451 Z-1.000000
G01 X13.870213 Y24.697654 Z-1.000000
G01 X13.918722 Y24.713834 Z-1.000000
G03 X14.082160 Y24.856749 Z-1.000000 I-0.874310 J1.164773
G02 X14.245170 Y25.017760 Z-1.000000 I2.047384 J-1.909775
G02 X14.441548 Y25.183785 Z-1.000000 I2.373668 J-2.608483
G01 X14.665663 Y25.316749 Z-1.000000
G01 X14.837796 Y25.351720 Z-1.000000
G01 X14.895533 Y25.335739 Z-1.000000
G01 X14.911517 Y25.307526 Z-1.000000
G01 X14.888662 Y25.249528 Z-1.000000
G01 X14.754861 Y25.139589 Z-1.000000
G03 X14.599870 Y25.048951 Z-1.000000 I2.848155 J-5.048181
G01 X14.579774 Y25.033526 Z-1.000000
G02 X14.394547 Y24.831087 Z-1.000000 I-22.210341 J20.136036
G02 X14.294107 Y24.724169 Z-1.000000 I-6.294749 J5.812710
G01 X14.184103 Y24.629400 Z-1.000000
G02 X13.980794 Y24.503201 Z-1.000000 I-1.174855 J1.665851
G01 X13.770891 Y24.415471 Z-1.000000
G01 X13.575331 Y24.388296 Z-1.000000
G00 Z5.000000

(End cutting path id: path3492)


(Start cutting path id: path3490)
(Change tool to Default tool)

G00 Z5.000000
G00 X9.963012 Y25.068880

G01 Z-1.000000 F100.0(Penetrate)
G02 X9.683552 Y24.999717 Z-1.000000 I-0.656423 J2.053157 F400.000000
G02 X9.465398 Y24.980493 Z-1.000000 I-0.218155 J1.228219
G02 X9.248556 Y25.000612 Z-1.000000 I0.000000 J1.178594
G01 X9.087579 Y25.051202 Z-1.000000
G03 X9.087576 Y24.998170 Z-1.000000 I361.460032 J-0.019218
G03 X9.087579 Y24.874428 Z-1.000000 I1967.992938 J-0.429572
G02 X9.095181 Y24.759459 Z-1.000000 I-4.121214 J-0.330216
G02 X9.096795 Y24.697654 Z-1.000000 I-1.188724 J-0.061972
G01 X9.068151 Y24.606263 Z-1.000000
G01 X8.949354 Y24.485523 Z-1.000000
G01 X8.794952 Y24.401030 Z-1.000000
G01 X8.682117 Y24.379457 Z-1.000000
G01 X8.626826 Y24.405964 Z-1.000000
G01 X8.615451 Y24.443332 Z-1.000000
G02 X8.580751 Y24.821384 Z-1.000000 I9.962981 J1.105086
G03 X8.546575 Y25.206626 Z-1.000000 I-4.699644 J-0.222782
G01 X8.516245 Y25.316354 Z-1.000000
G01 X8.456932 Y25.383790 Z-1.000000
G03 X7.742179 Y25.908551 Z-1.000000 I-13.634638 J-17.821962
G03 X7.400027 Y26.107328 Z-1.000000 I-1.790835 J-2.688689
G03 X7.143199 Y26.209067 Z-1.000000 I-0.705996 J-1.407167
G01 X7.022008 Y26.234805 Z-1.000000
G03 X6.875962 Y26.244424 Z-1.000000 I-0.146077 J-1.104473
G02 X6.730009 Y26.261243 Z-1.000000 I0.080026 J1.336152
G01 X6.617940 Y26.288617 Z-1.000000
G01 X6.523403 Y26.335561 Z-1.000000
G02 X6.378348 Y26.447713 Z-1.000000 I0.704626 J1.061241
G01 X6.363636 Y26.387243 Z-1.000000
G02 X6.194046 Y25.908551 Z-1.000000 I-21.631018 J7.394004
G02 X5.882550 Y25.261253 Z-1.000000 I-3.903901 J1.480057
G02 X5.539776 Y24.803705 Z-1.000000 I-2.275350 J1.347420
G02 X5.102273 Y24.504281 Z-1.000000 I-0.886425 J0.825856
G02 X4.498472 Y24.388285 Z-1.000000 I-0.603801 J1.513505
G01 X4.229033 Y24.433315 Z-1.000000
G01 X4.010073 Y24.556220 Z-1.000000
G01 X3.860896 Y24.757353 Z-1.000000
G01 X3.807342 Y25.006997 Z-1.000000
G01 X3.835389 Y25.089342 Z-1.000000
G01 X3.963998 Y25.210289 Z-1.000000
G01 X4.126444 Y25.297476 Z-1.000000
G01 X4.222020 Y25.316354 Z-1.000000
G01 X4.249664 Y25.307510 Z-1.000000
G01 X4.277311 Y25.298665 Z-1.000000
G02 X4.329733 Y25.147481 Z-1.000000 I-3.990955 J-1.468534
G02 X4.369462 Y25.015825 Z-1.000000 I-2.986865 J-0.973134
G01 X4.430980 Y24.893629 Z-1.000000
G01 X4.526118 Y24.786019 Z-1.000000
G01 X4.655576 Y24.716031 Z-1.000000
G01 X4.830215 Y24.688792 Z-1.000000
G01 X5.066396 Y24.722097 Z-1.000000
G01 X5.198818 Y24.794858 Z-1.000000
G01 X5.336044 Y24.942762 Z-1.000000
G03 X5.493701 Y25.201439 Z-1.000000 I-1.531819 J1.110988
G03 X5.621936 Y25.488436 Z-1.000000 I-4.110130 J2.008620
G03 X5.770153 Y25.882023 Z-1.000000 I-7.586432 J3.081606
G02 X5.917881 Y26.279657 Z-1.000000 I272.928351 J-101.171509
G02 X5.954454 Y26.376993 Z-1.000000 I16.372412 J-6.096224
G03 X6.211270 Y27.008157 Z-1.000000 I-19.412582 J8.266662
G03 X6.276982 Y27.207836 Z-1.000000 I-1.872190 J0.726769
G01 X6.286579 Y27.225285 Z-1.000000
G02 X6.323057 Y27.287384 Z-1.000000 I5.047854 J-2.923469
G02 X6.361056 Y27.348345 Z-1.000000 I1.536015 J-0.915109
G01 X6.369133 Y27.358095 Z-1.000000
G01 X6.408904 Y27.399282 Z-1.000000
G02 X6.507359 Y27.481836 Z-1.000000 I1.323341 J-1.478236
G03 X6.603934 Y27.565683 Z-1.000000 I-0.796431 J1.014871
G01 X6.636370 Y27.605580 Z-1.000000
G03 X7.379356 Y28.783195 Z-1.000000 I-204.325441 J129.737054
G03 X7.484157 Y28.957909 Z-1.000000 I-4.389127 J2.751587
G03 X7.652010 Y29.262236 Z-1.000000 I-6.389297 J3.722496
G03 X7.852760 Y29.665008 Z-1.000000 I-10.994596 J5.731360
G01 X7.886508 Y29.737102 Z-1.000000
G03 X7.963341 Y29.930169 Z-1.000000 I-5.862235 J2.444767
G02 X8.040639 Y30.123069 Z-1.000000 I5.177937 J-1.962956
G02 X8.101567 Y30.257205 Z-1.000000 I2.563550 J-1.083520
G02 X8.181494 Y30.385421 Z-1.000000 I1.321867 J-0.735001
G02 X8.267438 Y30.495851 Z-1.000000 I1.065412 J-0.740521
G02 X8.657076 Y30.796092 Z-1.000000 I1.014129 J-0.913139
G01 X9.023075 Y30.884756 Z-1.000000
G01 X9.197925 Y30.810797 Z-1.000000
G01 X9.271882 Y30.628431 Z-1.000000
G01 X9.239592 Y30.479853 Z-1.000000
G02 X9.078365 Y30.204172 Z-1.000000 I-1.437279 J0.655582
G03 X8.901234 Y29.937873 Z-1.000000 I2.138522 J-1.614516
G03 X8.682117 Y29.523588 Z-1.000000 I4.972217 J-2.894919
G03 X8.542240 Y29.087664 Z-1.000000 I1.777342 J-0.810708
G03 X8.488600 Y28.533647 Z-1.000000 I2.833923 J-0.553984
G03 X8.508606 Y28.093462 Z-1.000000 I4.851156 J-0.000071
G03 X8.571536 Y27.623256 Z-1.000000 I5.599779 J0.510135
G03 X8.664445 Y27.156945 Z-1.000000 I10.911375 J1.931595
G03 X8.820343 Y26.500734 Z-1.000000 I21.767196 J4.824685
G02 X8.992468 Y25.845929 Z-1.000000 I-72.727608 J-19.467542
G02 X9.050720 Y25.608022 Z-1.000000 I-9.542688 J-2.462616
G01 X9.104889 Y25.535178 Z-1.000000
G03 X9.382463 Y25.395891 Z-1.000000 I0.807098 J1.262176
G03 X9.698355 Y25.305543 Z-1.000000 I1.101116 J3.252518
G01 X9.834001 Y25.289826 Z-1.000000
G01 X9.898102 Y25.294001 Z-1.000000
G03 X10.036733 Y25.316332 Z-1.000000 I-0.307308 J2.349165
G02 X10.175346 Y25.338663 Z-1.000000 I0.445752 J-2.325542
G01 X10.239465 Y25.342839 Z-1.000000
G01 X10.276325 Y25.342839 Z-1.000000
G01 X10.294756 Y25.307485 Z-1.000000
G01 X10.212693 Y25.193114 Z-1.000000
G01 X9.963013 Y25.068839 Z-1.000000
G00 Z5.000000

(End cutting path id: path3490)


(Start cutting path id: path3490)
(Change tool to Default tool)

G00 Z5.000000
G00 X8.792699 Y30.407445

G01 Z-1.000000 F100.0(Penetrate)
G01 X8.786740 Y30.450169 Z-1.000000 F400.000000
G01 X8.765055 Y30.504671 Z-1.000000
G01 X8.728607 Y30.552969 Z-1.000000
G01 X8.691334 Y30.566540 Z-1.000000
G01 X8.669533 Y30.556478 Z-1.000000
G01 X8.608398 Y30.469314 Z-1.000000
G03 X8.556723 Y30.379013 Z-1.000000 I1.124430 J-0.703399
G03 X8.507033 Y30.274861 Z-1.000000 I1.446450 J-0.754027
G02 X8.468874 Y30.169272 Z-1.000000 I-4.319586 J1.501343
G02 X8.424097 Y30.053894 Z-1.000000 I-5.199425 J1.951480
G01 X8.368806 Y29.930150 Z-1.000000
G02 X8.153014 Y29.490912 Z-1.000000 I-4.398486 J1.888294
G02 X7.567095 Y28.489434 Z-1.000000 I-23.511446 J13.083351
G02 X7.548657 Y28.462902 Z-1.000000 I-131.103912 J91.059108
G03 X7.364363 Y28.197755 Z-1.000000 I11928.550066 J-8267.116586
G03 X7.197738 Y27.928025 Z-1.000000 I4.377841 J-2.890732
G03 X7.124771 Y27.782335 Z-1.000000 I1.200316 J-0.692277
G02 X7.626555 Y27.724144 Z-1.000000 I-0.000018 J-2.192679
G02 X8.064709 Y27.561365 Z-1.000000 I-0.429647 J-1.827570
G01 X8.061762 Y27.605322 Z-1.000000
G03 X8.027849 Y27.835368 Z-1.000000 I-9.111276 J-1.225676
G02 X8.004676 Y28.074267 Z-1.000000 I6.388887 J0.740281
G02 X8.000205 Y28.188916 Z-1.000000 I1.464803 J0.114538
G02 X8.020997 Y28.593348 Z-1.000000 I3.942506 J0.000059
G02 X8.083141 Y28.993244 Z-1.000000 I3.916394 J-0.403825
G02 X8.192952 Y29.349938 Z-1.000000 I1.786592 J-0.354770
G02 X8.405668 Y29.753376 Z-1.000000 I2.503994 J-1.062454
G02 X8.433310 Y29.788735 Z-1.000000 I113.590135 J-88.789649
G03 X8.543894 Y29.930150 Z-1.000000 I-4478.937645 J3509.730052
G03 X8.658444 Y30.083928 Z-1.000000 I-2.283170 J1.820288
G03 X8.728196 Y30.195313 Z-1.000000 I-1.126654 J0.783069
G01 X8.778782 Y30.313847 Z-1.000000
G01 X8.792701 Y30.407445 Z-1.000000
G00 Z5.000000

(End cutting path id: path3490)


(Start cutting path id: path3490)
(Change tool to Default tool)

G00 Z5.000000
G00 X8.368808 Y26.102973

G01 Z-1.000000 F100.0(Penetrate)
G03 X8.240634 Y26.533601 Z-1.000000 I-1.176221 J-0.115707 F400.000000
G03 X7.889624 Y27.022203 Z-1.000000 I-1.879082 J-0.979541
G03 X7.412418 Y27.379677 Z-1.000000 I-1.266615 J-1.193600
G01 X6.986546 Y27.481817 Z-1.000000
G01 X6.926251 Y27.457573 Z-1.000000
G01 X6.802245 Y27.305043 Z-1.000000
G03 X6.715302 Y27.124421 Z-1.000000 I1.208174 J-0.692792
G01 X6.700879 Y27.048718 Z-1.000000
G01 X6.719013 Y26.948038 Z-1.000000
G01 X6.793030 Y26.801233 Z-1.000000
G01 X6.917964 Y26.669805 Z-1.000000
G01 X7.041837 Y26.597941 Z-1.000000
G03 X7.191663 Y26.555685 Z-1.000000 I0.374476 J1.041029
G03 X7.382795 Y26.527233 Z-1.000000 I0.346196 J1.669397
G02 X7.573280 Y26.504736 Z-1.000000 I-0.060815 J-1.332622
G01 X7.705323 Y26.465361 Z-1.000000
G01 X7.820993 Y26.412872 Z-1.000000
G02 X8.046280 Y26.279748 Z-1.000000 I-1.778540 J-3.267019
G03 X8.271324 Y26.146326 Z-1.000000 I2.086513 J3.262840
G01 X8.368808 Y26.102973 Z-1.000000
G00 Z5.000000

(End cutting path id: path3490)


(Footer)
M5
G00 X0.0000 Y0.0000
M2
(Using default footer. To add your own footer create file "footer" in the output dir.)
(end)
%