%
(Header)
(Generated by gcodetools from Inkscape.)
(Using default header. To add your own header create file "header" in the output dir.)
M3
(Header end.)
G21 (All units in mm)

(Start cutting path id: path2991)
(Change tool to Default tool)

G00 Z5.000000
G00 X30.540476 Y17.034128

G01 Z-0.125000 F100.0(Penetrate)
G02 X27.117179 Y8.966948 Z-0.125000 I-11.217013 J-0.000000 F400.000000
G02 X18.646826 Y5.543651 Z-0.125000 I-8.470353 J8.767558
G02 X10.176473 Y8.966949 Z-0.125000 I-0.000000 J12.190856
G02 X6.753175 Y17.034128 Z-0.125000 I7.793716 J8.067179
G02 X10.176472 Y25.101307 Z-0.125000 I11.217013 J-0.000000
G02 X18.646826 Y28.524604 Z-0.125000 I8.470353 J-8.767558
G02 X27.117179 Y25.101307 Z-0.125000 I0.000000 J-12.190855
G02 X30.540476 Y17.034128 Z-0.125000 I-7.793716 J-8.067179
G01 X30.540476 Y17.034128 Z-0.125000
G00 Z5.000000

(End cutting path id: path2991)


(Start cutting path id: path2989)
(Change tool to Default tool)

G00 Z5.000000
G00 X18.445238 Y11.994443

G01 Z-0.125000 F100.0(Penetrate)
G02 X18.505373 Y11.771912 Z-0.125000 I-0.049820 J-0.132854 F400.000000
G02 X18.319246 Y11.658464 Z-0.125000 I-0.253808 J0.207001
G02 X17.895535 Y11.824697 Z-0.125000 I-0.085549 J0.405060
G02 X17.773280 Y12.246427 Z-0.125000 I0.549004 J0.387735
G02 X18.135702 Y12.860889 Z-0.125000 I0.768050 J-0.038897
G02 X18.823214 Y13.002380 Z-0.125000 I0.535991 J-0.863339
G02 X19.633670 Y12.449138 Z-0.125000 I-0.168435 J-1.116992
G02 X19.789154 Y11.490475 Z-0.125000 I-1.189070 J-0.684793
G02 X19.046698 Y10.482023 Z-0.125000 I-1.460038 J0.297392
G02 X17.815278 Y10.314549 Z-0.125000 I-0.833345 J1.516506
G02 X16.607884 Y11.245541 Z-0.125000 I0.425585 J1.800362
G02 X16.429365 Y12.750395 Z-0.125000 I1.844131 J0.981783
G02 X17.548550 Y14.157252 Z-0.125000 I2.139253 J-0.553225
G02 X19.327182 Y14.346295 Z-0.125000 I1.130179 J-2.171664
G02 X20.933818 Y13.039115 Z-0.125000 I-0.680481 J-2.477308
G02 X21.133069 Y10.986507 Z-0.125000 I-2.499066 J-1.278564
G02 X19.638020 Y9.179885 Z-0.125000 I-2.814836 J0.807469
G02 X17.311311 Y8.970633 Z-0.125000 I-1.426952 J2.826350
G02 X15.304561 Y10.653468 Z-0.125000 I0.934263 J3.152014
G02 X15.085449 Y13.254362 Z-0.125000 I3.153537 J1.575345
G02 X16.956013 Y15.461342 Z-0.125000 I3.488948 J-1.060914
G02 X19.831149 Y15.690211 Z-0.125000 I1.723746 J-3.480643
G02 X22.238435 Y13.631961 Z-0.125000 I-1.187455 J-3.825703
G02 X22.476985 Y10.482539 Z-0.125000 I-3.807687 J-1.872155
G00 Z5.000000

(End cutting path id: path2989)


(Start cutting path id: path3772)
(Change tool to Default tool)

G00 Z5.000000
G00 X25.519693 Y21.020199

G01 Z-0.125000 F100.0(Penetrate)
G01 X25.519693 Y20.598517 Z-0.125000 F400.000000
G01 X25.034623 Y20.598517 Z-0.125000
G03 X24.777182 Y20.561957 Z-0.125000 I0.000014 J-0.924780
G03 X24.654284 Y20.488275 Z-0.125000 I0.078188 J-0.269750
G03 X24.584904 Y20.363912 Z-0.125000 I0.207953 J-0.197548
G03 X24.549554 Y20.091400 Z-0.125000 I1.032656 J-0.272505
G01 X24.549554 Y19.818548 Z-0.125000
G01 X25.384645 Y19.818548 Z-0.125000
G01 X25.384645 Y19.424430 Z-0.125000
G01 X24.549554 Y19.424430 Z-0.125000
G01 X24.549554 Y16.731742 Z-0.125000
G01 X24.039679 Y16.731742 Z-0.125000
G01 X24.039679 Y19.424430 Z-0.125000
G01 X23.554610 Y19.424430 Z-0.125000
G01 X23.554610 Y19.818548 Z-0.125000
G01 X24.039679 Y19.818548 Z-0.125000
G01 X24.039679 Y20.033522 Z-0.125000
G02 X24.115138 Y20.517132 Z-0.125000 I1.587423 J0.000003
G02 X24.279458 Y20.783175 Z-0.125000 I0.617102 J-0.197382
G02 X24.549886 Y20.945584 Z-0.125000 I0.468818 J-0.474281
G02 X25.040135 Y21.020199 Z-0.125000 I0.490276 J-1.573432
G01 X25.519693 Y21.020199 Z-0.125000
G00 Z5.000000

(End cutting path id: path3772)


(Start cutting path id: path3770)
(Change tool to Default tool)

G00 Z5.000000
G00 X23.124662 Y18.401925

G01 Z-0.125000 F100.0(Penetrate)
G01 X23.124662 Y18.153880 Z-0.125000 F400.000000
G01 X20.793021 Y18.153880 Z-0.125000
G03 X20.901766 Y17.664852 Z-0.125000 I1.611684 J0.101783
G03 X21.107214 Y17.354615 Z-0.125000 I0.829147 J0.325941
G03 X21.423077 Y17.161209 Z-0.125000 I0.598266 J0.622435
G03 X21.895452 Y17.081765 Z-0.125000 I0.472375 J1.364654
G03 X22.185228 Y17.100064 Z-0.125000 I0.000000 J2.303576
G03 X22.460448 Y17.153422 Z-0.125000 I-0.269937 J2.128814
G03 X22.729803 Y17.241138 Z-0.125000 I-0.589946 J2.269000
G03 X23.006151 Y17.368396 Z-0.125000 I-0.991272 J2.516284
G01 X23.006151 Y16.888838 Z-0.125000
G02 X22.729030 Y16.786640 Z-0.125000 I-1.204526 J2.839365
G02 X22.446667 Y16.712449 Z-0.125000 I-0.905881 J2.873292
G02 X22.158437 Y16.667065 Z-0.125000 I-0.577692 J2.730929
G02 X21.865135 Y16.651817 Z-0.125000 I-0.293302 J2.813140
G02 X21.176941 Y16.774131 Z-0.125000 I0.000000 J1.997204
G02 X20.693803 Y17.081765 Z-0.125000 I0.462098 J1.258922
G02 X20.385972 Y17.562295 Z-0.125000 I0.942866 J0.942872
G02 X20.263855 Y18.244829 Z-0.125000 I1.846340 J0.682533
G02 X20.381420 Y18.956921 Z-0.125000 I2.215350 J0.000001
G02 X20.671754 Y19.446477 Z-0.125000 I1.304658 J-0.442866
G02 X21.136999 Y19.768578 Z-0.125000 I0.947394 J-0.871372
G02 X21.776941 Y19.892961 Z-0.125000 I0.639952 J-1.584085
G02 X22.349576 Y19.780391 Z-0.125000 I-0.000010 J-1.512806
G02 X22.760860 Y19.490574 Z-0.125000 I-0.425637 J-1.040769
G02 X23.019217 Y19.050135 Z-0.125000 I-0.914311 J-0.832319
G02 X23.124662 Y18.401925 Z-0.125000 I-1.939758 J-0.648224
G00 Z5.000000

(End cutting path id: path3770)


(Start cutting path id: path3770)
(Change tool to Default tool)

G00 Z5.000000
G00 X22.617544 Y18.550755

G01 Z-0.125000 F100.0(Penetrate)
G03 X22.548003 Y18.941413 Z-0.125000 I-1.223141 J-0.016212 F400.000000
G03 X22.383277 Y19.214967 Z-0.125000 I-0.747076 J-0.263491
G03 X22.127089 Y19.394670 Z-0.125000 I-0.529586 J-0.482525
G03 X21.782453 Y19.463015 Z-0.125000 I-0.344646 J-0.834807
G03 X21.384852 Y19.395037 Z-0.125000 I0.000012 J-1.196818
G03 X21.101702 Y19.223237 Z-0.125000 I0.268062 J-0.761039
G03 X20.912130 Y18.952477 Z-0.125000 I0.564629 J-0.597069
G03 X20.809558 Y18.547997 Z-0.125000 I1.202060 J-0.520077
G01 X22.617544 Y18.550820 Z-0.125000
G00 Z5.000000

(End cutting path id: path3770)


(Start cutting path id: path3768)
(Change tool to Default tool)

G00 Z5.000000
G00 X19.508690 Y19.727599

G01 Z-0.125000 F100.0(Penetrate)
G01 X19.508690 Y19.248041 Z-0.125000 F400.000000
G03 X19.288721 Y19.344765 Z-0.125000 I-0.920940 J-1.795905
G03 X19.062205 Y19.413406 Z-0.125000 I-0.680141 J-1.836390
G03 X18.829036 Y19.454411 Z-0.125000 I-0.459990 J-1.932254
G03 X18.582648 Y19.468527 Z-0.125000 I-0.246425 J-2.143810
G03 X18.215453 Y19.431473 Z-0.125000 I0.000021 J-1.838141
G03 X18.014896 Y19.352771 Z-0.125000 I0.125143 J-0.613789
G03 X17.878744 Y19.208424 Z-0.125000 I0.201809 J-0.326738
G03 X17.827483 Y19.005505 Z-0.125000 I0.375995 J-0.202917
G03 X17.863850 Y18.847224 Z-0.125000 I0.362614 J-0.000003
G03 X17.962531 Y18.727144 Z-0.125000 I0.298800 J0.144962
G03 X18.107844 Y18.650513 Z-0.125000 I0.328977 J0.447741
G03 X18.505478 Y18.536974 Z-0.125000 I1.163729 J3.322520
G01 X18.679111 Y18.498388 Z-0.125000
G02 X19.194171 Y18.334662 Z-0.125000 I-0.586567 J-2.737272
G02 X19.445300 Y18.170415 Z-0.125000 I-0.339597 J-0.793344
G02 X19.608509 Y17.932097 Z-0.125000 I-0.429836 J-0.469411
G02 X19.674054 Y17.583370 Z-0.125000 I-0.894950 J-0.348736
G02 X19.583102 Y17.199489 Z-0.125000 I-0.855631 J0.000008
G02 X19.332301 Y16.902619 Z-0.125000 I-0.742066 J0.372537
G02 X18.968493 Y16.727056 Z-0.125000 I-0.644938 J0.871734
G02 X18.397991 Y16.651817 Z-0.125000 I-0.570502 J2.125293
G02 X18.151017 Y16.663614 Z-0.125000 I-0.000000 J2.591181
G02 X17.879849 Y16.701426 Z-0.125000 I0.302902 J3.163485
G02 X17.614960 Y16.758150 Z-0.125000 I0.624353 J3.562405
G02 X17.314853 Y16.844741 Z-0.125000 I1.182233 J4.660746
G01 X17.314853 Y17.368396 Z-0.125000
G03 X17.601771 Y17.237156 Z-0.125000 I1.449310 J2.789248
G03 X17.868824 Y17.147910 Z-0.125000 I0.925687 J2.325773
G03 X18.143934 Y17.093757 Z-0.125000 I0.570416 J2.171963
G03 X18.409015 Y17.076254 Z-0.125000 I0.265049 J1.998031
G03 X18.756420 Y17.114014 Z-0.125000 I0.000019 J1.616794
G03 X18.960231 Y17.197519 Z-0.125000 I-0.138008 J0.627312
G03 X19.102476 Y17.349211 Z-0.125000 I-0.230723 J0.358896
G03 X19.153156 Y17.544785 Z-0.125000 I-0.352047 J0.195580
G03 X19.113466 Y17.732179 Z-0.125000 I-0.462266 J-0.000008
G03 X19.012596 Y17.861734 Z-0.125000 I-0.310482 J-0.137691
G03 X18.861963 Y17.945004 Z-0.125000 I-0.318260 J-0.397844
G03 X18.403503 Y18.073951 Z-0.125000 I-1.283410 J-3.683567
G01 X18.227114 Y18.115294 Z-0.125000
G02 X17.780115 Y18.260075 Z-0.125000 I0.458546 J2.178145
G02 X17.546363 Y18.418463 Z-0.125000 I0.327014 J0.734297
G02 X17.396694 Y18.650164 Z-0.125000 I0.446896 J0.452867
G02 X17.336902 Y18.983458 Z-0.125000 I0.899014 J0.333292
G02 X17.422814 Y19.376566 Z-0.125000 I0.942324 J0.000001
G02 X17.645582 Y19.655940 Z-0.125000 I0.675309 J-0.309978
G02 X17.978770 Y19.820799 Z-0.125000 I0.583159 J-0.759468
G02 X18.522015 Y19.892961 Z-0.125000 I0.543260 J-2.008830
G02 X18.802227 Y19.882034 Z-0.125000 I-0.000054 J-3.599786
G02 X19.051181 Y19.851621 Z-0.125000 I-0.223871 J-2.866709
G02 X19.295876 Y19.798197 Z-0.125000 I-0.414310 J-2.484708
G02 X19.508690 Y19.727599 Z-0.125000 I-0.527578 J-1.946409
G00 Z5.000000

(End cutting path id: path3768)


(Start cutting path id: path3766)
(Change tool to Default tool)

G00 Z5.000000
G00 X15.286381 Y19.463015

G01 Z-0.125000 F100.0(Penetrate)
G03 X14.921512 Y19.377538 Z-0.125000 I0.000009 J-0.821514 F400.000000
G03 X14.641459 Y19.143308 Z-0.125000 I0.346326 J-0.698616
G03 X14.475320 Y18.802784 Z-0.125000 I0.810928 J-0.606435
G03 X14.404436 Y18.272390 Z-0.125000 I1.948872 J-0.530389
G03 X14.474402 Y17.741308 Z-0.125000 I2.050577 J-0.000005
G03 X14.638703 Y17.398712 Z-0.125000 I0.996482 J0.267195
G03 X14.918403 Y17.166974 Z-0.125000 I0.619986 J0.463637
G03 X15.286381 Y17.081765 Z-0.125000 I0.367978 J0.751965
G03 X15.648632 Y17.166952 Z-0.125000 I0.000000 J0.812816
G03 X15.928547 Y17.401470 Z-0.125000 I-0.348822 J0.700656
G03 X16.095013 Y17.744474 Z-0.125000 I-0.827576 J0.613536
G03 X16.165569 Y18.272390 Z-0.125000 I-1.939833 J0.527930
G03 X16.095161 Y18.797593 Z-0.125000 I-1.994165 J-0.000014
G03 X15.928547 Y19.140554 Z-0.125000 I-0.996034 J-0.271933
G03 X15.648140 Y19.377286 Z-0.125000 I-0.632883 J-0.465209
G03 X15.286381 Y19.463015 Z-0.125000 I-0.361768 J-0.720443
G00 Z5.000000

(End cutting path id: path3766)


(Start cutting path id: path3766)
(Change tool to Default tool)

G00 Z5.000000
G00 X15.286381 Y19.892961

G01 Z-0.125000 F100.0(Penetrate)
G02 X15.893245 Y19.772360 Z-0.125000 I-0.000010 J-1.587221 F400.000000
G02 X16.325422 Y19.463015 Z-0.125000 I-0.447784 J-1.082150
G02 X16.591761 Y18.991152 Z-0.125000 I-0.991581 J-0.870788
G02 X16.703004 Y18.272390 Z-0.125000 I-2.266501 J-0.718776
G02 X16.592134 Y17.556038 Z-0.125000 I-2.369782 J0.000015
G02 X16.325422 Y17.081765 Z-0.125000 I-1.272795 J0.403641
G02 X15.893243 Y16.772416 Z-0.125000 I-0.879959 J0.772789
G02 X15.286381 Y16.651817 Z-0.125000 I-0.606862 J1.466586
G02 X14.676862 Y16.772647 Z-0.125000 I-0.000000 J1.597742
G02 X14.244584 Y17.081765 Z-0.125000 I0.445822 J1.080263
G02 X13.979928 Y17.555550 Z-0.125000 I1.010279 J0.875153
G02 X13.869758 Y18.272390 Z-0.125000 I2.277020 J0.716840
G02 X13.980299 Y18.991643 Z-0.125000 I2.395217 J0.000001
G02 X14.244584 Y19.463015 Z-0.125000 I1.259985 J-0.396663
G02 X14.676861 Y19.772129 Z-0.125000 I0.878103 J-0.771162
G02 X15.286381 Y19.892961 Z-0.125000 I0.609530 J-1.476945
G00 Z5.000000

(End cutting path id: path3766)


(Start cutting path id: path3764)
(Change tool to Default tool)

G00 Z5.000000
G00 X12.447622 Y20.846565

G01 Z-0.125000 F100.0(Penetrate)
G01 X13.004349 Y20.846565 Z-0.125000 F400.000000
G01 X13.004349 Y17.018375 Z-0.125000
G02 X12.912554 Y16.307804 Z-0.125000 I-2.796123 J0.000005
G02 X12.720474 Y15.937992 Z-0.125000 I-0.914844 J0.240380
G02 X12.390943 Y15.705329 Z-0.125000 I-0.602651 J0.503864
G02 X11.813724 Y15.601753 Z-0.125000 I-0.577219 J1.556594
G01 X11.601507 Y15.601753 Z-0.125000
G01 X11.601507 Y16.070284 Z-0.125000
G01 X11.775140 Y16.070284 Z-0.125000
G03 X12.111839 Y16.134650 Z-0.125000 I-0.000010 J0.912876
G03 X12.296038 Y16.276989 Z-0.125000 I-0.155275 J0.391293
G03 X12.395256 Y16.500841 Z-0.125000 I-0.461634 J0.338524
G03 X12.447622 Y17.018375 Z-0.125000 I-2.531242 J0.517539
G01 X12.447622 Y20.846565 Z-0.125000
G00 Z5.000000

(End cutting path id: path3764)


(Start cutting path id: path4753)
(Change tool to Default tool)

G00 Z5.000000
G00 X25.670455 Y28.392243

G01 Z-0.125000 F100.0(Penetrate)
G03 X24.952220 Y29.449879 Z-0.125000 I-2.564155 J-0.968611 F400.000000
G03 X23.886673 Y30.164188 Z-0.125000 I-2.923391 J-3.208974
G03 X23.361274 Y30.378726 Z-0.125000 I-2.225817 J-4.700353
G02 X22.827710 Y30.574261 Z-0.125000 I5.107917 J14.763932
G02 X22.188018 Y30.747815 Z-0.125000 I8.501665 J32.601444
G03 X21.545283 Y30.908687 Z-0.125000 I-3.046024 J-10.805411
G03 X20.149630 Y31.164532 Z-0.125000 I-4.410747 J-20.126310
G03 X18.741794 Y31.341451 Z-0.125000 I-4.751544 J-32.120640
G03 X17.533204 Y31.434546 Z-0.125000 I-2.374738 J-22.938059
G03 X16.334462 Y31.453058 Z-0.125000 I-0.862602 J-17.036175
G03 X15.881612 Y31.431534 Z-0.125000 I0.160827 J-8.158395
G02 X15.429083 Y31.401616 Z-0.125000 I-1.841578 J24.417855
G02 X14.806537 Y31.309992 Z-0.125000 I-46.684637 J315.042077
G03 X14.204792 Y31.144174 Z-0.125000 I0.365679 J-2.501792
G02 X13.809109 Y30.988159 Z-0.125000 I-4.770564 J11.519205
G01 X13.822427 Y30.922868 Z-0.125000
G03 X14.105184 Y31.061016 Z-0.125000 I-0.017317 J0.393886
G02 X14.383475 Y31.152030 Z-0.125000 I0.213550 J-0.181998
G02 X14.394206 Y31.047755 Z-0.125000 I-0.012807 J-0.054008
G03 X14.176670 Y30.838863 Z-0.125000 I0.198983 J-0.424933
G03 X14.099377 Y30.657787 Z-0.125000 I1.165559 J-0.604557
G02 X14.031069 Y30.472606 Z-0.125000 I-3.737917 J1.273631
G03 X13.902357 Y29.872028 Z-0.125000 I3.780484 J-1.124288
G03 X13.842213 Y29.261605 Z-0.125000 I8.695509 J-1.164926
G03 X13.824726 Y28.853579 Z-0.125000 I9.984159 J-0.632280
G03 X13.841846 Y28.444902 Z-0.125000 I3.182829 J-0.071364
G03 X13.872041 Y28.251843 Z-0.125000 I1.983225 J0.211290
G02 X13.908567 Y28.059668 Z-0.125000 I-5.865557 J-1.214388
G02 X13.970718 Y27.872512 Z-0.125000 I-4.522483 J-1.605728
G03 X14.040393 Y27.688382 Z-0.125000 I1.525644 J0.472063
G03 X14.485583 Y26.981409 Z-0.125000 I2.757563 J1.242813
G03 X15.113401 Y26.430291 Z-0.125000 I2.139219 J1.803782
G03 X15.289338 Y26.331677 Z-0.125000 I0.912569 J1.421863
G02 X15.469348 Y26.240001 Z-0.125000 I-2.213436 J-4.568746
G02 X15.657662 Y26.167953 Z-0.125000 I-2.465548 J-6.726419
G03 X15.847778 Y26.101289 Z-0.125000 I0.883882 J2.216271
G03 X16.679488 Y25.923783 Z-0.125000 I1.460511 J4.806014
G03 X17.527903 Y25.895412 Z-0.125000 I0.577814 J4.579421
G03 X17.754484 Y25.920316 Z-0.125000 I-0.131556 J2.240198
G02 X17.980351 Y25.952917 Z-0.125000 I1.075673 J-6.653690
G03 X24.013083 Y21.524397 Z-0.125000 I3.130217 J-2.059166
G03 X18.825111 Y26.278818 Z-0.125000 I-2.730139 J2.228642
G02 X18.601348 Y26.118079 Z-0.125000 I-0.647883 J0.665794
G02 X18.343945 Y26.014622 Z-0.125000 I-0.689787 J1.344271
G01 X18.334697 Y26.038996 Z-0.125000
G03 X18.641565 Y26.223999 Z-0.125000 I-0.703699 J1.514246
G03 X18.869851 Y26.414768 Z-0.125000 I-1.954614 J2.570987
G03 X19.082979 Y26.612743 Z-0.125000 I-15.422676 J16.816771
G02 X19.730804 Y27.116738 Z-0.125000 I2.268411 J-2.247426
G02 X20.507899 Y27.549498 Z-0.125000 I9.339112 J-15.855886
G02 X20.933122 Y27.666695 Z-0.125000 I0.480932 J-0.914941
G03 X21.374339 Y27.699029 Z-0.125000 I-0.619968 J11.486276
G02 X22.211659 Y27.604772 Z-0.125000 I0.133765 J-2.577955
G02 X22.958840 Y27.205300 Z-0.125000 I-0.541339 J-1.911041
G02 X23.050650 Y27.116395 Z-0.125000 I-0.654152 J-0.767390
G03 X23.138778 Y27.023523 Z-0.125000 I2.241837 J2.039049
G02 X23.415630 Y26.433090 Z-0.125000 I-0.946787 J-0.804069
G02 X23.486879 Y25.792290 Z-0.125000 I-5.116020 J-0.893206
G02 X23.493709 Y25.236005 Z-0.125000 I-11.044080 J-0.413782
G02 X23.484735 Y24.679847 Z-0.125000 I-85.793936 J1.106328
G02 X23.475094 Y24.282674 Z-0.125000 I-2.775291 J-0.131337
G03 X23.573821 Y23.890122 Z-0.125000 I0.600339 J-0.057705
G03 X23.712509 Y23.755864 Z-0.125000 I0.379691 J0.253459
G03 X23.877149 Y23.657179 Z-0.125000 I3.133670 J5.041341
G03 X24.440097 Y23.519176 Z-0.125000 I0.898261 J2.447025
G03 X25.023038 Y23.570377 Z-0.125000 I0.175133 J1.350148
G03 X25.335333 Y23.707527 Z-0.125000 I-0.467016 J1.487536
G01 X25.332893 Y23.711901 Z-0.125000
G02 X25.045630 Y23.566656 Z-0.125000 I-2.927499 J5.433210
G03 X24.755798 Y23.426384 Z-0.125000 I7.923115 J-16.740446
G03 X25.219692 Y24.071954 Z-0.125000 I-1.454092 J1.534340
G03 X25.435236 Y24.838373 Z-0.125000 I-2.270179 J1.051972
G03 X25.444280 Y24.992126 Z-0.125000 I-1.376446 J0.158110
G02 X25.447623 Y25.146320 Z-0.125000 I4.162217 J-0.013090
G03 X25.295637 Y25.724762 Z-0.125000 I-1.753361 J-0.151507
G03 X24.934554 Y26.206740 Z-0.125000 I-1.282612 J-0.584649
G03 X24.686411 Y26.371959 Z-0.125000 I-0.780817 J-0.903758
G03 X24.417830 Y26.499884 Z-0.125000 I-3.731106 J-7.487629
G03 X23.876333 Y26.637649 Z-0.125000 I-0.986608 J-2.744862
G03 X23.323168 Y26.705219 Z-0.125000 I-1.343614 J-8.701509
G01 X24.157798 Y27.297502 Z-0.125000
G01 X24.157798 Y27.297502 Z-0.125000
G02 X24.713631 Y27.208080 Z-0.125000 I-1.452337 J-10.799619
G02 X25.256588 Y27.054517 Z-0.125000 I-0.576703 J-3.075739
G02 X25.536769 Y26.911087 Z-0.125000 I-3.605658 J-7.388794
G02 X25.795123 Y26.729323 Z-0.125000 I-0.619355 J-1.154821
G02 X26.174423 Y26.213143 Z-0.125000 I-1.063229 J-1.178732
G02 X26.344094 Y25.599651 Z-0.125000 I-1.807059 J-0.829980
G03 X26.343663 Y25.438604 Z-0.125000 I4.320395 J-0.092090
G02 X26.337234 Y25.277909 Z-0.125000 I-1.437817 J-0.022946
G02 X26.133836 Y24.481060 Z-0.125000 I-2.668598 J0.256782
G02 X25.683135 Y23.794911 Z-0.125000 I-2.140286 J0.914762
G03 X25.177348 Y23.439748 Z-0.125000 I2.782294 J-4.499987
G02 X24.223476 Y22.970812 Z-0.125000 I-1.557231 J1.962983
G02 X23.607045 Y22.940217 Z-0.125000 I-0.386245 J1.556813
G02 X23.016335 Y23.101072 Z-0.125000 I0.361386 J2.492189
G02 X22.831902 Y23.224805 Z-0.125000 I2.649273 J4.148229
G02 X22.676652 Y23.386025 Z-0.125000 I0.339773 J0.482554
G02 X22.565099 Y23.796183 Z-0.125000 I0.583973 J0.379074
G03 X22.568098 Y24.214010 Z-0.125000 I-5.569170 J0.248895
G02 X22.573258 Y24.768488 Z-0.125000 I35.999498 J-0.057712
G03 X22.575625 Y25.322936 Z-0.125000 I-21.763955 J0.370160
G03 X22.517503 Y25.929115 Z-0.125000 I-5.389781 J-0.210915
G03 X22.269686 Y26.492389 Z-0.125000 I-1.172465 J-0.179684
G02 X22.189107 Y26.580099 Z-0.125000 I1.883116 J1.810863
G03 X22.104786 Y26.663868 Z-0.125000 I-0.653219 J-0.573203
G03 X21.379717 Y27.038459 Z-0.125000 I-1.138585 J-1.314849
G03 X20.571699 Y27.102301 Z-0.125000 I-0.600313 J-2.452612
G03 X20.256748 Y27.061033 Z-0.125000 I6.482867 J-50.698719
G03 X19.950076 Y26.996271 Z-0.125000 I0.279201 J-2.080610
G03 X19.718252 Y26.896959 Z-0.125000 I0.289451 J-0.995897
G01 X19.711751 Y26.907018 Z-0.125000
G02 X20.043000 Y27.119106 Z-0.125000 I2.225253 J-3.110782
G02 X20.387794 Y27.309386 Z-0.125000 I7.072484 J-12.408080
G01 X20.390892 Y27.303946 Z-0.125000
G03 X20.205633 Y27.170758 Z-0.125000 I0.758137 J-1.249978
G03 X20.111144 Y27.085221 Z-0.125000 I1.199850 J-1.420378
G02 X20.018587 Y26.997502 Z-0.125000 I-3.885047 J4.006620
G02 X19.133949 Y26.303197 Z-0.125000 I-3.924826 J4.090033
G02 X18.059654 Y25.671478 Z-0.125000 I-9.687995 J15.245979
G02 X17.857074 Y25.573936 Z-0.125000 I-1.109590 J2.045321
G02 X17.647160 Y25.492974 Z-0.125000 I-1.358102 J3.208591
G02 X17.424019 Y25.428032 Z-0.125000 I-0.728227 J2.086359
G03 X17.198461 Y25.370886 Z-0.125000 I1.517124 J-6.461852
G03 X16.967311 Y25.342722 Z-0.125000 I0.782188 J-7.382493
G02 X16.735619 Y25.321844 Z-0.125000 I-0.337543 J2.449729
G02 X15.872933 Y25.360285 Z-0.125000 I-0.211856 J4.944914
G02 X15.030129 Y25.551278 Z-0.125000 I0.625400 J4.714757
G02 X14.836217 Y25.623647 Z-0.125000 I0.736866 J2.270400
G03 X14.644318 Y25.701658 Z-0.125000 I-2.794749 J-6.599796
G03 X14.460725 Y25.800229 Z-0.125000 I-2.625806 J-4.670402
G02 X14.281378 Y25.905711 Z-0.125000 I0.812828 J1.587230
G02 X13.639452 Y26.481821 Z-0.125000 I1.702789 J2.543006
G02 X13.177243 Y27.210314 Z-0.125000 I2.499507 J2.096746
G02 X13.102895 Y27.401565 Z-0.125000 I1.503019 J0.694366
G03 X13.036403 Y27.596059 Z-0.125000 I-4.739972 J-1.511855
G03 X12.998020 Y27.794333 Z-0.125000 I-6.247524 J-1.106575
G02 X12.966002 Y27.993526 Z-0.125000 I2.067853 J0.434559
G02 X12.946154 Y28.407754 Z-0.125000 I3.234936 J0.362595
G02 X12.961170 Y28.821506 Z-0.125000 I10.139432 J-0.160848
G02 X13.017926 Y29.442866 Z-0.125000 I9.057989 J-0.514096
G02 X13.135993 Y30.056152 Z-0.125000 I4.791337 J-0.604401
G03 X13.247794 Y30.425952 Z-0.125000 I-4.172909 J1.463383
G02 X13.467901 Y30.775112 Z-0.125000 I0.650275 J-0.165969
G03 X13.723445 Y30.994933 Z-0.125000 I-7.385390 J8.844063
G02 X14.966505 Y31.728852 Z-0.125000 I2.512505 J-2.835838
G02 X15.547205 Y31.861213 Z-0.125000 I0.850702 J-2.392227
G03 X16.144282 Y31.925760 Z-0.125000 I-27.940955 J261.254501
G03 X16.581391 Y31.940407 Z-0.125000 I-0.652301 J25.996647
G02 X17.018559 Y31.947695 Z-0.125000 I0.362941 J-8.655994
G02 X18.193293 Y31.900498 Z-0.125000 I-0.159610 J-18.616186
G02 X19.377951 Y31.791249 Z-0.125000 I-2.108215 J-29.338329
G02 X20.794365 Y31.607911 Z-0.125000 I-4.834100 J-42.909789
G02 X22.199278 Y31.359641 Z-0.125000 I-3.483179 J-23.809862
G02 X22.860086 Y31.205072 Z-0.125000 I-2.733362 J-13.175347
G03 X23.518388 Y31.039367 Z-0.125000 I10.185387 J39.073363
G03 X24.074298 Y30.850579 Z-0.125000 I5.835199 J16.269648
G02 X24.622838 Y30.643250 Z-0.125000 I-1.757745 J-5.479854
G02 X25.760322 Y29.936947 Z-0.125000 I-1.878253 J-4.293980
G02 X26.591942 Y28.904206 Z-0.125000 I-2.214385 J-2.634348
G01 X25.670447 Y28.392243 Z-0.125000
G01 X25.670455 Y28.392243 Z-0.125000
G00 Z5.000000

(End cutting path id: path4753)


(Start cutting path id: path4751)
(Change tool to Default tool)

G00 Z5.000000
G00 X15.863225 Y7.850821

G01 Z-0.125000 F100.0(Penetrate)
G02 X15.824157 Y6.802963 Z-0.125000 I-209.746352 J7.295404 F400.000000
G03 X15.856818 Y5.754172 Z-0.125000 I7.400608 J-0.294435
G03 X15.887660 Y5.523411 Z-0.125000 I3.755288 J0.384464
G02 X15.923256 Y5.293233 Z-0.125000 I-11.177157 J-1.846308
G03 X16.074111 Y4.805741 Z-0.125000 I3.852573 J0.925097
G03 X16.371769 Y4.381943 Z-0.125000 I0.986518 J0.376459
G03 X16.813205 Y4.160796 Z-0.125000 I0.660537 J0.767357
G03 X17.287446 Y4.081690 Z-0.125000 I0.984995 J4.443949
G02 X17.380458 Y3.861946 Z-0.125000 I0.042507 J-0.111564
G02 X17.265935 Y3.943073 Z-0.125000 I-0.034161 J0.073173
G02 X17.443468 Y4.198835 Z-0.125000 I0.318401 J-0.031517
G03 X17.708016 Y4.421553 Z-0.125000 I-0.315281 J0.642972
G03 X17.914895 Y4.742887 Z-0.125000 I-2.806813 J2.034323
G03 X18.091522 Y5.082156 Z-0.125000 I-4.511582 J2.564393
G03 X18.407427 Y5.939776 Z-0.125000 I-4.582441 J2.174936
G03 X18.642598 Y6.844933 Z-0.125000 I-52.984433 J14.249148
G02 X18.732697 Y7.372189 Z-0.125000 I38.151752 J-6.248138
G03 X18.815475 Y7.900543 Z-0.125000 I-12.683682 J2.257835
G03 X18.928657 Y8.919780 Z-0.125000 I-21.122062 J2.861431
G03 X18.997488 Y9.954035 Z-0.125000 I-25.712152 J2.230574
G03 X19.016158 Y10.780912 Z-0.125000 I-17.362499 J0.805682
G03 X18.978443 Y11.606230 Z-0.125000 I-9.297243 J-0.011337
G03 X18.934171 Y11.959518 Z-0.125000 I-5.131903 J-0.463684
G02 X18.881743 Y12.311881 Z-0.125000 I15.271678 J2.452331
G02 X18.807924 Y12.616233 Z-0.125000 I7.995157 J2.100313
G03 X18.722745 Y12.917135 Z-0.125000 I-2.685818 J-0.597799
G03 X18.359447 Y13.677564 Z-0.125000 I-3.532932 J-1.220871
G03 X17.819854 Y14.325947 Z-0.125000 I-2.649197 J-1.655981
G03 X17.412558 Y14.624118 Z-0.125000 I-1.561298 J-1.705438
G03 X16.977478 Y14.863895 Z-0.125000 I-6.573361 J-11.412850
G02 X16.752257 Y14.947578 Z-0.125000 I2.714868 J7.651580
G03 X16.524858 Y15.024490 Z-0.125000 I-0.979179 J-2.520443
G03 X15.158656 Y15.244083 Z-0.125000 I-1.575854 J-5.444472
G03 X13.776510 Y15.261548 Z-0.125000 I-1.049448 J-28.352303
G03 X12.852334 Y15.075538 Z-0.125000 I0.469746 J-4.722747
G03 X11.975481 Y14.731133 Z-0.125000 I1.818126 J-5.917377
G02 X11.708538 Y14.602175 Z-0.125000 I-163.772809 J338.667162
G03 X11.457941 Y14.446865 Z-0.125000 I0.610249 J-1.264482
G02 X10.776322 Y15.106476 Z-0.125000 I-0.293727 J0.378459
G02 X11.808314 Y14.601393 Z-0.125000 I0.472115 J-0.342199
G02 X11.639782 Y14.407274 Z-0.125000 I-0.294872 J0.085787
G03 X11.402851 Y14.257506 Z-0.125000 I0.414045 J-0.917309
G03 X10.799254 Y13.628338 Z-0.125000 I8.815239 J-9.061080
G03 X10.281633 Y12.925025 Z-0.125000 I3.404459 J-3.047733
G03 X10.112470 Y12.604135 Z-0.125000 I2.904930 J-1.736423
G03 X9.965080 Y12.276985 Z-0.125000 I19.788803 J-9.112186
G03 X9.644939 Y11.455797 Z-0.125000 I16.771342 J-7.011308
G03 X9.364269 Y10.620642 Z-0.125000 I17.802166 J-6.447512
G03 X9.273456 Y10.271913 Z-0.125000 I4.474085 J-1.351290
G02 X9.195859 Y9.920306 Z-0.125000 I-172.444838 J37.873027
G02 X9.144963 Y9.696070 Z-0.125000 I-22.636208 J5.019889
G02 X9.061401 Y9.478808 Z-0.125000 I-0.818119 J0.189961
G02 X8.992342 Y9.379363 Z-0.125000 I-0.526185 J0.291707
G03 X8.916413 Y9.284353 Z-0.125000 I1.377546 J-1.178734
G03 X8.068332 Y8.777561 Z-0.125000 I46.112359 J-78.128759
G02 X7.412873 Y8.528251 Z-0.125000 I-1.010364 J1.670054
G02 X7.165010 Y8.483607 Z-0.125000 I-4.938107 J26.705868
G02 X6.915059 Y8.460085 Z-0.125000 I-0.272155 J1.552220
G02 X6.296869 Y8.515566 Z-0.125000 I-0.042277 J3.000739
G02 X5.703344 Y8.693346 Z-0.125000 I0.608068 J3.109699
G02 X5.409908 Y8.840633 Z-0.125000 I0.817259 J1.994142
G03 X5.123598 Y9.003066 Z-0.125000 I-3.340757 J-5.554983
G02 X4.252667 Y9.757009 Z-0.125000 I2.713642 J4.014722
G02 X3.614529 Y10.719392 Z-0.125000 I2.809380 J2.555609
G02 X3.448352 Y11.180906 Z-0.125000 I2.553948 J1.180273
G02 X3.329294 Y11.655330 Z-0.125000 I18.978746 J5.014893
G02 X3.201317 Y13.024308 Z-0.125000 I17.524272 J2.328703
G02 X3.202007 Y14.400130 Z-0.125000 I12.537183 J0.681627
G02 X3.223205 Y14.662424 Z-0.125000 I5.187145 J-0.287215
G03 X3.248837 Y14.924398 Z-0.125000 I-15.502197 J1.648990
G02 X3.538397 Y16.030430 Z-0.125000 I5.810981 J-0.930399
G02 X4.101159 Y17.032018 Z-0.125000 I3.413152 J-1.258851
G02 X4.254056 Y17.205359 Z-0.125000 I1.730778 J-1.372556
G03 X4.413103 Y17.373463 Z-0.125000 I-4.739589 J4.643516
G02 X5.483388 Y18.127803 Z-0.125000 I4.370667 J-5.064812
G02 X6.696691 Y18.621844 Z-0.125000 I2.507414 J-4.421010
G02 X7.885594 Y18.828473 Z-0.125000 I1.801647 J-6.842680
G02 X9.086051 Y18.924076 Z-0.125000 I7.208503 J-82.930153
G02 X10.074349 Y18.959923 Z-0.125000 I3.848965 J-92.472281
G02 X11.099250 Y18.986699 Z-0.125000 I3.304688 J-106.866906
G01 X10.409456 Y18.482777 Z-0.125000
G01 X10.409456 Y18.482777 Z-0.125000
G03 X9.373783 Y18.445543 Z-0.125000 I3.135468 J-101.636171
G03 X8.375127 Y18.398864 Z-0.125000 I3.612420 J-87.989821
G03 X7.505638 Y18.320981 Z-0.125000 I15.201634 J-174.604462
G03 X6.649882 Y18.203370 Z-0.125000 I0.885214 J-9.613103
G03 X6.299163 Y18.131713 Z-0.125000 I1.597320 J-8.711979
G03 X5.952713 Y18.042068 Z-0.125000 I1.251617 J-5.551416
G03 X5.665546 Y17.910932 Z-0.125000 I0.309470 J-1.057678
G02 X5.372037 Y17.829482 Z-0.125000 I-0.277751 J0.431331
G01 X5.370418 Y17.828314 Z-0.125000
G02 X5.313030 Y17.749729 Z-0.125000 I-0.139385 J0.041541
G02 X5.153478 Y17.589199 Z-0.125000 I-4.557621 J4.370310
G03 X4.999984 Y17.423265 Z-0.125000 I1.464160 J-1.508361
G03 X4.420580 Y16.442535 Z-0.125000 I2.767023 J-2.296240
G03 X4.109798 Y15.352618 Z-0.125000 I5.457899 J-2.145548
G02 X4.079923 Y15.092458 Z-0.125000 I-13.690954 J1.440424
G03 X4.055009 Y14.831871 Z-0.125000 I4.553244 J-0.566806
G03 X4.038190 Y14.275417 Z-0.125000 I7.595570 J-0.508054
G03 X4.047919 Y13.719089 Z-0.125000 I24.999299 J0.158943
G03 X4.086266 Y12.915035 Z-0.125000 I21.129264 J0.604761
G03 X4.182876 Y12.115366 Z-0.125000 I7.510322 J0.501669
G03 X4.296287 Y11.651785 Z-0.125000 I19.672019 J4.566896
G03 X4.452859 Y11.200057 Z-0.125000 I2.829705 J0.727801
G03 X5.059284 Y10.253236 Z-0.125000 I3.350935 J1.478611
G03 X5.906583 Y9.516203 Z-0.125000 I3.217939 J2.843819
G02 X6.188419 Y9.362340 Z-0.125000 I-2.716577 J-5.311115
G03 X6.477296 Y9.224290 Z-0.125000 I0.996567 J1.714088
G03 X7.072439 Y9.067295 Z-0.125000 I1.028010 J2.690472
G03 X7.686557 Y9.039352 Z-0.125000 I0.439131 J2.888672
G03 X7.942515 Y9.073591 Z-0.125000 I-0.105926 J1.765666
G03 X8.195043 Y9.130655 Z-0.125000 I-1.635264 J7.823899
G03 X8.549624 Y9.290931 Z-0.125000 I-0.248362 J1.021821
G01 X8.580202 Y9.256559 Z-0.125000
G02 X8.295206 Y9.050803 Z-0.125000 I-0.606480 J0.539788
G03 X7.976568 Y8.885188 Z-0.125000 I0.985412 J-2.285243
G02 X8.057953 Y8.964852 Z-0.125000 I1.018508 J-0.959111
G03 X8.132068 Y9.050318 Z-0.125000 I-0.310293 J0.343950
G03 X8.224987 Y9.257959 Z-0.125000 I-0.554030 J0.372539
G03 X8.277130 Y9.475552 Z-0.125000 I-7.544945 J1.923091
G03 X8.354718 Y9.832127 Z-0.125000 I-27.056895 J6.074081
G02 X8.443887 Y10.186342 Z-0.125000 I4.590478 J-0.967260
G02 X8.732847 Y11.030760 Z-0.125000 I17.930511 J-5.664178
G02 X9.059696 Y11.861566 Z-0.125000 I19.598073 J-7.230428
G02 X9.207027 Y12.197748 Z-0.125000 I25.093902 J-10.796983
G02 X9.375950 Y12.527681 Z-0.125000 I3.168687 J-1.414123
G02 X9.900444 Y13.250215 Z-0.125000 I3.817216 J-2.219321
G02 X10.513828 Y13.896962 Z-0.125000 I11.173930 J-9.983258
G02 X11.149528 Y14.383571 Z-0.125000 I4.021855 J-4.595569
G02 X12.196966 Y15.041629 Z-0.125000 I12.798539 J-19.208940
G02 X13.325338 Y15.558254 Z-0.125000 I3.020572 J-5.106733
G02 X14.538784 Y15.816596 Z-0.125000 I1.726760 J-5.131692
G02 X15.942538 Y15.799419 Z-0.125000 I0.302763 J-32.625004
G02 X17.328904 Y15.566550 Z-0.125000 I-0.179317 J-5.310792
G02 X17.559471 Y15.483424 Z-0.125000 I-0.769485 J-2.495647
G03 X17.787547 Y15.393035 Z-0.125000 I3.003146 J7.244777
G02 X18.227413 Y15.136561 Z-0.125000 I-6.498738 J-11.651130
G02 X18.638606 Y14.821785 Z-0.125000 I-1.268072 J-2.082443
G02 X19.184691 Y14.149491 Z-0.125000 I-2.321120 J-2.443314
G02 X19.549057 Y13.364037 Z-0.125000 I-3.103208 J-1.916793
G02 X19.629661 Y13.054253 Z-0.125000 I-2.503085 J-0.816663
G03 X19.697748 Y12.740939 Z-0.125000 I7.763752 J1.523123
G03 X19.745603 Y12.381517 Z-0.125000 I15.435829 J1.872293
G02 X19.785040 Y12.021273 Z-0.125000 I-5.126417 J-0.743483
G02 X19.807293 Y11.184091 Z-0.125000 I-8.799032 J-0.652773
G02 X19.771663 Y10.341242 Z-0.125000 I-19.756792 J0.413016
G02 X19.689960 Y9.293044 Z-0.125000 I-36.956482 J2.353325
G02 X19.579080 Y8.274890 Z-0.125000 I-30.922370 J2.852441
G02 X19.504203 Y7.747261 Z-0.125000 I-16.520132 J2.075278
G03 X19.423692 Y7.220404 Z-0.125000 I49.344856 J-7.810159
G03 X19.324528 Y6.738039 Z-0.125000 I16.612045 J-3.666461
G02 X19.211533 Y6.259150 Z-0.125000 I-5.565870 J1.060501
G02 X18.948095 Y5.501248 Z-0.125000 I-6.506386 J1.836808
G02 X18.571173 Y4.786280 Z-0.125000 I-4.094840 J1.701908
G02 X18.391058 Y4.518270 Z-0.125000 I-8.844675 J5.749507
G02 X18.168374 Y4.290656 Z-0.125000 I-0.784731 J0.544994
G02 X17.549903 Y3.897892 Z-0.125000 I-3.416065 J4.695840
G02 X16.895099 Y3.566993 Z-0.125000 I-5.085250 J9.249669
G02 X16.690245 Y3.522555 Z-0.125000 I-0.202005 J0.436830
G03 X16.476515 Y3.508273 Z-0.125000 I-0.008735 J-1.475675
G02 X16.114810 Y3.567476 Z-0.125000 I1.399502 J9.684978
G02 X15.769548 Y3.684185 Z-0.125000 I0.226972 J1.240503
G02 X15.281134 Y4.185873 Z-0.125000 I0.493347 J0.968884
G02 X15.062643 Y4.839801 Z-0.125000 I2.564024 J1.220157
G02 X15.003298 Y5.326114 Z-0.125000 I26.852219 J3.523596
G02 X14.965511 Y5.825902 Z-0.125000 I6.745845 J0.761347
G02 X14.954825 Y6.599569 Z-0.125000 I15.635824 J0.602863
G03 X14.926224 Y7.373397 Z-0.125000 I-8.092393 J0.088340
G01 X15.863224 Y7.850821 Z-0.125000
G01 X15.863225 Y7.850821 Z-0.125000
G00 Z5.000000

(End cutting path id: path4751)


(Footer)
M5
G00 X0.0000 Y0.0000
M2
(Using default footer. To add your own footer create file "footer" in the output dir.)
(end)
%