%
(Header)
(Generated by gcodetools from Inkscape.)
(Using default header. To add your own header create file "header" in the output dir.)
M3
(Header end.)
G21 (All units in mm)

(Start cutting path id: path2991)
(Change tool to Default tool)

G00 Z5.000000
G00 X30.540476 Y17.034128

G01 Z-0.125000 F100.0(Penetrate)
G02 X27.117179 Y8.966948 Z-0.125000 I-11.217013 J-0.000000 F400.000000
G02 X18.646826 Y5.543651 Z-0.125000 I-8.470353 J8.767558
G02 X10.176473 Y8.966949 Z-0.125000 I-0.000000 J12.190856
G02 X6.753175 Y17.034128 Z-0.125000 I7.793716 J8.067179
G02 X10.176472 Y25.101307 Z-0.125000 I11.217013 J-0.000000
G02 X18.646826 Y28.524604 Z-0.125000 I8.470353 J-8.767558
G02 X27.117179 Y25.101307 Z-0.125000 I0.000000 J-12.190855
G02 X30.540476 Y17.034128 Z-0.125000 I-7.793716 J-8.067179
G01 X30.540476 Y17.034128 Z-0.125000
G00 Z5.000000

(End cutting path id: path2991)


(Start cutting path id: path2989)
(Change tool to Default tool)

G00 Z5.000000
G00 X18.445238 Y11.994443

G01 Z-0.125000 F100.0(Penetrate)
G02 X18.505373 Y11.771912 Z-0.125000 I-0.049820 J-0.132854 F400.000000
G02 X18.319246 Y11.658464 Z-0.125000 I-0.253808 J0.207001
G02 X17.895535 Y11.824697 Z-0.125000 I-0.085549 J0.405060
G02 X17.773280 Y12.246427 Z-0.125000 I0.549004 J0.387735
G02 X18.135702 Y12.860889 Z-0.125000 I0.768050 J-0.038897
G02 X18.823214 Y13.002380 Z-0.125000 I0.535991 J-0.863339
G02 X19.633670 Y12.449138 Z-0.125000 I-0.168435 J-1.116992
G02 X19.789154 Y11.490475 Z-0.125000 I-1.189070 J-0.684793
G02 X19.046698 Y10.482023 Z-0.125000 I-1.460038 J0.297392
G02 X17.815278 Y10.314549 Z-0.125000 I-0.833345 J1.516506
G02 X16.607884 Y11.245541 Z-0.125000 I0.425585 J1.800362
G02 X16.429365 Y12.750395 Z-0.125000 I1.844131 J0.981783
G02 X17.548550 Y14.157252 Z-0.125000 I2.139253 J-0.553225
G02 X19.327182 Y14.346295 Z-0.125000 I1.130179 J-2.171664
G02 X20.933818 Y13.039115 Z-0.125000 I-0.680481 J-2.477308
G02 X21.133069 Y10.986507 Z-0.125000 I-2.499066 J-1.278564
G02 X19.638020 Y9.179885 Z-0.125000 I-2.814836 J0.807469
G02 X17.311311 Y8.970633 Z-0.125000 I-1.426952 J2.826350
G02 X15.304561 Y10.653468 Z-0.125000 I0.934263 J3.152014
G02 X15.085449 Y13.254362 Z-0.125000 I3.153537 J1.575345
G02 X16.956013 Y15.461342 Z-0.125000 I3.488948 J-1.060914
G02 X19.831149 Y15.690211 Z-0.125000 I1.723746 J-3.480643
G02 X22.238435 Y13.631961 Z-0.125000 I-1.187455 J-3.825703
G02 X22.476985 Y10.482539 Z-0.125000 I-3.807687 J-1.872155
G00 Z5.000000

(End cutting path id: path2989)


(Start cutting path id: path3772)
(Change tool to Default tool)

G00 Z5.000000
G00 X25.519693 Y21.020199

G01 Z-0.125000 F100.0(Penetrate)
G01 X25.519693 Y20.598517 Z-0.125000 F400.000000
G01 X25.034623 Y20.598517 Z-0.125000
G03 X24.777182 Y20.561957 Z-0.125000 I0.000014 J-0.924780
G03 X24.654284 Y20.488275 Z-0.125000 I0.078188 J-0.269750
G03 X24.584904 Y20.363912 Z-0.125000 I0.207953 J-0.197548
G03 X24.549554 Y20.091400 Z-0.125000 I1.032656 J-0.272505
G01 X24.549554 Y19.818548 Z-0.125000
G01 X25.384645 Y19.818548 Z-0.125000
G01 X25.384645 Y19.424430 Z-0.125000
G01 X24.549554 Y19.424430 Z-0.125000
G01 X24.549554 Y16.731742 Z-0.125000
G01 X24.039679 Y16.731742 Z-0.125000
G01 X24.039679 Y19.424430 Z-0.125000
G01 X23.554610 Y19.424430 Z-0.125000
G01 X23.554610 Y19.818548 Z-0.125000
G01 X24.039679 Y19.818548 Z-0.125000
G01 X24.039679 Y20.033522 Z-0.125000
G02 X24.115138 Y20.517132 Z-0.125000 I1.587423 J0.000003
G02 X24.279458 Y20.783175 Z-0.125000 I0.617102 J-0.197382
G02 X24.549886 Y20.945584 Z-0.125000 I0.468818 J-0.474281
G02 X25.040135 Y21.020199 Z-0.125000 I0.490276 J-1.573432
G01 X25.519693 Y21.020199 Z-0.125000
G00 Z5.000000

(End cutting path id: path3772)


(Start cutting path id: path3770)
(Change tool to Default tool)

G00 Z5.000000
G00 X23.124662 Y18.401925

G01 Z-0.125000 F100.0(Penetrate)
G01 X23.124662 Y18.153880 Z-0.125000 F400.000000
G01 X20.793021 Y18.153880 Z-0.125000
G03 X20.901766 Y17.664852 Z-0.125000 I1.611684 J0.101783
G03 X21.107214 Y17.354615 Z-0.125000 I0.829147 J0.325941
G03 X21.423077 Y17.161209 Z-0.125000 I0.598266 J0.622435
G03 X21.895452 Y17.081765 Z-0.125000 I0.472375 J1.364654
G03 X22.185228 Y17.100064 Z-0.125000 I0.000000 J2.303576
G03 X22.460448 Y17.153422 Z-0.125000 I-0.269937 J2.128814
G03 X22.729803 Y17.241138 Z-0.125000 I-0.589946 J2.269000
G03 X23.006151 Y17.368396 Z-0.125000 I-0.991272 J2.516284
G01 X23.006151 Y16.888838 Z-0.125000
G02 X22.729030 Y16.786640 Z-0.125000 I-1.204526 J2.839365
G02 X22.446667 Y16.712449 Z-0.125000 I-0.905881 J2.873292
G02 X22.158437 Y16.667065 Z-0.125000 I-0.577692 J2.730929
G02 X21.865135 Y16.651817 Z-0.125000 I-0.293302 J2.813140
G02 X21.176941 Y16.774131 Z-0.125000 I0.000000 J1.997204
G02 X20.693803 Y17.081765 Z-0.125000 I0.462098 J1.258922
G02 X20.385972 Y17.562295 Z-0.125000 I0.942866 J0.942872
G02 X20.263855 Y18.244829 Z-0.125000 I1.846340 J0.682533
G02 X20.381420 Y18.956921 Z-0.125000 I2.215350 J0.000001
G02 X20.671754 Y19.446477 Z-0.125000 I1.304658 J-0.442866
G02 X21.136999 Y19.768578 Z-0.125000 I0.947394 J-0.871372
G02 X21.776941 Y19.892961 Z-0.125000 I0.639952 J-1.584085
G02 X22.349576 Y19.780391 Z-0.125000 I-0.000010 J-1.512806
G02 X22.760860 Y19.490574 Z-0.125000 I-0.425637 J-1.040769
G02 X23.019217 Y19.050135 Z-0.125000 I-0.914311 J-0.832319
G02 X23.124662 Y18.401925 Z-0.125000 I-1.939758 J-0.648224
G00 Z5.000000

(End cutting path id: path3770)


(Start cutting path id: path3770)
(Change tool to Default tool)

G00 Z5.000000
G00 X22.617544 Y18.550755

G01 Z-0.125000 F100.0(Penetrate)
G03 X22.548003 Y18.941413 Z-0.125000 I-1.223141 J-0.016212 F400.000000
G03 X22.383277 Y19.214967 Z-0.125000 I-0.747076 J-0.263491
G03 X22.127089 Y19.394670 Z-0.125000 I-0.529586 J-0.482525
G03 X21.782453 Y19.463015 Z-0.125000 I-0.344646 J-0.834807
G03 X21.384852 Y19.395037 Z-0.125000 I0.000012 J-1.196818
G03 X21.101702 Y19.223237 Z-0.125000 I0.268062 J-0.761039
G03 X20.912130 Y18.952477 Z-0.125000 I0.564629 J-0.597069
G03 X20.809558 Y18.547997 Z-0.125000 I1.202060 J-0.520077
G01 X22.617544 Y18.550820 Z-0.125000
G00 Z5.000000

(End cutting path id: path3770)


(Start cutting path id: path3768)
(Change tool to Default tool)

G00 Z5.000000
G00 X19.508690 Y19.727599

G01 Z-0.125000 F100.0(Penetrate)
G01 X19.508690 Y19.248041 Z-0.125000 F400.000000
G03 X19.288721 Y19.344765 Z-0.125000 I-0.920940 J-1.795905
G03 X19.062205 Y19.413406 Z-0.125000 I-0.680141 J-1.836390
G03 X18.829036 Y19.454411 Z-0.125000 I-0.459990 J-1.932254
G03 X18.582648 Y19.468527 Z-0.125000 I-0.246425 J-2.143810
G03 X18.215453 Y19.431473 Z-0.125000 I0.000021 J-1.838141
G03 X18.014896 Y19.352771 Z-0.125000 I0.125143 J-0.613789
G03 X17.878744 Y19.208424 Z-0.125000 I0.201809 J-0.326738
G03 X17.827483 Y19.005505 Z-0.125000 I0.375995 J-0.202917
G03 X17.863850 Y18.847224 Z-0.125000 I0.362614 J-0.000003
G03 X17.962531 Y18.727144 Z-0.125000 I0.298800 J0.144962
G03 X18.107844 Y18.650513 Z-0.125000 I0.328977 J0.447741
G03 X18.505478 Y18.536974 Z-0.125000 I1.163729 J3.322520
G01 X18.679111 Y18.498388 Z-0.125000
G02 X19.194171 Y18.334662 Z-0.125000 I-0.586567 J-2.737272
G02 X19.445300 Y18.170415 Z-0.125000 I-0.339597 J-0.793344
G02 X19.608509 Y17.932097 Z-0.125000 I-0.429836 J-0.469411
G02 X19.674054 Y17.583370 Z-0.125000 I-0.894950 J-0.348736
G02 X19.583102 Y17.199489 Z-0.125000 I-0.855631 J0.000008
G02 X19.332301 Y16.902619 Z-0.125000 I-0.742066 J0.372537
G02 X18.968493 Y16.727056 Z-0.125000 I-0.644938 J0.871734
G02 X18.397991 Y16.651817 Z-0.125000 I-0.570502 J2.125293
G02 X18.151017 Y16.663614 Z-0.125000 I-0.000000 J2.591181
G02 X17.879849 Y16.701426 Z-0.125000 I0.302902 J3.163485
G02 X17.614960 Y16.758150 Z-0.125000 I0.624353 J3.562405
G02 X17.314853 Y16.844741 Z-0.125000 I1.182233 J4.660746
G01 X17.314853 Y17.368396 Z-0.125000
G03 X17.601771 Y17.237156 Z-0.125000 I1.449310 J2.789248
G03 X17.868824 Y17.147910 Z-0.125000 I0.925687 J2.325773
G03 X18.143934 Y17.093757 Z-0.125000 I0.570416 J2.171963
G03 X18.409015 Y17.076254 Z-0.125000 I0.265049 J1.998031
G03 X18.756420 Y17.114014 Z-0.125000 I0.000019 J1.616794
G03 X18.960231 Y17.197519 Z-0.125000 I-0.138008 J0.627312
G03 X19.102476 Y17.349211 Z-0.125000 I-0.230723 J0.358896
G03 X19.153156 Y17.544785 Z-0.125000 I-0.352047 J0.195580
G03 X19.113466 Y17.732179 Z-0.125000 I-0.462266 J-0.000008
G03 X19.012596 Y17.861734 Z-0.125000 I-0.310482 J-0.137691
G03 X18.861963 Y17.945004 Z-0.125000 I-0.318260 J-0.397844
G03 X18.403503 Y18.073951 Z-0.125000 I-1.283410 J-3.683567
G01 X18.227114 Y18.115294 Z-0.125000
G02 X17.780115 Y18.260075 Z-0.125000 I0.458546 J2.178145
G02 X17.546363 Y18.418463 Z-0.125000 I0.327014 J0.734297
G02 X17.396694 Y18.650164 Z-0.125000 I0.446896 J0.452867
G02 X17.336902 Y18.983458 Z-0.125000 I0.899014 J0.333292
G02 X17.422814 Y19.376566 Z-0.125000 I0.942324 J0.000001
G02 X17.645582 Y19.655940 Z-0.125000 I0.675309 J-0.309978
G02 X17.978770 Y19.820799 Z-0.125000 I0.583159 J-0.759468
G02 X18.522015 Y19.892961 Z-0.125000 I0.543260 J-2.008830
G02 X18.802227 Y19.882034 Z-0.125000 I-0.000054 J-3.599786
G02 X19.051181 Y19.851621 Z-0.125000 I-0.223871 J-2.866709
G02 X19.295876 Y19.798197 Z-0.125000 I-0.414310 J-2.484708
G02 X19.508690 Y19.727599 Z-0.125000 I-0.527578 J-1.946409
G00 Z5.000000

(End cutting path id: path3768)


(Start cutting path id: path3766)
(Change tool to Default tool)

G00 Z5.000000
G00 X15.286381 Y19.463015

G01 Z-0.125000 F100.0(Penetrate)
G03 X14.921512 Y19.377538 Z-0.125000 I0.000009 J-0.821514 F400.000000
G03 X14.641459 Y19.143308 Z-0.125000 I0.346326 J-0.698616
G03 X14.475320 Y18.802784 Z-0.125000 I0.810928 J-0.606435
G03 X14.404436 Y18.272390 Z-0.125000 I1.948872 J-0.530389
G03 X14.474402 Y17.741308 Z-0.125000 I2.050577 J-0.000005
G03 X14.638703 Y17.398712 Z-0.125000 I0.996482 J0.267195
G03 X14.918403 Y17.166974 Z-0.125000 I0.619986 J0.463637
G03 X15.286381 Y17.081765 Z-0.125000 I0.367978 J0.751965
G03 X15.648632 Y17.166952 Z-0.125000 I0.000000 J0.812816
G03 X15.928547 Y17.401470 Z-0.125000 I-0.348822 J0.700656
G03 X16.095013 Y17.744474 Z-0.125000 I-0.827576 J0.613536
G03 X16.165569 Y18.272390 Z-0.125000 I-1.939833 J0.527930
G03 X16.095161 Y18.797593 Z-0.125000 I-1.994165 J-0.000014
G03 X15.928547 Y19.140554 Z-0.125000 I-0.996034 J-0.271933
G03 X15.648140 Y19.377286 Z-0.125000 I-0.632883 J-0.465209
G03 X15.286381 Y19.463015 Z-0.125000 I-0.361768 J-0.720443
G00 Z5.000000

(End cutting path id: path3766)


(Start cutting path id: path3766)
(Change tool to Default tool)

G00 Z5.000000
G00 X15.286381 Y19.892961

G01 Z-0.125000 F100.0(Penetrate)
G02 X15.893245 Y19.772360 Z-0.125000 I-0.000010 J-1.587221 F400.000000
G02 X16.325422 Y19.463015 Z-0.125000 I-0.447784 J-1.082150
G02 X16.591761 Y18.991152 Z-0.125000 I-0.991581 J-0.870788
G02 X16.703004 Y18.272390 Z-0.125000 I-2.266501 J-0.718776
G02 X16.592134 Y17.556038 Z-0.125000 I-2.369782 J0.000015
G02 X16.325422 Y17.081765 Z-0.125000 I-1.272795 J0.403641
G02 X15.893243 Y16.772416 Z-0.125000 I-0.879959 J0.772789
G02 X15.286381 Y16.651817 Z-0.125000 I-0.606862 J1.466586
G02 X14.676862 Y16.772647 Z-0.125000 I-0.000000 J1.597742
G02 X14.244584 Y17.081765 Z-0.125000 I0.445822 J1.080263
G02 X13.979928 Y17.555550 Z-0.125000 I1.010279 J0.875153
G02 X13.869758 Y18.272390 Z-0.125000 I2.277020 J0.716840
G02 X13.980299 Y18.991643 Z-0.125000 I2.395217 J0.000001
G02 X14.244584 Y19.463015 Z-0.125000 I1.259985 J-0.396663
G02 X14.676861 Y19.772129 Z-0.125000 I0.878103 J-0.771162
G02 X15.286381 Y19.892961 Z-0.125000 I0.609530 J-1.476945
G00 Z5.000000

(End cutting path id: path3766)


(Start cutting path id: path3764)
(Change tool to Default tool)

G00 Z5.000000
G00 X12.447622 Y20.846565

G01 Z-0.125000 F100.0(Penetrate)
G01 X13.004349 Y20.846565 Z-0.125000 F400.000000
G01 X13.004349 Y17.018375 Z-0.125000
G02 X12.912554 Y16.307804 Z-0.125000 I-2.796123 J0.000005
G02 X12.720474 Y15.937992 Z-0.125000 I-0.914844 J0.240380
G02 X12.390943 Y15.705329 Z-0.125000 I-0.602651 J0.503864
G02 X11.813724 Y15.601753 Z-0.125000 I-0.577219 J1.556594
G01 X11.601507 Y15.601753 Z-0.125000
G01 X11.601507 Y16.070284 Z-0.125000
G01 X11.775140 Y16.070284 Z-0.125000
G03 X12.111839 Y16.134650 Z-0.125000 I-0.000010 J0.912876
G03 X12.296038 Y16.276989 Z-0.125000 I-0.155275 J0.391293
G03 X12.395256 Y16.500841 Z-0.125000 I-0.461634 J0.338524
G03 X12.447622 Y17.018375 Z-0.125000 I-2.531242 J0.517539
G01 X12.447622 Y20.846565 Z-0.125000
G00 Z5.000000

(End cutting path id: path3764)


(Footer)
M5
G00 X0.0000 Y0.0000
M2
(Using default footer. To add your own footer create file "footer" in the output dir.)
(end)
%