%
(Header)
(Generated by gcodetools from Inkscape.)
(Using default header. To add your own header create file "header" in the output dir.)
M3
(Header end.)
G21 (All units in mm)

(Start cutting path id: path3135)
(Change tool to Default tool)

G00 Z5.000000
G00 X22.368542 Y10.992526

G01 Z-0.125000 F100.0(Penetrate)
G01 X22.398256 Y8.026239 Z-0.125000 F400.000000
G00 Z5.000000

(End cutting path id: path3135)


(Start cutting path id: path3133)
(Change tool to Default tool)

G00 Z5.000000
G00 X21.389684 Y10.606883

G01 Z-0.125000 F100.0(Penetrate)
G01 X21.404506 Y7.462596 Z-0.125000 F400.000000
G00 Z5.000000

(End cutting path id: path3133)


(Start cutting path id: path3131)
(Change tool to Default tool)

G00 Z5.000000
G00 X20.306987 Y10.428956

G01 Z-0.125000 F100.0(Penetrate)
G01 X20.336630 Y7.151134 Z-0.125000 F400.000000
G00 Z5.000000

(End cutting path id: path3131)


(Start cutting path id: path3129)
(Change tool to Default tool)

G00 Z5.000000
G00 X19.372612 Y10.339954

G01 Z-0.125000 F100.0(Penetrate)
G01 X19.387434 Y7.002846 Z-0.125000 F400.000000
G00 Z5.000000

(End cutting path id: path3129)


(Start cutting path id: path3127)
(Change tool to Default tool)

G00 Z5.000000
G00 X18.334398 Y10.325133

G01 Z-0.125000 F100.0(Penetrate)
G01 X18.334398 Y6.988025 Z-0.125000 F400.000000
G00 Z5.000000

(End cutting path id: path3127)


(Start cutting path id: path3125)
(Change tool to Default tool)

G00 Z5.000000
G00 X17.251719 Y10.354776

G01 Z-0.125000 F100.0(Penetrate)
G01 X17.236826 Y7.017667 Z-0.125000 F400.000000
G00 Z5.000000

(End cutting path id: path3125)


(Start cutting path id: path3123)
(Change tool to Default tool)

G00 Z5.000000
G00 X16.287611 Y10.428954

G01 Z-0.125000 F100.0(Penetrate)
G01 X16.257969 Y7.136310 Z-0.125000 F400.000000
G00 Z5.000000

(End cutting path id: path3123)


(Start cutting path id: path3121)
(Change tool to Default tool)

G00 Z5.000000
G00 X15.219754 Y10.562419

G01 Z-0.125000 F100.0(Penetrate)
G01 X15.204932 Y7.418132 Z-0.125000 F400.000000
G00 Z5.000000

(End cutting path id: path3121)


(Start cutting path id: path3119)
(Change tool to Default tool)

G00 Z5.000000
G00 X14.255718 Y10.873883

G01 Z-0.125000 F100.0(Penetrate)
G01 X14.226075 Y7.937239 Z-0.125000 F400.000000
G00 Z5.000000

(End cutting path id: path3119)


(Start cutting path id: path3117)
(Change tool to Default tool)

G00 Z5.000000
G00 X13.432628 Y8.637268

G01 Z-0.125000 F100.0(Penetrate)
G03 X15.631484 Y7.228533 Z-0.125000 I3.307417 J2.742024 F400.000000
G03 X18.361689 Y6.833397 Z-0.125000 I3.042346 J11.391381
G03 X21.751951 Y7.407717 Z-0.125000 I0.309011 J8.469546
G03 X23.123011 Y8.637197 Z-0.125000 I-0.953028 J2.441986
G00 Z5.000000

(End cutting path id: path3117)


(Start cutting path id: path3115)
(Change tool to Default tool)

G00 Z5.000000
G00 X14.271608 Y9.518147

G01 Z-0.125000 F100.0(Penetrate)
G03 X16.092429 Y8.787295 Z-0.125000 I2.926119 J4.656440 F400.000000
G03 X18.356487 Y8.600499 Z-0.125000 I1.906334 J9.291596
G03 X20.627949 Y8.833205 Z-0.125000 I-0.357656 J14.693470
G03 X22.346951 Y9.539097 Z-0.125000 I-0.798044 J4.389432
G00 Z5.000000

(End cutting path id: path3115)


(Start cutting path id: path3113)
(Change tool to Default tool)

G00 Z5.000000
G00 X13.904563 Y11.196250

G01 Z-0.125000 F100.0(Penetrate)
G03 X15.753898 Y10.580953 Z-0.125000 I2.244712 J3.659873 F400.000000
G03 X18.390620 Y10.483038 Z-0.125000 I2.205939 J23.852540
G03 X21.109540 Y10.661441 Z-0.125000 I-0.114573 J22.553961
G03 X22.766441 Y11.238149 Z-0.125000 I-0.531179 J4.194617
G00 Z5.000000

(End cutting path id: path3113)


(Start cutting path id: path3111)
(Change tool to Default tool)

G00 Z5.000000
G00 X24.419981 Y13.472048

G01 Z-0.125000 F100.0(Penetrate)
G03 X23.970566 Y12.329465 Z-0.125000 I19.944005 J-8.504301 F400.000000
G03 X23.596749 Y11.211918 Z-0.125000 I23.456665 J-8.467503
G03 X23.338978 Y10.105229 Z-0.125000 I11.314092 J-3.218656
G03 X23.102154 Y8.557025 Z-0.125000 I26.816384 J-4.894227
G00 Z5.000000

(End cutting path id: path3111)


(Start cutting path id: path3109)
(Change tool to Default tool)

G00 Z5.000000
G00 X12.174158 Y13.419611

G01 Z-0.125000 F100.0(Penetrate)
G02 X12.623573 Y12.277028 Z-0.125000 I-19.944005 J-8.504301 F400.000000
G02 X12.997390 Y11.159481 Z-0.125000 I-23.456665 J-8.467503
G02 X13.255162 Y10.052792 Z-0.125000 I-11.314092 J-3.218656
G02 X13.491985 Y8.504587 Z-0.125000 I-26.816384 J-4.894227
G00 Z5.000000

(End cutting path id: path3109)


(Start cutting path id: path3107)
(Change tool to Default tool)

G00 Z5.000000
G00 X24.453650 Y21.611960

G01 Z-0.125000 F100.0(Penetrate)
G03 X23.026713 Y21.827138 Z-0.125000 I-5.227724 J-29.828390 F400.000000
G03 X21.606006 Y21.997532 Z-0.125000 I-13.868250 J-109.622491
G03 X20.201315 Y21.371880 Z-0.125000 I-0.304134 J-1.206879
G03 X20.063506 Y19.802459 Z-0.125000 I1.795911 J-0.948457
G03 X20.835213 Y18.448027 Z-0.125000 I7.720112 J3.501581
G03 X21.813578 Y17.192102 Z-0.125000 I12.592194 J8.800275
G03 X22.749553 Y16.641424 Z-0.125000 I1.317793 J1.169056
G03 X23.623079 Y16.687887 Z-0.125000 I0.353347 J1.591497
G03 X24.254476 Y16.996306 Z-0.125000 I-0.513146 J1.851027
G03 X25.076650 Y17.844673 Z-0.125000 I-2.172288 J2.927797
G02 X25.378799 Y18.598343 Z-0.125000 I9.470685 J-3.359430
G03 X25.758865 Y19.535531 Z-0.125000 I-12.668655 J5.683288
G03 X25.697424 Y20.547503 Z-0.125000 I-1.370723 J0.424629
G03 X24.453650 Y21.611960 Z-0.125000 I-1.748784 J-0.784504
G01 X24.453650 Y21.611960 Z-0.125000
G00 Z5.000000

(End cutting path id: path3107)


(Start cutting path id: path3105)
(Change tool to Default tool)

G00 Z5.000000
G00 X12.191596 Y21.611960

G01 Z-0.125000 F100.0(Penetrate)
G02 X13.618534 Y21.827138 Z-0.125000 I5.227724 J-29.828390 F400.000000
G02 X15.039240 Y21.997532 Z-0.125000 I13.868250 J-109.622491
G02 X16.443932 Y21.371880 Z-0.125000 I0.304134 J-1.206879
G02 X16.581740 Y19.802459 Z-0.125000 I-1.795911 J-0.948457
G02 X15.810033 Y18.448027 Z-0.125000 I-7.720112 J3.501581
G02 X14.831668 Y17.192102 Z-0.125000 I-12.592194 J8.800275
G02 X13.895694 Y16.641424 Z-0.125000 I-1.317793 J1.169056
G02 X13.022168 Y16.687887 Z-0.125000 I-0.353347 J1.591497
G02 X12.390770 Y16.996306 Z-0.125000 I0.513146 J1.851027
G02 X11.568596 Y17.844673 Z-0.125000 I2.172288 J2.927797
G03 X11.266447 Y18.598343 Z-0.125000 I-9.470685 J-3.359430
G02 X10.886382 Y19.535531 Z-0.125000 I12.668655 J5.683288
G02 X10.947823 Y20.547503 Z-0.125000 I1.370723 J0.424629
G02 X12.191596 Y21.611960 Z-0.125000 I1.748784 J-0.784504
G01 X12.191596 Y21.611960 Z-0.125000
G00 Z5.000000

(End cutting path id: path3105)


(Start cutting path id: path3103)
(Change tool to Default tool)

G00 Z5.000000
G00 X18.561993 Y17.596048

G01 Z-0.125000 F100.0(Penetrate)
G02 X19.297366 Y16.934593 Z-0.125000 I-3.637169 J-4.783127 F400.000000
G02 X19.788397 Y16.312852 Z-0.125000 I-3.302234 J-3.112771
G02 X20.034290 Y15.865815 Z-0.125000 I-4.431448 J-2.728668
G02 X20.255130 Y15.212288 Z-0.125000 I-2.429042 J-1.184900
G02 X20.352908 Y14.569237 Z-0.125000 I-6.808974 J-1.364278
G02 X20.378191 Y14.079942 Z-0.125000 I-4.650259 J-0.485596
G02 X20.097230 Y12.806063 Z-0.125000 I-3.041241 J0.002839
G01 X19.767447 Y12.609554 Z-0.125000
G02 X19.417107 Y12.759277 Z-0.125000 I0.076024 J0.662637
G02 X18.572467 Y13.612568 Z-0.125000 I3.963192 J4.767694
G00 Z5.000000

(End cutting path id: path3103)


(Start cutting path id: path3101)
(Change tool to Default tool)

G00 Z5.000000
G00 X18.064476 Y17.610877

G01 Z-0.125000 F100.0(Penetrate)
G03 X17.329103 Y16.949422 Z-0.125000 I3.637169 J-4.783127 F400.000000
G03 X16.838072 Y16.327681 Z-0.125000 I3.302234 J-3.112771
G03 X16.592179 Y15.880644 Z-0.125000 I4.431448 J-2.728668
G03 X16.371338 Y15.227116 Z-0.125000 I2.429042 J-1.184900
G03 X16.273561 Y14.584065 Z-0.125000 I6.808974 J-1.364278
G03 X16.248278 Y14.094771 Z-0.125000 I4.650259 J-0.485596
G03 X16.529239 Y12.820891 Z-0.125000 I3.041241 J0.002839
G01 X16.859021 Y12.624383 Z-0.125000
G03 X17.209362 Y12.774106 Z-0.125000 I-0.076024 J0.662637
G03 X18.054001 Y13.627396 Z-0.125000 I-3.963192 J4.767694
G00 Z5.000000

(End cutting path id: path3101)


(Start cutting path id: path3099)
(Change tool to Default tool)

G00 Z5.000000
G00 X25.690957 Y13.959100

G01 Z-0.125000 F100.0(Penetrate)
G03 X24.981345 Y12.151893 Z-0.125000 I50.712501 J-20.955529 F400.000000
G03 X24.623099 Y10.369884 Z-0.125000 I5.410360 J-2.014684
G02 X24.765685 Y8.782995 Z-0.125000 I-5.708601 J-1.312781
G02 X24.534099 Y7.284883 Z-0.125000 I-7.118691 J0.333487
G02 X23.531945 Y5.337410 Z-0.125000 I-4.621484 J1.146593
G02 X21.730849 Y4.036775 Z-0.125000 I-3.580574 J3.060935
G02 X20.092585 Y3.567719 Z-0.125000 I-2.971341 J7.282452
G02 X18.289990 Y3.413846 Z-0.125000 I-1.802595 J10.481633
G00 Z5.000000

(End cutting path id: path3099)


(Start cutting path id: path3097)
(Change tool to Default tool)

G00 Z5.000000
G00 X10.933502 Y13.959098

G01 Z-0.125000 F100.0(Penetrate)
G02 X11.643114 Y12.151891 Z-0.125000 I-50.712501 J-20.955529 F400.000000
G02 X12.001360 Y10.369882 Z-0.125000 I-5.410360 J-2.014684
G03 X11.858774 Y8.782993 Z-0.125000 I5.708601 J-1.312781
G03 X12.090360 Y7.284881 Z-0.125000 I7.118691 J0.333487
G03 X13.082942 Y5.313429 Z-0.125000 I4.838331 J1.200393
G03 X14.878789 Y3.992309 Z-0.125000 I3.518975 J2.902333
G03 X16.545076 Y3.558916 Z-0.125000 I3.131917 J8.621510
G03 X18.349290 Y3.413844 Z-0.125000 I1.804215 J11.146731
G00 Z5.000000

(End cutting path id: path3097)


(Start cutting path id: path3095)
(Change tool to Default tool)

G00 Z5.000000
G00 X27.339702 Y27.161125

G01 Z-0.125000 F100.0(Penetrate)
G02 X27.744638 Y26.337609 Z-0.125000 I-0.785058 J-0.897341 F400.000000
G02 X27.722922 Y24.867219 Z-0.125000 I-9.573973 J-0.593955
G02 X27.373911 Y23.618675 Z-0.125000 I-3.653807 J0.348313
G03 X27.091157 Y22.480110 Z-0.125000 I2.573505 J-1.243502
G03 X27.201322 Y20.022214 Z-0.125000 I7.395138 J-0.899960
G02 X27.588317 Y18.006167 Z-0.125000 I-47.727571 J-10.206828
G02 X27.366431 Y15.690089 Z-0.125000 I-5.912048 J-0.602279
G02 X26.759741 Y14.733618 Z-0.125000 I-2.013267 J0.606368
G02 X25.591424 Y14.090792 Z-0.125000 I-2.001969 J2.255416
G03 X24.745448 Y13.811837 Z-0.125000 I3.204048 J-11.139060
G03 X23.976023 Y13.450242 Z-0.125000 I1.368438 J-3.911262
G03 X23.197175 Y12.910864 Z-0.125000 I3.844591 J-6.383488
G03 X22.598418 Y11.986282 Z-0.125000 I1.679524 J-1.743826
G03 X22.451471 Y11.088109 Z-0.125000 I2.352795 J-0.846039
G00 Z5.000000

(End cutting path id: path3095)


(Start cutting path id: path3093)
(Change tool to Default tool)

G00 Z5.000000
G00 X9.354518 Y27.119697

G01 Z-0.125000 F100.0(Penetrate)
G03 X8.949582 Y26.296181 Z-0.125000 I0.785058 J-0.897341 F400.000000
G03 X8.971298 Y24.825791 Z-0.125000 I9.573973 J-0.593955
G03 X9.320309 Y23.577247 Z-0.125000 I3.653807 J0.348313
G02 X9.603063 Y22.438682 Z-0.125000 I-2.573505 J-1.243502
G02 X9.492898 Y19.980786 Z-0.125000 I-7.395138 J-0.899960
G03 X9.105903 Y17.964739 Z-0.125000 I47.727571 J-10.206828
G03 X9.327789 Y15.648661 Z-0.125000 I5.912048 J-0.602279
G03 X9.934479 Y14.692190 Z-0.125000 I2.013267 J0.606368
G03 X10.853541 Y14.140403 Z-0.125000 I1.931853 J2.176423
G03 X11.948772 Y13.770409 Z-0.125000 I6.779894 J18.263363
G02 X12.795397 Y13.392172 Z-0.125000 I-0.717068 J-2.741680
G02 X13.497044 Y12.899078 Z-0.125000 I-8.426736 J-12.736584
G02 X14.104428 Y11.904169 Z-0.125000 I-2.060561 J-1.940811
G02 X14.242749 Y11.046681 Z-0.125000 I-2.276520 J-0.807125
G00 Z5.000000

(End cutting path id: path3093)


(Start cutting path id: path3091)
(Change tool to Default tool)

G00 Z5.000000
G00 X9.407107 Y19.799251

G01 Z-0.125000 F100.0(Penetrate)
G03 X8.963542 Y16.369202 Z-0.125000 I8.676462 J-2.865723 F400.000000
G03 X10.934857 Y13.958314 Z-0.125000 I2.661291 J0.164675
G01 X12.092783 Y7.284382 Z-0.125000
G03 X18.187248 Y2.443339 Z-0.125000 I6.096522 J1.418277
G03 X24.534257 Y7.284382 Z-0.125000 I0.002161 J6.578415
G01 X25.692183 Y13.958314 Z-0.125000
G03 X27.716359 Y16.399332 Z-0.125000 I-0.706206 J2.645377
G03 X27.295466 Y19.801388 Z-0.125000 I-8.697788 J0.650997
G01 X9.407107 Y19.799251 Z-0.125000
G00 Z5.000000

(End cutting path id: path3091)


(Start cutting path id: path3089)
(Change tool to Default tool)

G00 Z5.000000
G00 X9.271575 Y19.331734

G01 Z-0.125000 F100.0(Penetrate)
G02 X7.655360 Y21.726787 Z-0.125000 I4.925567 J5.066690 F400.000000
G02 X6.822757 Y25.442165 Z-0.125000 I10.585922 J4.323248
G02 X7.678695 Y29.431254 Z-0.125000 I7.813651 J0.409800
G02 X10.281358 Y32.448096 Z-0.125000 I7.554623 J-3.886361
G02 X14.920785 Y34.293160 Z-0.125000 I6.176318 J-8.774931
G02 X19.265584 Y34.495845 Z-0.125000 I3.212779 J-22.200469
G02 X22.900690 Y34.088442 Z-0.125000 I-0.011466 J-16.523351
G02 X26.107326 Y32.612686 Z-0.125000 I-1.879146 J-8.304845
G02 X28.803625 Y29.500964 Z-0.125000 I-5.353621 J-7.362928
G02 X29.806562 Y25.711445 Z-0.125000 I-7.696036 J-4.064318
G02 X29.017063 Y21.784326 Z-0.125000 I-8.252709 J-0.383812
G02 X27.333160 Y19.497406 Z-0.125000 I-6.742150 J3.200969
G00 Z5.000000

(End cutting path id: path3089)


(Start cutting path id: path3087)
(Change tool to Default tool)

G00 Z5.000000
G00 X25.023578 Y9.836025

G01 Z-0.125000 F100.0(Penetrate)
G01 X25.023578 Y9.836025 Z-0.125000 F400.000000
G01 X31.757152 Y13.009954 Z-0.125000
G02 X33.145129 Y13.072336 Z-0.125000 I0.784581 J-1.984457
G03 X34.337867 Y13.009954 Z-0.125000 I0.726978 J2.466049
G03 X35.420724 Y13.324435 Z-0.125000 I-0.024238 J2.105008
G03 X35.850724 Y14.166741 Z-0.125000 I-0.479674 J0.775787
G03 X35.215348 Y14.960361 Z-0.125000 I-5.262295 J-3.561864
G03 X34.248867 Y15.916955 Z-0.125000 I-14.007667 J-13.185917
G03 X34.177930 Y17.016700 Z-0.125000 I-4.714090 J0.248086
G03 X33.863224 Y18.112027 Z-0.125000 I-5.706507 J-1.046702
G03 X33.374545 Y18.384266 Z-0.125000 I-0.523724 J-0.365387
G03 X32.231795 Y17.963742 Z-0.125000 I-0.084304 J-1.533850
G03 X31.539067 Y16.986364 Z-0.125000 I1.195893 J-1.581782
G02 X30.659580 Y15.679669 Z-0.125000 I-2.689012 J0.860549
G02 X28.280652 Y14.511665 Z-0.125000 I-238.463325 J482.681969
G03 X25.646507 Y13.217597 Z-0.125000 I238.931903 J-489.685943
G01 X11.645431 Y8.382453 Z-0.125000
G02 X9.303484 Y7.167839 Z-0.125000 I-66.576552 J125.503861
G02 X6.691715 Y6.009452 Z-0.125000 I-12.498479 J24.656308
G02 X5.214961 Y6.014728 Z-0.125000 I-0.727915 J2.930849
G03 X3.399078 Y5.950095 Z-0.125000 I-0.798109 J-3.118059
G03 X3.032368 Y5.215389 Z-0.125000 I0.601575 J-0.759132
G03 X3.310093 Y4.496666 Z-0.125000 I1.003352 J-0.025311
G03 X3.988797 Y3.849062 Z-0.125000 I24.528315 J25.026817
G02 X4.585643 Y3.280380 Z-0.125000 I-22.140592 J-23.834641
G02 X4.721380 Y2.424016 Z-0.125000 I-6.517488 J-1.471984
G03 X4.822929 Y1.411665 Z-0.125000 I65.710720 J6.080187
G03 X5.569195 Y0.791303 Z-0.125000 I0.869177 J0.286537
G03 X6.335715 Y0.996308 Z-0.125000 I0.138118 J1.019098
G02 X6.731413 Y1.447191 Z-0.125000 I5.602062 J-4.517330
G03 X7.077287 Y1.915879 Z-0.125000 I-1.673462 J1.596914
G02 X7.482435 Y2.600754 Z-0.125000 I33.666449 J-19.453643
G02 X7.967216 Y3.280380 Z-0.125000 I4.754326 J-2.878573
G01 X12.446360 Y5.653452 Z-0.125000
G01 X25.023578 Y9.836025 Z-0.125000
G00 Z5.000000

(End cutting path id: path3087)


(Start cutting path id: path3085)
(Change tool to Default tool)

G00 Z5.000000
G00 X24.015006 Y5.742452

G01 Z-0.125000 F100.0(Penetrate)
G01 X24.015006 Y5.742452 Z-0.125000 F400.000000
G01 X28.523865 Y3.399094 Z-0.125000
G02 X29.439874 Y2.099588 Z-0.125000 I-2.190575 J-2.516710
G03 X30.066365 Y1.263308 Z-0.125000 I1.826911 J0.715809
G03 X31.027824 Y0.815667 Z-0.125000 I1.185610 J1.290149
G03 X31.697795 Y1.114951 Z-0.125000 I0.090031 J0.697991
G03 X31.976289 Y2.210264 Z-0.125000 I-2.589006 J1.241343
G02 X32.083509 Y3.339737 Z-0.125000 I12.949676 J-0.659473
G02 X32.797331 Y3.960607 Z-0.125000 I6.614338 J-6.883814
G03 X33.418366 Y4.555880 Z-0.125000 I-2.719212 J3.458483
G03 X33.630677 Y5.250355 Z-0.125000 I-0.636828 J0.574378
G03 X33.151295 Y5.920381 Z-0.125000 I-0.882359 J-0.124795
G03 X32.308538 Y6.145035 Z-0.125000 I-1.309613 J-3.219761
G03 X31.312223 Y6.068738 Z-0.125000 I-0.320180 J-2.362255
G02 X30.670267 Y5.951311 Z-0.125000 I-0.804993 J2.587331
G02 X29.799437 Y6.098381 Z-0.125000 I-0.117797 J1.954221
G01 X24.934578 Y8.352810 Z-0.125000
G01 X11.104448 Y13.147195 Z-0.125000
G03 X8.484634 Y14.406412 Z-0.125000 I-97.482289 J-199.458117
G02 X5.860645 Y15.748147 Z-0.125000 I20.202928 J42.746912
G02 X4.993921 Y16.945303 Z-0.125000 I1.720231 J2.157748
G03 X3.972925 Y18.181289 Z-0.125000 I-2.286367 J-0.848978
G03 X3.340276 Y18.298005 Z-0.125000 I-0.518393 J-1.036938
G03 X2.630522 Y17.845669 Z-0.125000 I0.091816 J-0.927068
G03 X2.396869 Y16.844792 Z-0.125000 I2.771273 J-1.174660
G02 X2.336872 Y15.852966 Z-0.125000 I-187.179904 J10.825112
G02 X1.618245 Y15.184679 Z-0.125000 I-5.013097 J4.670188
G03 X0.931541 Y14.405665 Z-0.125000 I1.914200 J-2.379550
G03 X1.122220 Y13.354286 Z-0.125000 I0.674999 J-0.420562
G03 X1.686637 Y13.084204 Z-0.125000 I0.920589 J1.199049
G03 X3.252486 Y13.078210 Z-0.125000 I0.795111 J3.180842
G02 X4.686044 Y13.105225 Z-0.125000 I0.777624 J-3.215313
G02 X8.243407 Y11.424256 Z-0.125000 I-152.201585 J-326.702358
G02 X11.691748 Y9.749234 Z-0.125000 I-156.617135 J-326.812164
G01 X24.015006 Y5.742452 Z-0.125000
G00 Z5.000000

(End cutting path id: path3085)


(Footer)
M5
G00 X0.0000 Y0.0000
M2
(Using default footer. To add your own footer create file "footer" in the output dir.)
(end)
%