%
(Generated by gcode_tools from inkscape.) 
M3
G21 (All units in mm)
 
G00 Z1.411111
G00 X29.999999 Y149.999996

G01 Z-0.282222 F100
G02 X31.695094 Y143.967656 Z-0.282222 I-1.318073 J-3.624712 F400.000000
G02 X26.666674 Y140.833326 Z-0.282222 I-6.955098 J5.557370
G02 X15.104365 Y145.236607 Z-0.282222 I-2.435455 J10.986913
G02 X11.666660 Y156.666647 Z-0.282222 I14.817357 J10.688459
G02 X21.350798 Y173.467198 Z-0.282222 I20.887355 J-0.848515
G02 X39.999974 Y177.500007 Z-0.282222 I14.803734 J-23.321166
G02 X62.179797 Y162.682345 Z-0.282222 I-4.274688 J-30.407338
G02 X66.666678 Y136.666695 Z-0.282222 I-32.134586 J-18.936953
G02 X46.759728 Y109.053607 Z-0.282222 I-39.766914 J7.686692
G02 X13.333374 Y104.166647 Z-0.282222 I-23.063837 J40.994452
G02 X-19.738535 Y129.144255 Z-0.282222 I11.078683 J49.052305
G02 X-25.000019 Y169.999945 Z-0.282222 I49.859421 J27.187642
G02 X5.038735 Y208.544720 Z-0.282222 I58.298563 J-14.455993
G02 X53.333275 Y214.166685 Z-0.282222 I31.310313 J-58.721933
G02 X97.359453 Y179.072269 Z-0.282222 I-17.823124 J-67.522002
G02 X103.333356 Y123.333397 Z-0.282222 I-67.580891 J-35.432658
G02 X63.186721 Y73.820234 Z-0.282222 I-76.731071 J21.183084
G02 X0.000074 Y67.499969 Z-0.282222 I-39.555016 J76.436635
G02 X-55.003913 Y112.696522 Z-0.282222 I24.537877 J85.930549
G02 X-61.666699 Y183.333246 Z-0.282222 I85.289726 J43.677520
G02 X-11.421836 Y243.830819 Z-0.282222 I95.123336 J-27.888850
G02 X66.666573 Y250.833363 Z-0.282222 I47.800202 J-94.140656
G02 X132.659778 Y195.541368 Z-0.282222 I-31.236906 J-104.311256
G02 X140.000037 Y110.000096 Z-0.282222 I-102.989868 J-51.923084
G00 Z1.411111

M5 
G00 X0.0000 Y0.0000 
M2 
(end)
%
