%
(Header)
(Generated by gcodetools from Inkscape.)
(Using default header. To add your own header create file "header" in the output dir.)
M3
(Header end.)
G21 (All units in mm)

(Start cutting path id: path2575)
(Change tool to Default tool)

G00 Z5.000000
G00 X20.457141 Y27.506337

G01 Z-0.125000 F100.0(Penetrate)
G02 X20.675382 Y27.861756 Z-0.125000 I0.881046 J-0.296281 F400.000000
G02 X20.894378 Y28.077203 Z-0.125000 I6.592157 J-6.481714
G03 X20.519106 Y27.881205 Z-0.125000 I0.769035 J-1.929710
G03 X20.201641 Y27.580100 Z-0.125000 I0.689993 J-1.045392
G03 X20.337204 Y27.466418 Z-0.125000 I0.612610 J0.592855
G01 X20.457141 Y27.506337 Z-0.125000
G00 Z5.000000

(End cutting path id: path2575)


(Start cutting path id: path2573)
(Change tool to Default tool)

G00 Z5.000000
G00 X18.976522 Y27.545891

G01 Z-0.125000 F100.0(Penetrate)
G01 X19.455452 Y28.392569 Z-0.125000 F400.000000
G01 X19.939726 Y27.544822 Z-0.125000
G03 X19.446361 Y27.595310 Z-0.125000 I-0.498833 J-2.438721
G03 X18.976522 Y27.545892 Z-0.125000 I-0.004859 J-2.211995
G00 Z5.000000

(End cutting path id: path2573)


(Start cutting path id: path2571)
(Change tool to Default tool)

G00 Z5.000000
G00 X18.544631 Y27.506337

G01 Z-0.125000 F100.0(Penetrate)
G03 X18.324796 Y27.861893 Z-0.125000 I-0.899630 J-0.310490 F400.000000
G03 X18.106325 Y28.077203 Z-0.125000 I-6.259853 J-6.133253
G02 X18.481580 Y27.881314 Z-0.125000 I-0.770480 J-1.933339
G02 X18.800132 Y27.580100 Z-0.125000 I-0.695267 J-1.054338
G02 X18.663118 Y27.466237 Z-0.125000 I-0.635089 J0.624849
G01 X18.544631 Y27.506337 Z-0.125000
G00 Z5.000000

(End cutting path id: path2571)


(Start cutting path id: path2569)
(Change tool to Default tool)

G00 Z5.000000
G00 X20.236920 Y26.969679

G01 Z-0.125000 F100.0(Penetrate)
G01 X20.189211 Y26.972647 Z-0.125000 F400.000000
G01 X20.140706 Y26.970750 Z-0.125000
G02 X20.090564 Y26.976341 Z-0.125000 I0.166701 J1.722638
G02 X20.040216 Y26.983578 Z-0.125000 I0.185910 J1.472106
G02 X19.921690 Y27.003066 Z-0.125000 I4.387334 J27.053776
G02 X19.802890 Y27.024202 Z-0.125000 I0.908965 J5.453613
G03 X19.525449 Y27.063308 Z-0.125000 I-0.649200 J-3.602023
G03 X19.243782 Y27.080861 Z-0.125000 I-0.362832 J-3.553695
G03 X18.979346 Y27.076046 Z-0.125000 I-0.075542 J-3.114993
G03 X18.716747 Y27.048789 Z-0.125000 I0.187188 J-3.082072
G02 X18.687882 Y27.044513 Z-0.125000 I-0.132713 J0.796297
G03 X18.659018 Y27.040237 Z-0.125000 I0.103834 J-0.800462
G01 X18.546769 Y27.020995 Z-0.125000
G01 X18.536917 Y27.051987 Z-0.125000
G02 X18.528596 Y27.084068 Z-0.125000 I1.817519 J0.488552
G02 X18.522841 Y27.109272 Z-0.125000 I0.608806 J0.152258
G02 X18.517905 Y27.134313 Z-0.125000 I1.351510 J0.279410
G01 X18.515361 Y27.165098 Z-0.125000
G01 X18.516835 Y27.197386 Z-0.125000
G01 X18.521788 Y27.219673 Z-0.125000
G01 X18.530732 Y27.240147 Z-0.125000
G01 X18.557030 Y27.279454 Z-0.125000
G01 X18.589529 Y27.312842 Z-0.125000
G01 X18.622515 Y27.335508 Z-0.125000
G01 X18.661154 Y27.351327 Z-0.125000
G02 X18.832342 Y27.390664 Z-0.125000 I0.406462 J-1.376709
G02 X19.006454 Y27.409055 Z-0.125000 I0.241676 J-1.454572
G02 X19.274405 Y27.410382 Z-0.125000 I0.151919 J-3.624368
G02 X19.539904 Y27.390882 Z-0.125000 I-0.103066 J-3.220547
G02 X19.818509 Y27.359448 Z-0.125000 I-4.242558 J-38.852570
G02 X20.095804 Y27.325670 Z-0.125000 I-3.062932 J-26.299975
G02 X20.181160 Y27.314612 Z-0.125000 I-0.300315 J-2.652865
G02 X20.266851 Y27.301083 Z-0.125000 I-0.539100 J-3.692785
G01 X20.310966 Y27.291581 Z-0.125000
G01 X20.353443 Y27.276495 Z-0.125000
G01 X20.385856 Y27.259423 Z-0.125000
G01 X20.417585 Y27.236940 Z-0.125000
G01 X20.435873 Y27.218992 Z-0.125000
G01 X20.451794 Y27.198455 Z-0.125000
G01 X20.463122 Y27.177612 Z-0.125000
G01 X20.469968 Y27.156762 Z-0.125000
G01 X20.474765 Y27.126667 Z-0.125000
G01 X20.476382 Y27.096896 Z-0.125000
G01 X20.465928 Y27.060009 Z-0.125000
G01 X20.236918 Y26.969680 Z-0.125000
G00 Z5.000000

(End cutting path id: path2569)


(Start cutting path id: path2567)
(Change tool to Default tool)

G00 Z5.000000
G00 X19.257680 Y21.984718

G01 Z-0.125000 F100.0(Penetrate)
G01 X19.260887 Y22.074551 Z-0.125000 F400.000000
G03 X19.273154 Y22.133922 Z-0.125000 I-0.844834 J0.205515
G03 X19.282268 Y22.194284 Z-0.125000 I-1.580939 J0.269567
G03 X19.293643 Y22.302372 Z-0.125000 I-3.855981 J0.460426
G03 X19.302580 Y22.410230 Z-0.125000 I-6.586692 J0.600084
G02 X19.319949 Y22.666210 Z-0.125000 I24.013721 J-1.500845
G02 X19.338927 Y22.922299 Z-0.125000 I143.948708 J-10.538795
G02 X19.343468 Y22.971399 Z-0.125000 I0.883420 J-0.056949
G02 X19.349617 Y23.020651 Z-0.125000 I5.979133 J-0.721470
G03 X19.359535 Y23.107999 Z-0.125000 I-1.278453 J0.189392
G03 X19.364583 Y23.194904 Z-0.125000 I-2.065239 J0.163574
G01 X19.362730 Y23.231481 Z-0.125000
G01 X19.356031 Y23.268668 Z-0.125000
G02 X19.341077 Y23.336588 Z-0.125000 I1.987659 J0.473254
G02 X19.329305 Y23.405504 Z-0.125000 I1.122308 J0.227158
G01 X19.326753 Y23.434692 Z-0.125000
G01 X19.328235 Y23.462164 Z-0.125000
G01 X19.333545 Y23.482636 Z-0.125000
G01 X19.345339 Y23.499580 Z-0.125000
G01 X19.362024 Y23.511392 Z-0.125000
G01 X19.380618 Y23.515615 Z-0.125000
G01 X19.397586 Y23.515048 Z-0.125000
G01 X19.414827 Y23.511338 Z-0.125000
G01 X19.425059 Y23.506607 Z-0.125000
G01 X19.434069 Y23.498510 Z-0.125000
G01 X19.464826 Y23.449392 Z-0.125000
G01 X19.481107 Y23.393743 Z-0.125000
G02 X19.489105 Y23.278026 Z-0.125000 I-0.833176 J-0.115718
G02 X19.481107 Y23.163901 Z-0.125000 I-0.818286 J0.000000
G03 X19.473062 Y23.099063 Z-0.125000 I1.270353 J-0.190560
G03 X19.468279 Y23.034546 Z-0.125000 I1.339659 J-0.131747
G03 X19.461857 Y22.891241 Z-0.125000 I6.318270 J-0.354940
G03 X19.458657 Y22.748044 Z-0.125000 I6.443414 J-0.215607
G01 X19.456521 Y22.664659 Z-0.125000
G01 X19.452243 Y22.491476 Z-0.125000
G03 X19.483581 Y22.535010 Z-0.125000 I-1.580069 J1.170473
G03 X19.513179 Y22.579136 Z-0.125000 I-1.117937 J0.781830
G01 X19.526819 Y22.601755 Z-0.125000
G01 X19.538836 Y22.625105 Z-0.125000
G01 X19.547636 Y22.644942 Z-0.125000
G01 X19.554871 Y22.665728 Z-0.125000
G03 X19.578080 Y22.743012 Z-0.125000 I-3.454110 J1.079444
G03 X19.598702 Y22.819670 Z-0.125000 I-2.141485 J0.617174
G01 X19.650015 Y23.015304 Z-0.125000
G03 X19.667965 Y23.086050 Z-0.125000 I-1.979979 J0.540015
G03 X19.684225 Y23.156418 Z-0.125000 I-9.735308 J2.286605
G03 X19.693194 Y23.205130 Z-0.125000 I-1.585960 J0.317187
G03 X19.701329 Y23.253700 Z-0.125000 I-30.107442 J5.067986
G02 X19.716732 Y23.362280 Z-0.125000 I5.829612 J-0.771552
G02 X19.734470 Y23.469646 Z-0.125000 I3.986410 J-0.603447
G02 X19.741791 Y23.512175 Z-0.125000 I0.914487 J-0.135529
G02 X19.751574 Y23.555169 Z-0.125000 I0.722778 J-0.141867
G01 X19.759707 Y23.580837 Z-0.125000
G01 X19.772955 Y23.605413 Z-0.125000
G01 X19.786419 Y23.622058 Z-0.125000
G01 X19.802888 Y23.634277 Z-0.125000
G01 X19.821597 Y23.642505 Z-0.125000
G01 X19.840304 Y23.644968 Z-0.125000
G01 X19.862727 Y23.642537 Z-0.125000
G01 X19.883066 Y23.635347 Z-0.125000
G01 X19.901809 Y23.624310 Z-0.125000
G01 X19.919413 Y23.609689 Z-0.125000
G01 X19.929718 Y23.597013 Z-0.125000
G01 X19.936518 Y23.582963 Z-0.125000
G01 X19.945585 Y23.546588 Z-0.125000
G01 X19.948278 Y23.508131 Z-0.125000
G02 X19.942420 Y23.425926 Z-0.125000 I-1.288225 J0.050479
G02 X19.930104 Y23.344568 Z-0.125000 I-0.868324 J0.089844
G01 X19.871307 Y23.043099 Z-0.125000
G02 X19.856226 Y22.974230 Z-0.125000 I-3.729493 J0.780572
G02 X19.840304 Y22.905193 Z-0.125000 I-18.741660 J4.285990
G02 X19.822022 Y22.836873 Z-0.125000 I-3.105788 J0.794498
G03 X19.802888 Y22.768356 Z-0.125000 I188.549247 J-52.690948
G02 X19.772560 Y22.675488 Z-0.125000 I-3.167131 J0.982902
G02 X19.739814 Y22.583413 Z-0.125000 I-4.087112 J1.401679
G02 X19.721077 Y22.537668 Z-0.125000 I-0.880666 J0.334032
G02 X19.699192 Y22.493613 Z-0.125000 I-0.489093 J0.215501
G01 X19.507833 Y22.138692 Z-0.125000
G03 X19.487573 Y22.100042 Z-0.125000 I1.409674 J-0.763583
G03 X19.468279 Y22.061722 Z-0.125000 I6.901756 J-3.498977
G01 X19.467744 Y22.060118 Z-0.125000
G01 X19.467209 Y22.058515 Z-0.125000
G01 X19.257677 Y21.984717 Z-0.125000
G01 X19.257680 Y21.984718 Z-0.125000
G00 Z5.000000

(End cutting path id: path2567)


(Start cutting path id: path2567)
(Change tool to Default tool)

G00 Z5.000000
G00 X20.032211 Y21.909851

G01 Z-0.125000 F100.0(Penetrate)
G01 X20.041286 Y22.726665 Z-0.125000 F400.000000
G03 X20.047574 Y22.993406 Z-0.125000 I-7.177482 J0.302665
G03 X20.043422 Y23.260115 Z-0.125000 I-6.484621 J0.032427
G03 X20.035341 Y23.334889 Z-0.125000 I-0.576942 J-0.024532
G03 X20.017765 Y23.406574 Z-0.125000 I-0.538085 J-0.093933
G01 X20.010819 Y23.431204 Z-0.125000
G01 X20.007074 Y23.456819 Z-0.125000
G01 X20.005964 Y23.471784 Z-0.125000
G01 X20.008145 Y23.486752 Z-0.125000
G01 X20.016210 Y23.506378 Z-0.125000
G01 X20.030594 Y23.520960 Z-0.125000
G01 X20.049314 Y23.530133 Z-0.125000
G01 X20.069080 Y23.531652 Z-0.125000
G01 X20.089162 Y23.526144 Z-0.125000
G01 X20.107565 Y23.516685 Z-0.125000
G01 X20.120764 Y23.504194 Z-0.125000
G01 X20.132153 Y23.487821 Z-0.125000
G01 X20.143263 Y23.458935 Z-0.125000
G01 X20.151396 Y23.427954 Z-0.125000
G01 X20.157722 Y23.387131 Z-0.125000
G01 X20.159949 Y23.346708 Z-0.125000
G03 X20.160754 Y23.188497 Z-0.125000 I15.547086 J0.000000
G03 X20.163156 Y23.030272 Z-0.125000 I15.812490 J0.160919
G03 X20.169292 Y22.725346 Z-0.125000 I35.193472 J0.555674
G03 X20.177053 Y22.418782 Z-0.125000 I178.461710 J4.364755
G01 X20.202710 Y22.454060 Z-0.125000
G01 X20.220399 Y22.498367 Z-0.125000
G01 X20.231574 Y22.543859 Z-0.125000
G03 X20.266732 Y22.781926 Z-0.125000 I-8.399382 J1.362053
G03 X20.294647 Y23.020651 Z-0.125000 I-7.411825 J0.987699
G01 X20.343823 Y23.489959 Z-0.125000
G02 X20.347158 Y23.518768 Z-0.125000 I3.089014 J-0.342953
G02 X20.351306 Y23.547687 Z-0.125000 I0.642276 J-0.077381
G03 X20.355780 Y23.568122 Z-0.125000 I-0.904502 J0.208729
G01 X20.360928 Y23.587241 Z-0.125000
G01 X20.370837 Y23.613771 Z-0.125000
G01 X20.387653 Y23.638555 Z-0.125000
G01 X20.407465 Y23.655431 Z-0.125000
G01 X20.430416 Y23.667419 Z-0.125000
G01 X20.448588 Y23.671551 Z-0.125000
G01 X20.467831 Y23.671697 Z-0.125000
G01 X20.485357 Y23.666864 Z-0.125000
G01 X20.500972 Y23.658869 Z-0.125000
G01 X20.517759 Y23.646125 Z-0.125000
G01 X20.531974 Y23.631073 Z-0.125000
G01 X20.540252 Y23.618940 Z-0.125000
G01 X20.545872 Y23.606485 Z-0.125000
G01 X20.559233 Y23.550742 Z-0.125000
G01 X20.562976 Y23.493167 Z-0.125000
G02 X20.556546 Y23.359140 Z-0.125000 I-1.862893 J0.022211
G02 X20.540526 Y23.225907 Z-0.125000 I-1.873194 J0.157646
G01 X20.457141 Y22.695664 Z-0.125000
G02 X20.428167 Y22.546951 Z-0.125000 I-2.300603 J0.371058
G02 X20.388723 Y22.400610 Z-0.125000 I-1.927207 J0.440964
G02 X20.351250 Y22.298288 Z-0.125000 I-0.991280 J0.305006
G02 X20.303199 Y22.199631 Z-0.125000 I-1.017292 J0.434440
G01 X20.226229 Y22.059586 Z-0.125000
G01 X20.032211 Y21.909853 Z-0.125000
G01 X20.032211 Y21.909851 Z-0.125000
G00 Z5.000000

(End cutting path id: path2567)


(Start cutting path id: path2567)
(Change tool to Default tool)

G00 Z5.000000
G00 X20.807786 Y22.990718

G01 Z-0.125000 F100.0(Penetrate)
G01 X20.745782 Y23.043100 Z-0.125000 F400.000000
G01 X20.719056 Y23.201318 Z-0.125000
G01 X20.708365 Y23.280427 Z-0.125000
G01 X20.705158 Y23.307153 Z-0.125000
G01 X20.668811 Y23.696283 Z-0.125000
G03 X20.650939 Y23.859544 Z-0.125000 I-7.229612 J-0.708780
G03 X20.628187 Y24.023409 Z-0.125000 I-4.658663 J-0.563324
G03 X20.606548 Y24.144536 Z-0.125000 I-3.010656 J-0.475357
G03 X20.580080 Y24.265012 Z-0.125000 I-3.136078 J-0.625832
G03 X20.548259 Y24.384768 Z-0.125000 I-2.492440 J-0.598171
G03 X20.510593 Y24.504476 Z-0.125000 I-2.874149 J-0.838582
G03 X20.456297 Y24.657936 Z-0.125000 I-4.214682 J-1.404874
G03 X20.396206 Y24.810221 Z-0.125000 I-4.393649 J-1.645706
G03 X20.356822 Y24.905668 Z-0.125000 I-4.423989 J-1.769602
G03 X20.314959 Y25.000510 Z-0.125000 I-3.533076 J-1.502840
G03 X20.255815 Y25.132816 Z-0.125000 I-5.973450 J-2.590875
G03 X20.194157 Y25.264563 Z-0.125000 I-10.613962 J-4.887087
G02 X20.147872 Y25.365537 Z-0.125000 I31.647186 J14.567694
G02 X20.102220 Y25.467680 Z-0.125000 I6.438811 J2.939043
G02 X20.066695 Y25.550080 Z-0.125000 I2.461892 J1.110260
G02 X20.032733 Y25.633381 Z-0.125000 I12.577026 J5.176318
G01 X20.019932 Y25.672644 Z-0.125000
G01 X20.013490 Y25.713559 Z-0.125000
G01 X20.015056 Y25.732126 Z-0.125000
G01 X20.022042 Y25.748837 Z-0.125000
G01 X20.034886 Y25.761377 Z-0.125000
G01 X20.050907 Y25.769149 Z-0.125000
G01 X20.067345 Y25.770909 Z-0.125000
G01 X20.084047 Y25.767012 Z-0.125000
G01 X20.113477 Y25.748751 Z-0.125000
G01 X20.137499 Y25.723182 Z-0.125000
G01 X20.168050 Y25.673039 Z-0.125000
G01 X20.190950 Y25.617347 Z-0.125000
G03 X20.228511 Y25.513887 Z-0.125000 I2.381475 J0.806045
G03 X20.270060 Y25.412091 Z-0.125000 I2.950361 J1.144823
G03 X20.350332 Y25.232327 Z-0.125000 I8.346919 J3.619437
G03 X20.434691 Y25.053963 Z-0.125000 I8.154772 J3.747785
G02 X20.511203 Y24.894029 Z-0.125000 I-5.936606 J-2.938316
G02 X20.583287 Y24.730045 Z-0.125000 I-4.353296 J-2.011456
G02 X20.621410 Y24.635848 Z-0.125000 I-2.082578 J-0.897661
G02 X20.654913 Y24.538687 Z-0.125000 I-1.596629 J-0.604911
G02 X20.687512 Y24.427749 Z-0.125000 I-2.411035 J-0.768721
G02 X20.713711 Y24.315258 Z-0.125000 I-1.634316 J-0.439929
G02 X20.750559 Y24.121735 Z-0.125000 I-5.594386 J-1.165473
G02 X20.781060 Y23.926128 Z-0.125000 I-6.009649 J-1.037264
G02 X20.805875 Y23.746683 Z-0.125000 I-20.033797 J-2.861924
G02 X20.829167 Y23.565862 Z-0.125000 I-18.672465 J-2.497107
G02 X20.849225 Y23.406479 Z-0.125000 I-14.826949 J-1.946951
G02 X20.867652 Y23.247289 Z-0.125000 I-17.351900 J-2.089155
G01 X20.886895 Y23.070897 Z-0.125000
G01 X20.807786 Y22.990719 Z-0.125000
G00 Z5.000000

(End cutting path id: path2567)


(Start cutting path id: path2565)
(Change tool to Default tool)

G00 Z5.000000
G00 X19.467212 Y22.059585

G01 Z-0.125000 F100.0(Penetrate)
G01 X19.438347 Y21.996512 Z-0.125000 F400.000000
G02 X19.408109 Y21.932437 Z-0.125000 I-0.683723 J0.283492
G02 X19.372068 Y21.870365 Z-0.125000 I-0.850963 J0.452598
G01 X19.350445 Y21.842347 Z-0.125000
G01 X19.326098 Y21.819051 Z-0.125000
G01 X19.290820 Y21.800877 Z-0.125000
G01 X19.245920 Y21.809430 Z-0.125000
G01 X19.233909 Y21.823365 Z-0.125000
G01 X19.227747 Y21.840432 Z-0.125000
G01 X19.224516 Y21.877848 Z-0.125000
G01 X19.227747 Y21.915265 Z-0.125000
G01 X19.236299 Y21.960165 Z-0.125000
G01 X19.257680 Y22.059585 Z-0.125000
G01 X19.467212 Y22.059585 Z-0.125000
G01 X19.467212 Y22.059585 Z-0.125000
G00 Z5.000000

(End cutting path id: path2565)


(Start cutting path id: path2565)
(Change tool to Default tool)

G00 Z5.000000
G00 X20.226229 Y22.059585

G01 Z-0.125000 F100.0(Penetrate)
G01 X20.146051 Y21.915265 Z-0.125000 F400.000000
G01 X20.045561 Y21.733528 Z-0.125000
G01 X20.015628 Y21.711079 Z-0.125000
G01 X19.980350 Y21.719631 Z-0.125000
G01 X19.971593 Y21.731323 Z-0.125000
G01 X19.968591 Y21.745288 Z-0.125000
G01 X19.971131 Y21.790097 Z-0.125000
G01 X19.979281 Y21.834018 Z-0.125000
G03 X19.992634 Y21.892322 Z-0.125000 I-1.462701 J0.365666
G03 X20.002800 Y21.951612 Z-0.125000 I-0.829836 J0.172798
G03 X20.009211 Y21.999341 Z-0.125000 I-0.750928 J0.125160
G03 X20.012421 Y22.046757 Z-0.125000 I-0.689545 J0.070500
G01 X20.013491 Y22.059585 Z-0.125000
G01 X20.226230 Y22.059585 Z-0.125000
G01 X20.226229 Y22.059585 Z-0.125000
G00 Z5.000000

(End cutting path id: path2565)


(Start cutting path id: path2565)
(Change tool to Default tool)

G00 Z5.000000
G00 X19.040665 Y20.930680

G01 Z-0.125000 F100.0(Penetrate)
G03 X19.054791 Y20.997384 Z-0.125000 I-4.506194 J0.989124 F400.000000
G03 X19.067391 Y21.065379 Z-0.125000 I-1.874416 J0.382495
G02 X19.082673 Y21.151543 Z-0.125000 I4.157282 J-0.692904
G02 X19.099463 Y21.236426 Z-0.125000 I4.541749 J-0.854256
G02 X19.108212 Y21.279897 Z-0.125000 I1.405594 J-0.260283
G02 X19.117636 Y21.321948 Z-0.125000 I3.322935 J-0.722596
G01 X19.126212 Y21.347495 Z-0.125000
G01 X19.137948 Y21.371124 Z-0.125000
G01 X19.148681 Y21.384053 Z-0.125000
G01 X19.161466 Y21.393574 Z-0.125000
G01 X19.187102 Y21.401438 Z-0.125000
G01 X19.214919 Y21.398919 Z-0.125000
G01 X19.236263 Y21.387359 Z-0.125000
G01 X19.250197 Y21.367917 Z-0.125000
G01 X19.255995 Y21.347482 Z-0.125000
G01 X19.257680 Y21.326225 Z-0.125000
G01 X19.253711 Y21.287340 Z-0.125000
G01 X19.244851 Y21.249254 Z-0.125000
G01 X19.201021 Y20.969166 Z-0.125000
G02 X19.197694 Y20.950004 Z-0.125000 I-1.389876 J0.231469
G01 X19.193538 Y20.930680 Z-0.125000
G01 X19.040665 Y20.930680 Z-0.125000
G01 X19.040665 Y20.930680 Z-0.125000
G00 Z5.000000

(End cutting path id: path2565)


(Start cutting path id: path2565)
(Change tool to Default tool)

G00 Z5.000000
G00 X19.364045 Y20.500208

G01 Z-0.125000 F100.0(Penetrate)
G03 X19.411718 Y20.819002 Z-0.125000 I-0.797608 J0.282238 F400.000000
G02 X19.452245 Y21.140212 Z-0.125000 I0.963084 J0.041650
G01 X19.534561 Y21.403195 Z-0.125000
G01 X19.566632 Y21.503685 Z-0.125000
G01 X19.575830 Y21.526375 Z-0.125000
G02 X19.586944 Y21.549653 Z-0.125000 I0.644617 J-0.293463
G01 X19.597992 Y21.567218 Z-0.125000
G01 X19.610463 Y21.582794 Z-0.125000
G01 X19.638155 Y21.605813 Z-0.125000
G01 X19.671398 Y21.619141 Z-0.125000
G01 X19.703196 Y21.621069 Z-0.125000
G01 X19.733402 Y21.610589 Z-0.125000
G01 X19.751599 Y21.598634 Z-0.125000
G01 X19.765473 Y21.582794 Z-0.125000
G01 X19.774362 Y21.566897 Z-0.125000
G01 X19.778302 Y21.549653 Z-0.125000
G01 X19.779055 Y21.517987 Z-0.125000
G01 X19.775095 Y21.487649 Z-0.125000
G02 X19.763234 Y21.438754 Z-0.125000 I-0.527879 J0.102170
G02 X19.747299 Y21.390367 Z-0.125000 I-0.733533 J0.214742
G01 X19.668191 Y21.132729 Z-0.125000
G02 X19.646630 Y21.068837 Z-0.125000 I-2.856089 J0.928215
G02 X19.623291 Y21.004444 Z-0.125000 I-2.927061 J1.024494
G02 X19.609776 Y20.967304 Z-0.125000 I-1.307302 J0.454699
G02 X19.594427 Y20.929611 Z-0.125000 I-0.812262 J0.308785
G01 X19.364045 Y20.500208 Z-0.125000
G01 X19.364045 Y20.500208 Z-0.125000
G00 Z5.000000

(End cutting path id: path2565)


(Start cutting path id: path2565)
(Change tool to Default tool)

G00 Z5.000000
G00 X19.894827 Y20.930680

G01 Z-0.125000 F100.0(Penetrate)
G02 X19.886788 Y21.020917 Z-0.125000 I0.845712 J0.120817 F400.000000
G02 X19.888413 Y21.109209 Z-0.125000 I0.814488 J0.029174
G01 X19.899517 Y21.173002 Z-0.125000
G01 X19.922622 Y21.232150 Z-0.125000
G01 X19.941428 Y21.258242 Z-0.125000
G01 X19.967522 Y21.277049 Z-0.125000
G01 X19.989615 Y21.282758 Z-0.125000
G01 X20.011352 Y21.278119 Z-0.125000
G01 X20.027253 Y21.266104 Z-0.125000
G01 X20.038079 Y21.250325 Z-0.125000
G01 X20.049958 Y21.220644 Z-0.125000
G01 X20.056252 Y21.189389 Z-0.125000
G01 X20.048769 Y20.977720 Z-0.125000
G01 X20.048769 Y20.930681 Z-0.125000
G01 X19.894827 Y20.930681 Z-0.125000
G01 X19.894827 Y20.930680 Z-0.125000
G00 Z5.000000

(End cutting path id: path2565)


(Start cutting path id: path2565)
(Change tool to Default tool)

G00 Z5.000000
G00 X20.335271 Y20.930680

G01 Z-0.125000 F100.0(Penetrate)
G01 X20.349169 Y20.989477 Z-0.125000 F400.000000
G03 X20.386606 Y21.156529 Z-0.125000 I-13.164808 J3.038015
G03 X20.421863 Y21.326225 Z-0.125000 I-9.133735 J1.986224
G01 X20.426686 Y21.358453 Z-0.125000
G01 X20.428277 Y21.390367 Z-0.125000
G02 X20.430146 Y21.436815 Z-0.125000 I4.077072 J-0.140797
G02 X20.433623 Y21.483373 Z-0.125000 I0.815097 J-0.037452
G01 X20.436548 Y21.510541 Z-0.125000
G02 X20.441106 Y21.537895 Z-0.125000 I1.447160 J-0.227103
G01 X20.456185 Y21.579470 Z-0.125000
G01 X20.480660 Y21.614865 Z-0.125000
G01 X20.506668 Y21.634741 Z-0.125000
G01 X20.537319 Y21.644798 Z-0.125000
G01 X20.579249 Y21.643377 Z-0.125000
G01 X20.618566 Y21.629831 Z-0.125000
G01 X20.646757 Y21.607172 Z-0.125000
G01 X20.665604 Y21.575310 Z-0.125000
G01 X20.683958 Y21.505493 Z-0.125000
G01 X20.686984 Y21.433129 Z-0.125000
G02 X20.670207 Y21.308652 Z-0.125000 I-1.095211 J0.084245
G02 X20.638878 Y21.186180 Z-0.125000 I-1.047763 J0.202785
G03 X20.628508 Y21.150939 Z-0.125000 I0.800223 J-0.254620
G03 X20.619636 Y21.114555 Z-0.125000 I0.719321 J-0.194677
G03 X20.598367 Y21.022527 Z-0.125000 I3.340266 J-0.820448
G02 X20.577943 Y20.930680 Z-0.125000 I-8.485687 J1.838787
G01 X20.335271 Y20.518929 Z-0.125000
G00 Z5.000000

(End cutting path id: path2565)


(Start cutting path id: path2563)
(Change tool to Default tool)

G00 Z5.000000
G00 X19.156112 Y21.136551

G01 Z-0.125000 F100.0(Penetrate)
G01 X19.171469 Y21.009483 Z-0.125000 F400.000000
G01 X19.182848 Y20.881505 Z-0.125000
G02 X19.149930 Y20.761208 Z-0.125000 I-9.290946 J2.477676
G02 X19.115498 Y20.642040 Z-0.125000 I-7.757886 J2.177005
G02 X19.088137 Y20.550750 Z-0.125000 I-34.005070 J10.141882
G02 X19.059907 Y20.459234 Z-0.125000 I-6.867149 J2.068200
G01 X19.012870 Y20.313845 Z-0.125000
G01 X18.995766 Y20.263600 Z-0.125000
G01 X18.961556 Y20.163111 Z-0.125000
G01 X18.970108 Y20.146006 Z-0.125000
G03 X19.026034 Y20.231028 Z-0.125000 I-23.327233 J15.404826
G03 X19.081289 Y20.317052 Z-0.125000 I-4.733723 J3.101365
G03 X19.109059 Y20.360533 Z-0.125000 I-1.094180 J0.729441
G02 X19.135809 Y20.403644 Z-0.125000 I3.286755 J-2.009522
G03 X19.187034 Y20.492901 Z-0.125000 I-2.273446 J1.364068
G03 X19.236299 Y20.585381 Z-0.125000 I-3.787197 J2.076835
G03 X19.278501 Y20.672713 Z-0.125000 I-3.213284 J1.606642
G03 X19.317546 Y20.761772 Z-0.125000 I-1.877213 J0.876081
G03 X19.349023 Y20.837799 Z-0.125000 I-1.358235 J0.606874
G03 X19.377412 Y20.915714 Z-0.125000 I-2.504889 J0.956828
G02 X19.440820 Y21.024760 Z-0.125000 I0.889178 J-0.444081
G01 X19.495049 Y21.155272 Z-0.125000
G01 X19.594427 Y20.930680 Z-0.125000
G02 X19.571223 Y20.871811 Z-0.125000 I-2.154237 J0.815094
G02 X19.547389 Y20.814155 Z-0.125000 I-10.288798 J4.219565
G02 X19.503278 Y20.713229 Z-0.125000 I-7.072479 J3.031026
G02 X19.457590 Y20.613176 Z-0.125000 I-5.486058 J2.444674
G02 X19.412048 Y20.518351 Z-0.125000 I-10.227928 J4.853900
G02 X19.364583 Y20.422887 Z-0.125000 I-5.321418 J2.586254
G02 X19.294689 Y20.290837 Z-0.125000 I-3.630154 J1.836928
G02 X19.219195 Y20.162041 Z-0.125000 I-2.613108 J1.445162
G02 X19.163888 Y20.077637 Z-0.125000 I-1.366691 J0.835209
G02 X19.103738 Y19.996341 Z-0.125000 I-1.628053 J1.141678
G01 X18.960487 Y19.815673 Z-0.125000
G01 X18.908883 Y19.771819 Z-0.125000
G01 X18.857286 Y19.727978 Z-0.125000
G01 X18.651535 Y19.801776 Z-0.125000
G02 X18.670650 Y19.863654 Z-0.125000 I1.261118 J-0.355691
G02 X18.692158 Y19.924715 Z-0.125000 I2.141645 J-0.720034
G02 X18.752263 Y20.070011 Z-0.125000 I4.710415 J-1.863491
G02 X18.818305 Y20.214425 Z-0.125000 I3.444925 J-1.488099
G03 X18.845497 Y20.277100 Z-0.125000 I-1.345382 J0.620938
G03 X18.869619 Y20.341640 Z-0.125000 I-1.115198 J0.453581
G03 X18.929950 Y20.530127 Z-0.125000 I-7.840140 J2.613370
G03 X18.986145 Y20.719011 Z-0.125000 I-10.913325 J3.349614
G03 X19.011790 Y20.811629 Z-0.125000 I-3.077138 J0.901912
G03 X19.034251 Y20.905023 Z-0.125000 I-2.428648 J0.633460
G01 X19.040665 Y20.929611 Z-0.125000
G01 X19.156112 Y21.136551 Z-0.125000
G01 X19.156112 Y21.136551 Z-0.125000
G00 Z5.000000

(End cutting path id: path2563)


(Start cutting path id: path2563)
(Change tool to Default tool)

G00 Z5.000000
G00 X20.048769 Y21.136551

G01 Z-0.125000 F100.0(Penetrate)
G01 X20.043424 Y20.588588 Z-0.125000 F400.000000
G01 X20.028457 Y20.288188 Z-0.125000
G01 X20.026320 Y20.217632 Z-0.125000
G01 X20.022042 Y20.076519 Z-0.125000
G01 X20.069080 Y20.140661 Z-0.125000
G01 X20.091530 Y20.173801 Z-0.125000
G03 X20.141210 Y20.258114 Z-0.125000 I-0.982222 J0.635553
G03 X20.182398 Y20.344847 Z-0.125000 I-0.896037 J0.478662
G03 X20.217548 Y20.440681 Z-0.125000 I-1.358942 J0.552789
G03 X20.244403 Y20.537274 Z-0.125000 I-1.045646 J0.342742
G01 X20.335271 Y20.930680 Z-0.125000
G01 X20.577943 Y20.930680 Z-0.125000
G01 X20.552286 Y20.807741 Z-0.125000
G02 X20.525028 Y20.690811 Z-0.125000 I-4.422128 J0.969222
G02 X20.494557 Y20.574691 Z-0.125000 I-4.066382 J1.004969
G02 X20.462307 Y20.467920 Z-0.125000 I-3.154662 J0.894608
G02 X20.426139 Y20.363021 Z-0.125000 I-2.437008 J0.781565
G02 X20.383576 Y20.253134 Z-0.125000 I-2.526570 J0.915445
G02 X20.336340 Y20.146006 Z-0.125000 I-2.271873 J0.937769
G02 X20.279420 Y20.026679 Z-0.125000 I-3.093773 J1.402520
G02 X20.217676 Y19.909748 Z-0.125000 I-2.778481 J1.392369
G02 X20.187531 Y19.855758 Z-0.125000 I-1.223318 J0.647635
G03 X20.156742 Y19.802845 Z-0.125000 I5.752974 J-3.382940
G01 X19.821063 Y19.670763 Z-0.125000
G03 X19.829616 Y19.779564 Z-0.125000 I-0.513550 J0.095112
G02 X19.838168 Y19.888368 Z-0.125000 I0.522158 J0.013691
G03 X19.858063 Y19.997040 Z-0.125000 I-2.461352 J0.506767
G03 X19.872377 Y20.106452 Z-0.125000 I-1.879277 J0.301515
G03 X19.885352 Y20.249372 Z-0.125000 I-3.339231 J0.375191
G03 X19.892689 Y20.391885 Z-0.125000 I-4.012166 J0.277999
G03 X19.899240 Y20.620154 Z-0.125000 I-17.540131 J0.617635
G03 X19.903379 Y20.848364 Z-0.125000 I-28.156257 J0.624796
G01 X19.902448 Y20.872299 Z-0.125000
G01 X19.899101 Y20.896471 Z-0.125000
G01 X19.896962 Y20.914110 Z-0.125000
G01 X19.894824 Y20.931749 Z-0.125000
G01 X20.048766 Y21.136551 Z-0.125000
G01 X20.048769 Y21.136551 Z-0.125000
G00 Z5.000000

(End cutting path id: path2563)


(Start cutting path id: path2563)
(Change tool to Default tool)

G00 Z5.000000
G00 X17.661606 Y19.801776

G01 Z-0.125000 F100.0(Penetrate)
G03 X17.686899 Y19.816271 Z-0.125000 I-0.893701 J1.588816 F400.000000
G01 X17.712919 Y19.832777 Z-0.125000
G03 X17.830548 Y19.914202 Z-0.125000 I-1.066232 J1.665996
G03 X17.942763 Y20.003824 Z-0.125000 I-1.331968 J1.782811
G03 X18.026912 Y20.076638 Z-0.125000 I-3.849619 J4.533969
G03 X18.110601 Y20.151351 Z-0.125000 I-6.042408 J6.852493
G03 X18.193212 Y20.228076 Z-0.125000 I-2.792103 J3.089146
G03 X18.274164 Y20.306362 Z-0.125000 I-5.850263 J6.130506
G03 X18.374312 Y20.408111 Z-0.125000 I-2.086788 J2.154113
G03 X18.469799 Y20.514824 Z-0.125000 I-2.199917 J2.064545
G03 X18.521296 Y20.577933 Z-0.125000 I-0.667620 J0.597351
G03 X18.568150 Y20.645247 Z-0.125000 I-1.066116 J0.792031
G02 X18.615346 Y20.713495 Z-0.125000 I0.647525 J-0.397341
G02 X18.668640 Y20.775670 Z-0.125000 I0.660791 J-0.512481
G02 X18.712299 Y20.816343 Z-0.125000 I0.396293 J-0.381620
G01 X18.760577 Y20.850503 Z-0.125000
G01 X18.786076 Y20.863302 Z-0.125000
G01 X18.814029 Y20.869745 Z-0.125000
G01 X18.827989 Y20.868142 Z-0.125000
G01 X18.839686 Y20.860124 Z-0.125000
G01 X18.847220 Y20.848945 Z-0.125000
G01 X18.850376 Y20.833397 Z-0.125000
G01 X18.847936 Y20.806059 Z-0.125000
G01 X18.840755 Y20.781015 Z-0.125000
G02 X18.808357 Y20.712552 Z-0.125000 I-0.653330 J0.267271
G02 X18.769129 Y20.649523 Z-0.125000 I-0.535237 J0.289400
G02 X18.681558 Y20.535000 Z-0.125000 I-2.348530 J1.705086
G02 X18.587392 Y20.425025 Z-0.125000 I-1.852338 J1.490752
G01 X18.325478 Y20.138522 Z-0.125000
G02 X18.274155 Y20.084546 Z-0.125000 I-0.789274 J0.699089
G02 X18.219644 Y20.033757 Z-0.125000 I-1.034844 J1.056041
G02 X18.111203 Y19.942304 Z-0.125000 I-3.597686 J4.155933
G02 X18.000491 Y19.854159 Z-0.125000 I-2.931955 J3.569007
G02 X17.966737 Y19.827614 Z-0.125000 I-0.957040 J1.182231
G02 X17.932073 Y19.801776 Z-0.125000 I-1.117262 J1.462730
G01 X17.661606 Y19.801776 Z-0.125000
G00 Z5.000000

(End cutting path id: path2563)


(Start cutting path id: path2561)
(Change tool to Default tool)

G00 Z5.000000
G00 X18.044364 Y19.932779

G01 Z-0.125000 F100.0(Penetrate)
G03 X17.936129 Y19.828081 Z-0.125000 I0.378344 J-0.499418 F400.000000
G02 X17.823030 Y19.723736 Z-0.125000 I-0.416111 J0.337555
G02 X17.732288 Y19.661944 Z-0.125000 I-2.987568 J4.289800
G02 X17.641294 Y19.602935 Z-0.125000 I-2.502318 J3.758963
G02 X17.594772 Y19.575562 Z-0.125000 I-0.601370 J0.968851
G02 X17.546150 Y19.549482 Z-0.125000 I-0.847360 J1.521423
G02 X17.506719 Y19.530667 Z-0.125000 I-0.530827 J1.061714
G02 X17.464902 Y19.513135 Z-0.125000 I-0.314775 J0.692158
G01 X17.440314 Y19.504350 Z-0.125000
G01 X17.414658 Y19.497099 Z-0.125000
G01 X17.387463 Y19.490469 Z-0.125000
G02 X17.359068 Y19.485340 Z-0.125000 I-0.203416 J1.045025
G01 X17.336617 Y19.483746 Z-0.125000
G01 X17.314168 Y19.485340 Z-0.125000
G01 X17.304622 Y19.488445 Z-0.125000
G01 X17.297063 Y19.493892 Z-0.125000
G01 X17.288272 Y19.508290 Z-0.125000
G01 X17.285304 Y19.523825 Z-0.125000
G01 X17.288501 Y19.545702 Z-0.125000
G01 X17.297063 Y19.564449 Z-0.125000
G01 X17.332503 Y19.612012 Z-0.125000
G01 X17.378310 Y19.653179 Z-0.125000
G02 X17.456974 Y19.703203 Z-0.125000 I0.456760 J-0.631402
G02 X17.542943 Y19.744048 Z-0.125000 I0.366561 J-0.660637
G03 X17.602957 Y19.770313 Z-0.125000 I-0.328762 J0.832870
G03 X17.661606 Y19.800707 Z-0.125000 I-0.494894 J1.026770
G01 X18.044364 Y19.932779 Z-0.125000
G01 X18.044364 Y19.932779 Z-0.125000
G00 Z5.000000

(End cutting path id: path2561)


(Start cutting path id: path2561)
(Change tool to Default tool)

G00 Z5.000000
G00 X18.950866 Y19.801776

G01 Z-0.125000 F100.0(Penetrate)
G03 X18.906532 Y19.748527 Z-0.125000 I2.834313 J-2.404818 F400.000000
G02 X18.861067 Y19.694872 Z-0.125000 I-1.512295 J1.235395
G01 X18.852485 Y19.685603 Z-0.125000
G01 X18.841824 Y19.676698 Z-0.125000
G01 X18.828119 Y19.667058 Z-0.125000
G01 X18.812960 Y19.660662 Z-0.125000
G02 X18.770573 Y19.644481 Z-0.125000 I-0.248691 J0.587816
G02 X18.727437 Y19.630729 Z-0.125000 I-0.356269 J1.043051
G01 X18.699678 Y19.630572 Z-0.125000
G01 X18.671847 Y19.632866 Z-0.125000
G01 X18.663918 Y19.635273 Z-0.125000
G01 X18.656880 Y19.639280 Z-0.125000
G01 X18.642054 Y19.656020 Z-0.125000
G01 X18.634430 Y19.676696 Z-0.125000
G01 X18.631994 Y19.715814 Z-0.125000
G01 X18.637637 Y19.753667 Z-0.125000
G02 X18.644263 Y19.778910 Z-0.125000 I1.091401 J-0.272952
G01 X18.651535 Y19.802843 Z-0.125000
G01 X18.950866 Y19.801773 Z-0.125000
G01 X18.950866 Y19.801776 Z-0.125000
G00 Z5.000000

(End cutting path id: path2561)


(Start cutting path id: path2561)
(Change tool to Default tool)

G00 Z5.000000
G00 X20.156742 Y19.801776

G01 Z-0.125000 F100.0(Penetrate)
G03 X20.123052 Y19.748510 Z-0.125000 I9.608982 J-6.114770 F400.000000
G02 X20.088323 Y19.694872 Z-0.125000 I-2.018657 J1.268953
G02 X20.033072 Y19.614051 Z-0.125000 I-1.622031 J1.049551
G02 X19.973936 Y19.536654 Z-0.125000 I-1.438320 J1.037693
G01 X19.931174 Y19.485340 Z-0.125000
G01 X19.843513 Y19.384851 Z-0.125000
G01 X19.790061 Y19.393403 Z-0.125000
G02 X19.783368 Y19.461363 Z-0.125000 I1.668441 J0.198630
G02 X19.778302 Y19.529171 Z-0.125000 I10.361895 J0.808281
G01 X19.778051 Y19.554293 Z-0.125000
G02 X19.779373 Y19.579415 Z-0.125000 I1.260269 J-0.053681
G01 X19.781575 Y19.598873 Z-0.125000
G02 X19.784717 Y19.620039 Z-0.125000 I2.019949 J-0.289085
G02 X19.802477 Y19.710830 Z-0.125000 I17.925274 J-3.459304
G02 X19.821065 Y19.801776 Z-0.125000 I7.727707 J-1.531988
G01 X20.156743 Y19.801776 Z-0.125000
G01 X20.156742 Y19.801776 Z-0.125000
G00 Z5.000000

(End cutting path id: path2561)


(Start cutting path id: path2561)
(Change tool to Default tool)

G00 Z5.000000
G00 X17.637017 Y18.672871

G01 Z-0.125000 F100.0(Penetrate)
G01 X17.684055 Y18.785120 Z-0.125000 F400.000000
G01 X17.458488 Y19.175319 Z-0.125000
G01 X17.445659 Y19.285430 Z-0.125000
G01 X17.548287 Y19.242669 Z-0.125000
G01 X17.734300 Y18.916611 Z-0.125000
G01 X17.994076 Y19.589036 Z-0.125000
G01 X18.037907 Y19.669214 Z-0.125000
G01 X18.108463 Y19.660662 Z-0.125000
G01 X18.126637 Y19.590106 Z-0.125000
G01 X18.071047 Y19.440440 Z-0.125000
G01 X18.362895 Y18.966857 Z-0.125000
G01 X18.548907 Y19.450062 Z-0.125000
G01 X18.622671 Y19.453269 Z-0.125000
G01 X18.638707 Y19.360262 Z-0.125000
G01 X18.425968 Y18.815053 Z-0.125000
G01 X18.508284 Y18.672871 Z-0.125000
G01 X18.392828 Y18.672871 Z-0.125000
G01 X18.375723 Y18.703873 Z-0.125000
G01 X18.362895 Y18.672871 Z-0.125000
G01 X18.241025 Y18.672871 Z-0.125000
G01 X18.303028 Y18.828951 Z-0.125000
G01 X18.019733 Y19.310018 Z-0.125000
G01 X17.819823 Y18.775498 Z-0.125000
G01 X17.878620 Y18.672871 Z-0.125000
G01 X17.637017 Y18.672871 Z-0.125000
G01 X17.637017 Y18.672871 Z-0.125000
G00 Z5.000000

(End cutting path id: path2561)


(Start cutting path id: path2561)
(Change tool to Default tool)

G00 Z5.000000
G00 X18.901690 Y18.672871

G01 Z-0.125000 F100.0(Penetrate)
G01 X18.925209 Y18.742358 Z-0.125000 F400.000000
G01 X18.752025 Y19.029930 Z-0.125000
G01 X18.740265 Y19.150731 Z-0.125000
G01 X18.828996 Y19.136834 Z-0.125000
G01 X18.975453 Y18.889886 Z-0.125000
G01 X19.142224 Y19.408370 Z-0.125000
G01 X19.584806 Y18.762670 Z-0.125000
G01 X19.669260 Y19.065208 Z-0.125000
G01 X19.757990 Y19.084450 Z-0.125000
G01 X19.784716 Y18.983961 Z-0.125000
G01 X19.706676 Y18.672871 Z-0.125000
G01 X19.519594 Y18.672871 Z-0.125000
G01 X19.186055 Y19.165698 Z-0.125000
G01 X19.053493 Y18.750911 Z-0.125000
G01 X19.097324 Y18.672871 Z-0.125000
G01 X18.901690 Y18.672871 Z-0.125000
G01 X18.901690 Y18.672871 Z-0.125000
G00 Z5.000000

(End cutting path id: path2561)


(Start cutting path id: path2561)
(Change tool to Default tool)

G00 Z5.000000
G00 X20.218746 Y18.672871

G01 Z-0.125000 F100.0(Penetrate)
G02 X20.219420 Y18.751711 Z-0.125000 I4.611702 J0.000000 F400.000000
G02 X20.220882 Y18.828951 Z-0.125000 I21.048633 J-0.359893
G02 X20.225719 Y18.913546 Z-0.125000 I2.179459 J-0.082180
G02 X20.233711 Y18.996789 Z-0.125000 I2.174291 J-0.166749
G01 X20.236149 Y19.009666 Z-0.125000
G01 X20.240125 Y19.021378 Z-0.125000
G01 X20.245744 Y19.033509 Z-0.125000
G01 X20.252953 Y19.044896 Z-0.125000
G01 X20.266152 Y19.060910 Z-0.125000
G01 X20.282886 Y19.074829 Z-0.125000
G01 X20.293751 Y19.079605 Z-0.125000
G01 X20.305336 Y19.080174 Z-0.125000
G01 X20.317287 Y19.076738 Z-0.125000
G01 X20.326717 Y19.069484 Z-0.125000
G01 X20.339488 Y19.053676 Z-0.125000
G01 X20.349167 Y19.035275 Z-0.125000
G01 X20.353338 Y19.022332 Z-0.125000
G02 X20.356650 Y19.009618 Z-0.125000 I-0.643965 J-0.174561
G01 X20.359182 Y18.997254 Z-0.125000
G01 X20.360928 Y18.985030 Z-0.125000
G02 X20.364940 Y18.938472 Z-0.125000 I-1.358062 J-0.140488
G02 X20.367342 Y18.892024 Z-0.125000 I-1.349777 J-0.093082
G02 X20.368667 Y18.839369 Z-0.125000 I-5.070593 J-0.153886
G02 X20.368413 Y18.785120 Z-0.125000 I-1.100973 J-0.021975
G01 X20.367342 Y18.672871 Z-0.125000
G01 X20.218746 Y18.672871 Z-0.125000
G01 X20.218746 Y18.672871 Z-0.125000
G00 Z5.000000

(End cutting path id: path2561)


(Start cutting path id: path2561)
(Change tool to Default tool)

G00 Z5.000000
G00 X20.756472 Y18.672871

G01 Z-0.125000 F100.0(Penetrate)
G01 X20.759679 Y18.704942 Z-0.125000 F400.000000
G01 X20.762052 Y18.727812 Z-0.125000
G01 X20.766093 Y18.750911 Z-0.125000
G01 X20.770567 Y18.772494 Z-0.125000
G03 X20.775715 Y18.792603 Z-0.125000 I-1.790328 J0.469046
G01 X20.784980 Y18.815440 Z-0.125000
G01 X20.797095 Y18.835365 Z-0.125000
G01 X20.807100 Y18.846741 Z-0.125000
G01 X20.819546 Y18.855676 Z-0.125000
G01 X20.838533 Y18.861159 Z-0.125000
G01 X20.856962 Y18.859954 Z-0.125000
G01 X20.876308 Y18.851814 Z-0.125000
G01 X20.890102 Y18.838574 Z-0.125000
G01 X20.898938 Y18.825553 Z-0.125000
G01 X20.906138 Y18.811847 Z-0.125000
G01 X20.911018 Y18.798656 Z-0.125000
G01 X20.912552 Y18.786190 Z-0.125000
G02 X20.917501 Y18.729981 Z-0.125000 I-1.077744 J-0.123217
G02 X20.920035 Y18.673941 Z-0.125000 I-1.684325 J-0.104242
G01 X20.756472 Y18.672871 Z-0.125000
G01 X20.756472 Y18.672871 Z-0.125000
G00 Z5.000000

(End cutting path id: path2561)


(Start cutting path id: path2561)
(Change tool to Default tool)

G00 Z5.000000
G00 X21.367962 Y18.824674

G01 Z-0.125000 F100.0(Penetrate)
G01 X21.340070 Y18.827749 Z-0.125000 F400.000000
G01 X21.313441 Y18.833227 Z-0.125000
G01 X21.304483 Y18.836398 Z-0.125000
G01 X21.297406 Y18.841779 Z-0.125000
G01 X21.288615 Y18.856176 Z-0.125000
G01 X21.285647 Y18.871712 Z-0.125000
G01 X21.287807 Y18.902173 Z-0.125000
G01 X21.296337 Y18.930510 Z-0.125000
G01 X21.315438 Y18.970829 Z-0.125000
G01 X21.339098 Y19.007480 Z-0.125000
G02 X21.372973 Y19.046613 Z-0.125000 I0.521467 J-0.417162
G01 X21.409655 Y19.081243 Z-0.125000
G02 X21.448844 Y19.114038 Z-0.125000 I0.763326 J-0.872371
G02 X21.489833 Y19.145386 Z-0.125000 I0.738136 J-0.922665
G02 X21.528535 Y19.172438 Z-0.125000 I2.180841 J-3.078837
G02 X21.567872 Y19.197769 Z-0.125000 I0.419328 J-0.607984
G02 X21.623285 Y19.230949 Z-0.125000 I0.504434 J-0.779566
G02 X21.680122 Y19.260842 Z-0.125000 I0.755687 J-1.367826
G02 X21.741772 Y19.289667 Z-0.125000 I0.578947 J-1.157908
G02 X21.805199 Y19.315363 Z-0.125000 I0.523036 J-1.199901
G02 X21.850522 Y19.331186 Z-0.125000 I1.127999 J-3.158367
G02 X21.897136 Y19.346365 Z-0.125000 I0.569383 J-1.669318
G02 X21.970046 Y19.368080 Z-0.125000 I0.929551 J-2.987838
G02 X22.042525 Y19.388058 Z-0.125000 I1.232679 J-4.330651
G02 X22.182768 Y19.423222 Z-0.125000 I1.445605 J-5.468119
G02 X22.323682 Y19.454338 Z-0.125000 I1.069760 J-4.510006
G02 X22.404110 Y19.469349 Z-0.125000 I0.623034 J-3.115200
G02 X22.484038 Y19.481064 Z-0.125000 I0.264281 J-1.524596
G01 X22.810095 Y19.518481 Z-0.125000
G03 X22.888332 Y19.529785 Z-0.125000 I-0.221806 J1.811475
G03 X22.967244 Y19.545206 Z-0.125000 I-0.237517 J1.425031
G03 X23.083019 Y19.571497 Z-0.125000 I-0.676387 J3.246641
G03 X23.198156 Y19.601866 Z-0.125000 I-0.852006 J3.463632
G03 X23.253865 Y19.618651 Z-0.125000 I-0.556640 J1.948278
G03 X23.308267 Y19.636075 Z-0.125000 I-2.931028 J9.245152
G03 X23.346164 Y19.650274 Z-0.125000 I-0.174129 J0.522406
G03 X23.383100 Y19.666007 Z-0.125000 I-1.039394 J2.491337
G02 X23.462636 Y19.697200 Z-0.125000 I0.540406 J-1.260948
G02 X23.543456 Y19.722667 Z-0.125000 I0.381187 J-1.068732
G01 X23.577699 Y19.729069 Z-0.125000
G01 X23.612943 Y19.729081 Z-0.125000
G02 X23.646021 Y19.719486 Z-0.125000 I-0.160044 J-0.613510
G01 X23.665326 Y19.711977 Z-0.125000
G03 X23.660418 Y19.692310 Z-0.125000 I23.679662 J-5.919690
G01 X23.654635 Y19.672421 Z-0.125000
G01 X23.629949 Y19.635758 Z-0.125000
G01 X23.611874 Y19.617901 Z-0.125000
G01 X23.574771 Y19.591991 Z-0.125000
G01 X23.533834 Y19.569794 Z-0.125000
G02 X23.485643 Y19.547635 Z-0.125000 I-1.989737 J4.263695
G02 X23.436552 Y19.527033 Z-0.125000 I-0.392146 J0.865640
G02 X23.384664 Y19.507019 Z-0.125000 I-0.589553 J1.451154
G02 X23.331786 Y19.488547 Z-0.125000 I-0.671496 J1.837355
G02 X23.262845 Y19.466412 Z-0.125000 I-2.746852 J8.436876
G02 X23.192811 Y19.445786 Z-0.125000 I-0.546161 J1.725218
G02 X23.112451 Y19.425160 Z-0.125000 I-3.346396 J12.870800
G02 X23.032455 Y19.406232 Z-0.125000 I-0.639402 J2.523793
G01 X22.936242 Y19.385919 Z-0.125000
G01 X22.750229 Y19.350641 Z-0.125000
G03 X22.479908 Y19.300155 Z-0.125000 I7.700117 J-41.978291
G03 X22.209295 Y19.248014 Z-0.125000 I10.334807 J-54.365371
G01 X22.193354 Y19.244167 Z-0.125000
G03 X22.177224 Y19.239462 Z-0.125000 I0.301797 J-1.064477
G01 X21.957003 Y19.157145 Z-0.125000
G03 X21.915906 Y19.141877 Z-0.125000 I0.318963 J-0.921491
G03 X21.875756 Y19.125074 Z-0.125000 I0.442569 J-1.113888
G03 X21.841699 Y19.110049 Z-0.125000 I0.692117 J-1.614929
G03 X21.807337 Y19.094072 Z-0.125000 I0.854197 J-1.881964
G03 X21.763111 Y19.071892 Z-0.125000 I0.345222 J-0.743563
G03 X21.719676 Y19.048103 Z-0.125000 I1.947963 J-3.608257
G03 X21.679629 Y19.022254 Z-0.125000 I3.309867 J-5.171744
G03 X21.640567 Y18.995721 Z-0.125000 I0.657005 J-1.009243
G02 X21.546600 Y18.929640 Z-0.125000 I-2.431155 J3.357298
G02 X21.452416 Y18.866367 Z-0.125000 I-4.278990 J6.267619
G02 X21.423212 Y18.849341 Z-0.125000 I-0.425161 J0.695699
G02 X21.394689 Y18.834296 Z-0.125000 I-0.360467 J0.648842
G01 X21.367962 Y18.824674 Z-0.125000
G00 Z5.000000

(End cutting path id: path2561)


(Start cutting path id: path2559)
(Change tool to Default tool)

G00 Z5.000000
G00 X18.241025 Y18.672871

G01 Z-0.125000 F100.0(Penetrate)
G01 X18.093497 Y18.300846 Z-0.125000 F400.000000
G01 X17.878620 Y18.672871 Z-0.125000
G01 X17.637017 Y18.672871 Z-0.125000
G01 X17.580358 Y18.533895 Z-0.125000
G01 X17.601739 Y18.437682 Z-0.125000
G01 X17.690469 Y18.453718 Z-0.125000
G01 X17.770647 Y18.640800 Z-0.125000
G01 X18.035769 Y18.176837 Z-0.125000
G01 X17.790959 Y17.582452 Z-0.125000
G01 X18.237817 Y16.787087 Z-0.125000
G01 X18.139466 Y16.513413 Z-0.125000
G01 X18.219644 Y16.411854 Z-0.125000
G01 X18.312650 Y16.657733 Z-0.125000
G01 X18.817236 Y15.821745 Z-0.125000
G01 X18.781958 Y15.640008 Z-0.125000
G01 X18.799063 Y15.516000 Z-0.125000
G01 X18.853583 Y15.568383 Z-0.125000
G01 X18.902760 Y15.706289 Z-0.125000
G01 X19.272647 Y15.050968 Z-0.125000
G01 X19.189262 Y14.751637 Z-0.125000
G01 X19.502490 Y14.231016 Z-0.125000
G01 X19.581599 Y14.213911 Z-0.125000
G01 X19.599772 Y14.249189 Z-0.125000
G01 X19.304718 Y14.745223 Z-0.125000
G01 X19.344272 Y14.901303 Z-0.125000
G01 X19.501421 Y14.630836 Z-0.125000
G01 X19.594427 Y14.642595 Z-0.125000
G01 X19.571978 Y14.725981 Z-0.125000
G01 X19.392379 Y15.036001 Z-0.125000
G01 X19.561287 Y15.587626 Z-0.125000
G01 X19.759059 Y15.269052 Z-0.125000
G01 X19.807166 Y15.393061 Z-0.125000
G01 X19.604049 Y15.736222 Z-0.125000
G01 X19.755852 Y16.307088 Z-0.125000
G01 X19.881998 Y16.091143 Z-0.125000
G01 X19.951486 Y16.080452 Z-0.125000
G01 X19.953622 Y16.196977 Z-0.125000
G01 X19.806095 Y16.457823 Z-0.125000
G01 X20.084045 Y17.569623 Z-0.125000
G01 X20.044491 Y17.690425 Z-0.125000
G01 X19.991038 Y17.681872 Z-0.125000
G01 X19.881996 Y17.288466 Z-0.125000
G01 X19.523869 Y17.920268 Z-0.125000
G01 X19.646808 Y18.469754 Z-0.125000
G01 X19.935448 Y18.007929 Z-0.125000
G01 X19.997453 Y18.017550 Z-0.125000
G01 X19.996382 Y18.096659 Z-0.125000
G01 X19.689568 Y18.606591 Z-0.125000
G01 X19.706672 Y18.672871 Z-0.125000
G01 X19.519591 Y18.672871 Z-0.125000
G01 X19.550593 Y18.627971 Z-0.125000
G01 X19.425516 Y18.096659 Z-0.125000
G01 X19.097321 Y18.672871 Z-0.125000
G01 X18.901687 Y18.672871 Z-0.125000
G01 X18.757366 Y18.243117 Z-0.125000
G01 X18.508281 Y18.672871 Z-0.125000
G01 X18.392824 Y18.672871 Z-0.125000
G01 X18.709260 Y18.097728 Z-0.125000
G01 X18.502936 Y17.523654 Z-0.125000
G01 X18.168326 Y18.169354 Z-0.125000
G01 X18.362891 Y18.672871 Z-0.125000
G01 X18.241021 Y18.672871 Z-0.125000
G01 X18.241025 Y18.672871 Z-0.125000
G00 Z5.000000

(End cutting path id: path2559)


(Start cutting path id: path2559)
(Change tool to Default tool)

G00 Z5.000000
G00 X20.367342 Y18.672871

G01 Z-0.125000 F100.0(Penetrate)
G01 X20.363064 Y18.282672 Z-0.125000 F400.000000
G03 X20.362128 Y18.172023 Z-0.125000 I9.148311 J-0.132783
G03 X20.361994 Y18.061381 Z-0.125000 I45.734997 J-0.110642
G03 X20.364266 Y17.918671 Z-0.125000 I15.287644 J0.172029
G03 X20.367339 Y17.775948 Z-0.125000 I75.794985 J1.560684
G03 X20.373080 Y17.592654 Z-0.125000 I18.325586 J0.482239
G03 X20.381236 Y17.409267 Z-0.125000 I11.275650 J0.409627
G03 X20.386878 Y17.344939 Z-0.125000 I2.553135 J0.191478
G03 X20.394065 Y17.282052 Z-0.125000 I2.296658 J0.230619
G02 X20.403694 Y17.211851 Z-0.125000 I-1.631121 J-0.259498
G02 X20.410100 Y17.142007 Z-0.125000 I-1.489254 J-0.171819
G02 X20.412506 Y17.095477 Z-0.125000 I-1.354879 J-0.093368
G02 X20.413307 Y17.049001 Z-0.125000 I-1.346807 J-0.046476
G01 X20.411158 Y17.028145 Z-0.125000
G01 X20.405824 Y17.008378 Z-0.125000
G01 X20.401150 Y16.997593 Z-0.125000
G01 X20.392996 Y16.988066 Z-0.125000
G01 X20.385810 Y16.982951 Z-0.125000
G01 X20.378029 Y16.979514 Z-0.125000
G01 X20.360975 Y16.973378 Z-0.125000
G01 X20.342751 Y16.968823 Z-0.125000
G01 X20.323638 Y16.971209 Z-0.125000
G01 X20.304266 Y16.975237 Z-0.125000
G01 X20.295228 Y16.978234 Z-0.125000
G01 X20.287161 Y16.982721 Z-0.125000
G01 X20.275752 Y16.990206 Z-0.125000
G01 X20.266850 Y16.999825 Z-0.125000
G01 X20.259767 Y17.009075 Z-0.125000
G01 X20.255090 Y17.020137 Z-0.125000
G01 X20.248716 Y17.044245 Z-0.125000
G01 X20.245469 Y17.069313 Z-0.125000
G02 X20.237621 Y17.189674 Z-0.125000 I4.085056 J0.326797
G02 X20.233710 Y17.313054 Z-0.125000 I3.295470 J0.166214
G01 X20.217673 Y18.029309 Z-0.125000
G01 X20.220880 Y18.513584 Z-0.125000
G02 X20.219411 Y18.593766 Z-0.125000 I23.595814 J0.472624
G02 X20.218744 Y18.673940 Z-0.125000 I4.820808 J0.080174
G01 X20.367341 Y18.672869 Z-0.125000
G01 X20.367342 Y18.672871 Z-0.125000
G00 Z5.000000

(End cutting path id: path2559)


(Start cutting path id: path2559)
(Change tool to Default tool)

G00 Z5.000000
G00 X20.920035 Y18.672871

G01 Z-0.125000 F100.0(Penetrate)
G01 X20.920035 Y18.638662 Z-0.125000 F400.000000
G02 X20.916834 Y18.495465 Z-0.125000 I-6.454362 J0.072630
G02 X20.910414 Y18.352160 Z-0.125000 I-6.327189 J0.211680
G03 X20.907619 Y18.294916 Z-0.125000 I0.831407 J-0.069281
G03 X20.907207 Y18.237772 Z-0.125000 I3.960087 J-0.057144
G03 X20.913486 Y17.998879 Z-0.125000 I19.433654 J0.391274
G03 X20.922173 Y17.759912 Z-0.125000 I30.562828 J0.991368
G03 X20.936483 Y17.456729 Z-0.125000 I14.950282 J0.553714
G03 X20.956382 Y17.154836 Z-0.125000 I17.744536 J1.018028
G03 X20.965206 Y17.073121 Z-0.125000 I1.400133 J0.109853
G03 X20.978832 Y16.992342 Z-0.125000 I1.340207 J0.184532
G02 X20.996329 Y16.895546 Z-0.125000 I-2.598619 J-0.519716
G02 X21.009834 Y16.797777 Z-0.125000 I-2.117408 J-0.342299
G02 X21.015471 Y16.736180 Z-0.125000 I-0.774880 J-0.101962
G02 X21.016249 Y16.674838 Z-0.125000 I-0.785940 J-0.040646
G01 X21.013927 Y16.648981 Z-0.125000
G01 X21.007696 Y16.625662 Z-0.125000
G01 X20.996366 Y16.604581 Z-0.125000
G01 X20.982039 Y16.586107 Z-0.125000
G01 X20.975199 Y16.579886 Z-0.125000
G02 X20.967073 Y16.573279 Z-0.125000 I-0.419659 J0.507833
G01 X20.956382 Y16.567934 Z-0.125000
G01 X20.942179 Y16.566221 Z-0.125000
G01 X20.929656 Y16.566863 Z-0.125000
G01 X20.915800 Y16.570926 Z-0.125000
G01 X20.902931 Y16.576485 Z-0.125000
G01 X20.887480 Y16.587701 Z-0.125000
G01 X20.875135 Y16.600003 Z-0.125000
G01 X20.865426 Y16.613598 Z-0.125000
G01 X20.858031 Y16.628868 Z-0.125000
G01 X20.849239 Y16.656964 Z-0.125000
G01 X20.843064 Y16.684458 Z-0.125000
G01 X20.838242 Y16.718283 Z-0.125000
G01 X20.836650 Y16.751807 Z-0.125000
G01 X20.825960 Y17.081071 Z-0.125000
G03 X20.821939 Y17.204782 Z-0.125000 I-9.453775 J-0.245360
G03 X20.816339 Y17.326950 Z-0.125000 I-9.024276 J-0.352453
G03 X20.804957 Y17.519082 Z-0.125000 I-106.237613 J-6.197188
G03 X20.792819 Y17.709666 Z-0.125000 I-27.049452 J-1.626977
G02 X20.778117 Y17.937421 Z-0.125000 I19.480003 J1.371824
G02 X20.765025 Y18.165076 Z-0.125000 I97.168002 J5.702413
G02 X20.757822 Y18.319318 Z-0.125000 I14.340027 J0.746904
G02 X20.752196 Y18.475097 Z-0.125000 I15.022339 J0.620551
G02 X20.751389 Y18.534700 Z-0.125000 I2.201959 J0.059602
G02 X20.752196 Y18.592691 Z-0.125000 I2.085355 J-0.000000
G02 X20.753932 Y18.632757 Z-0.125000 I6.119545 J-0.245149
G02 X20.756474 Y18.672869 Z-0.125000 I1.203431 J-0.056104
G01 X20.920037 Y18.672869 Z-0.125000
G01 X20.920035 Y18.672871 Z-0.125000
G00 Z5.000000

(End cutting path id: path2559)


(Start cutting path id: path2559)
(Change tool to Default tool)

G00 Z5.000000
G00 X19.242713 Y17.385748

G01 Z-0.125000 F100.0(Penetrate)
G01 X18.842893 Y18.113764 Z-0.125000 F400.000000
G01 X19.007525 Y18.623695 Z-0.125000
G01 X19.382758 Y17.936303 Z-0.125000
G01 X19.242713 Y17.385748 Z-0.125000
G01 X19.242713 Y17.385748 Z-0.125000
G00 Z5.000000

(End cutting path id: path2559)


(Start cutting path id: path2559)
(Change tool to Default tool)

G00 Z5.000000
G00 X18.291269 Y16.946374

G01 Z-0.125000 F100.0(Penetrate)
G01 X17.933141 Y17.582452 Z-0.125000 F400.000000
G01 X18.105256 Y18.043207 Z-0.125000
G01 X18.459108 Y17.404991 Z-0.125000
G01 X18.291269 Y16.946374 Z-0.125000
G01 X18.291269 Y16.946374 Z-0.125000
G00 Z5.000000

(End cutting path id: path2559)


(Start cutting path id: path2559)
(Change tool to Default tool)

G00 Z5.000000
G00 X19.033182 Y16.632077

G01 Z-0.125000 F100.0(Penetrate)
G01 X18.589531 Y17.377196 Z-0.125000 F400.000000
G01 X18.783026 Y17.967305 Z-0.125000
G01 X19.198883 Y17.224324 Z-0.125000
G01 X19.033182 Y16.632077 Z-0.125000
G01 X19.033182 Y16.632077 Z-0.125000
G00 Z5.000000

(End cutting path id: path2559)


(Start cutting path id: path2559)
(Change tool to Default tool)

G00 Z5.000000
G00 X19.710952 Y16.606419

G01 Z-0.125000 F100.0(Penetrate)
G01 X19.331444 Y17.242497 Z-0.125000 F400.000000
G01 X19.470419 Y17.766326 Z-0.125000
G01 X19.843513 Y17.136663 Z-0.125000
G01 X19.710952 Y16.606419 Z-0.125000
G01 X19.710952 Y16.606419 Z-0.125000
G00 Z5.000000

(End cutting path id: path2559)


(Start cutting path id: path2559)
(Change tool to Default tool)

G00 Z5.000000
G00 X18.861067 Y15.957513

G01 Z-0.125000 F100.0(Penetrate)
G01 X18.369309 Y16.789225 Z-0.125000 F400.000000
G01 X18.546769 Y17.263878 Z-0.125000
G01 X18.989352 Y16.510206 Z-0.125000
G03 X18.859134 Y15.966843 Z-0.125000 I2468.432460 J-591.848593
G01 X18.861067 Y15.957513 Z-0.125000
G01 X18.861067 Y15.957513 Z-0.125000
G00 Z5.000000

(End cutting path id: path2559)


(Start cutting path id: path2559)
(Change tool to Default tool)

G00 Z5.000000
G00 X19.513180 Y15.861299

G01 Z-0.125000 F100.0(Penetrate)
G01 X19.119774 Y16.493101 Z-0.125000 F400.000000
G01 X19.277992 Y17.090693 Z-0.125000
G01 X19.664984 Y16.437511 Z-0.125000
G01 X19.513180 Y15.861299 Z-0.125000
G01 X19.513180 Y15.861299 Z-0.125000
G00 Z5.000000

(End cutting path id: path2559)


(Start cutting path id: path2559)
(Change tool to Default tool)

G00 Z5.000000
G00 X21.040836 Y16.047312

G01 Z-0.125000 F100.0(Penetrate)
G02 X21.022021 Y16.049229 Z-0.125000 I0.043031 J0.515610 F400.000000
G01 X21.004489 Y16.052658 Z-0.125000
G01 X20.995624 Y16.055025 Z-0.125000
G01 X20.986315 Y16.059072 Z-0.125000
G01 X20.974055 Y16.067278 Z-0.125000
G01 X20.962796 Y16.079383 Z-0.125000
G01 X20.957249 Y16.091789 Z-0.125000
G01 X20.954244 Y16.105040 Z-0.125000
G01 X20.949966 Y16.198047 Z-0.125000
G01 X20.923240 Y16.281432 Z-0.125000
G01 X20.915934 Y16.311219 Z-0.125000
G01 X20.913619 Y16.340229 Z-0.125000
G01 X20.915851 Y16.366374 Z-0.125000
G01 X20.922171 Y16.391543 Z-0.125000
G01 X20.928319 Y16.403476 Z-0.125000
G01 X20.937138 Y16.415061 Z-0.125000
G01 X20.947558 Y16.423174 Z-0.125000
G01 X20.959587 Y16.428958 Z-0.125000
G01 X20.977432 Y16.432944 Z-0.125000
G01 X20.994865 Y16.432166 Z-0.125000
G01 X21.008305 Y16.427652 Z-0.125000
G01 X21.019454 Y16.418268 Z-0.125000
G01 X21.026167 Y16.409979 Z-0.125000
G01 X21.031213 Y16.401163 Z-0.125000
G01 X21.036358 Y16.384364 Z-0.125000
G02 X21.039765 Y16.368023 Z-0.125000 I-0.995442 J-0.216093
G02 X21.050207 Y16.305364 Z-0.125000 I-2.506568 J-0.449891
G02 X21.059008 Y16.242946 Z-0.125000 I-2.478940 J-0.381374
G02 X21.066768 Y16.178724 Z-0.125000 I-7.836788 J-0.979531
G02 X21.072905 Y16.114661 Z-0.125000 I-1.547952 J-0.180617
G01 X21.073705 Y16.101832 Z-0.125000
G01 X21.072905 Y16.089004 Z-0.125000
G01 X21.066388 Y16.071071 Z-0.125000
G01 X21.063284 Y16.066554 Z-0.125000
G01 X21.040834 Y16.047312 Z-0.125000
G01 X21.040836 Y16.047312 Z-0.125000
G00 Z5.000000

(End cutting path id: path2559)


(Start cutting path id: path2559)
(Change tool to Default tool)

G00 Z5.000000
G00 X19.315408 Y15.178183

G01 Z-0.125000 F100.0(Penetrate)
G01 X18.941245 Y15.834573 Z-0.125000 F400.000000
G01 X19.072736 Y16.347712 Z-0.125000
G01 X19.468281 Y15.724462 Z-0.125000
G01 X19.315408 Y15.178183 Z-0.125000
G01 X19.315408 Y15.178183 Z-0.125000
G00 Z5.000000

(End cutting path id: path2559)


(Start cutting path id: path2559)
(Change tool to Default tool)

G00 Z5.000000
G00 X21.084667 Y14.157252

G01 Z-0.125000 F100.0(Penetrate)
G01 X21.029077 Y14.186116 Z-0.125000 F400.000000
G01 X20.868721 Y14.573108 Z-0.125000
G01 X20.530905 Y14.762327 Z-0.125000
G01 X20.512731 Y14.823263 Z-0.125000
G01 X20.590771 Y14.810434 Z-0.125000
G01 X20.832374 Y14.674667 Z-0.125000
G01 X20.637809 Y15.133284 Z-0.125000
G01 X20.340616 Y15.307538 Z-0.125000
G01 X20.339545 Y15.360989 Z-0.125000
G01 X20.418654 Y15.348161 Z-0.125000
G01 X20.618564 Y15.219876 Z-0.125000
G01 X20.506315 Y15.494619 Z-0.125000
G01 X20.577941 Y15.517069 Z-0.125000
G01 X21.110322 Y14.210704 Z-0.125000
G01 X21.084665 Y14.157252 Z-0.125000
G00 Z5.000000

(End cutting path id: path2559)


(Start cutting path id: path2557)
(Change tool to Default tool)

G00 Z5.000000
G00 X17.019113 Y25.097793

G01 Z-0.125000 F100.0(Penetrate)
G03 X17.106599 Y25.078745 Z-0.125000 I2.262964 J10.183297 F400.000000
G03 X17.195505 Y25.060376 Z-0.125000 I1.492722 J7.000421
G03 X17.239138 Y25.052546 Z-0.125000 I0.727474 J3.928546
G03 X17.284235 Y25.045409 Z-0.125000 I0.259558 J1.494086
G03 X17.468245 Y25.027884 Z-0.125000 I0.288849 J2.058068
G03 X17.653053 Y25.027236 Z-0.125000 I0.099305 J1.966036
G03 X17.900297 Y25.047321 Z-0.125000 I-0.155789 J3.449613
G03 X18.144811 Y25.084964 Z-0.125000 I-0.403689 J3.435112
G02 X18.193195 Y25.094510 Z-0.125000 I1.850486 J-9.251868
G02 X18.243162 Y25.104207 Z-0.125000 I9.699610 J-49.848509
G02 X18.305981 Y25.116958 Z-0.125000 I3.111907 J-15.170146
G02 X18.370378 Y25.129864 Z-0.125000 I16.416859 J-81.747557
G01 X18.278440 Y25.083895 Z-0.125000
G01 X18.207884 Y25.048617 Z-0.125000
G02 X17.989204 Y24.955542 Z-0.125000 I-0.907525 J1.828809
G02 X17.762095 Y24.888262 Z-0.125000 I-0.712069 J1.986677
G02 X17.583268 Y24.859647 Z-0.125000 I-0.283866 J1.200938
G02 X17.401829 Y24.858328 Z-0.125000 I-0.099165 J1.160790
G01 X17.316626 Y24.871778 Z-0.125000
G01 X17.235059 Y24.902159 Z-0.125000
G02 X17.157017 Y24.950750 Z-0.125000 I0.244667 J0.479926
G02 X17.088601 Y25.012269 Z-0.125000 I0.306466 J0.409625
G02 X17.072735 Y25.030003 Z-0.125000 I1.109059 J1.008223
G01 X17.057598 Y25.048617 Z-0.125000
G02 X17.037235 Y25.073607 Z-0.125000 I0.401244 J0.347738
G02 X17.019113 Y25.097793 Z-0.125000 I1.164338 J0.891321
G00 Z5.000000

(End cutting path id: path2557)


(Start cutting path id: path2555)
(Change tool to Default tool)

G00 Z5.000000
G00 X20.682708 Y26.536719

G01 Z-0.125000 F100.0(Penetrate)
G02 X20.648920 Y26.504800 Z-0.125000 I-3.948944 J4.146419 F400.000000
G02 X20.614290 Y26.473645 Z-0.125000 I-0.785623 J0.838434
G01 X20.595878 Y26.459936 Z-0.125000
G01 X20.576873 Y26.447989 Z-0.125000
G01 X20.560190 Y26.439168 Z-0.125000
G01 X20.542665 Y26.431953 Z-0.125000
G02 X20.481200 Y26.411948 Z-0.125000 I-0.699408 J2.044464
G02 X20.418656 Y26.393467 Z-0.125000 I-0.776326 J2.512292
G02 X20.340286 Y26.374028 Z-0.125000 I-0.278130 J0.953585
G02 X20.261507 Y26.360327 Z-0.125000 I-0.265456 J1.293025
G01 X20.211126 Y26.355357 Z-0.125000
G01 X20.161018 Y26.356050 Z-0.125000
G01 X20.147681 Y26.356699 Z-0.125000
G02 X20.134292 Y26.358186 Z-0.125000 I0.049002 J0.502155
G01 X19.815718 Y26.406293 Z-0.125000
G03 X19.748441 Y26.415350 Z-0.125000 I-0.178107 J-1.068563
G03 X19.679950 Y26.421260 Z-0.125000 I-0.214215 J-2.082838
G03 X19.634516 Y26.422879 Z-0.125000 I-0.045435 J-0.636593
G03 X19.589082 Y26.421260 Z-0.125000 I0.000000 J-0.638191
G01 X19.360308 Y26.405223 Z-0.125000
G02 X19.302017 Y26.403204 Z-0.125000 I-0.049946 J0.599363
G02 X19.243782 Y26.405223 Z-0.125000 I0.019446 J1.401368
G02 X19.181802 Y26.412333 Z-0.125000 I0.063929 J0.831099
G02 X19.120843 Y26.423398 Z-0.125000 I0.167524 J1.096324
G02 X19.067462 Y26.436975 Z-0.125000 I0.120693 J0.586259
G02 X19.016077 Y26.454400 Z-0.125000 I0.247815 J0.815279
G01 X18.986609 Y26.467789 Z-0.125000
G01 X18.958349 Y26.485401 Z-0.125000
G01 X18.947441 Y26.494048 Z-0.125000
G01 X18.936968 Y26.504644 Z-0.125000
G02 X18.912139 Y26.529474 Z-0.125000 I0.372621 J0.397442
G02 X18.888862 Y26.555958 Z-0.125000 I0.400566 J0.375533
G02 X18.949730 Y26.571674 Z-0.125000 I1.718964 J-6.532094
G02 X19.011801 Y26.585891 Z-0.125000 I0.342135 J-1.351089
G01 X19.035959 Y26.589913 Z-0.125000
G01 X19.059907 Y26.592305 Z-0.125000
G02 X19.101807 Y26.592844 Z-0.125000 I0.031460 J-0.816762
G01 X19.142224 Y26.590169 Z-0.125000
G02 X19.247805 Y26.578310 Z-0.125000 I-0.226944 J-2.496435
G02 X19.353893 Y26.562374 Z-0.125000 I-0.443266 J-3.312012
G03 X19.422956 Y26.552473 Z-0.125000 I0.295347 J1.814296
G03 X19.491800 Y26.544201 Z-0.125000 I1.115368 J8.991607
G03 X19.600640 Y26.533738 Z-0.125000 I0.830072 J8.063581
G03 X19.707745 Y26.524959 Z-0.125000 I0.654633 J7.328476
G03 X19.921402 Y26.513039 Z-0.125000 I0.610160 J9.016582
G03 X20.133222 Y26.506785 Z-0.125000 I0.323520 J7.366647
G03 X20.279070 Y26.507720 Z-0.125000 I0.046087 J4.187709
G03 X20.425070 Y26.514268 Z-0.125000 I-0.082896 J3.479015
G03 X20.468636 Y26.517505 Z-0.125000 I-5.705680 J77.086332
G03 X20.510593 Y26.520682 Z-0.125000 I-1.381163 J18.518082
G01 X20.682708 Y26.536718 Z-0.125000
G00 Z5.000000

(End cutting path id: path2555)


(Start cutting path id: path2553)
(Change tool to Default tool)

G00 Z5.000000
G00 X25.335164 Y10.977931

G01 Z-0.125000 F100.0(Penetrate)
G02 X25.322291 Y11.003951 Z-0.125000 I3.078571 J1.539330 F400.000000
G03 X25.308438 Y11.030314 Z-0.125000 I-0.467645 J-0.228919
G03 X25.301976 Y11.042970 Z-0.125000 I-0.765968 J-0.383116
G01 X25.294541 Y11.055971 Z-0.125000
G01 X25.285784 Y11.069829 Z-0.125000
G03 X25.276367 Y11.082697 Z-0.125000 I-0.552221 J-0.394242
G03 X25.256954 Y11.108268 Z-0.125000 I-2.201956 J-1.651451
G03 X25.236813 Y11.132941 Z-0.125000 I-0.428592 J-0.329322
G01 X25.254100 Y11.141670 Z-0.125000
G01 X25.269953 Y11.150046 Z-0.125000
G02 X25.282782 Y11.156461 Z-0.125000 I40.115530 J-80.141986
G03 X25.295610 Y11.162875 Z-0.125000 I-281.744946 J560.504359
G02 X25.406614 Y11.206778 Z-0.125000 I0.373371 J-0.781745
G02 X25.522246 Y11.234500 Z-0.125000 I0.248988 J-0.783545
G01 X25.616189 Y11.240020 Z-0.125000
G01 X25.709328 Y11.227017 Z-0.125000
G01 X25.795794 Y11.191844 Z-0.125000
G01 X25.866476 Y11.129734 Z-0.125000
G01 X25.897001 Y11.069678 Z-0.125000
G01 X25.896410 Y11.002519 Z-0.125000
G01 X25.891598 Y10.986662 Z-0.125000
G01 X25.883581 Y10.972586 Z-0.125000
G01 X25.861302 Y10.939756 Z-0.125000
G02 X25.836543 Y10.908444 Z-0.125000 I-0.519579 J0.385379
G03 X25.818743 Y10.930795 Z-0.125000 I-1.711161 J-1.344492
G01 X25.800196 Y10.952274 Z-0.125000
G01 X25.793709 Y10.959051 Z-0.125000
G01 X25.786298 Y10.965103 Z-0.125000
G01 X25.707288 Y11.011682 Z-0.125000
G01 X25.617391 Y11.033521 Z-0.125000
G03 X25.502151 Y11.029835 Z-0.125000 I-0.041681 J-0.500183
G03 X25.389685 Y11.000381 Z-0.125000 I0.078274 J-0.528318
G01 X25.376628 Y10.994872 Z-0.125000
G01 X25.365097 Y10.989691 Z-0.125000
G01 X25.346725 Y10.982185 Z-0.125000
G01 X25.335164 Y10.977931 Z-0.125000
G00 Z5.000000

(End cutting path id: path2553)


(Start cutting path id: path2551)
(Change tool to Default tool)

G00 Z5.000000
G00 X21.173397 Y9.644840

G01 Z-0.125000 F100.0(Penetrate)
G03 X21.156827 Y9.651255 Z-0.125000 I-0.293052 J-0.732360 F400.000000
G02 X21.140257 Y9.657669 Z-0.125000 I0.277928 J0.742639
G01 X21.131705 Y9.660876 Z-0.125000
G01 X21.123152 Y9.664083 Z-0.125000
G01 X21.029109 Y9.679525 Z-0.125000
G01 X20.932863 Y9.671566 Z-0.125000
G01 X20.841612 Y9.639137 Z-0.125000
G01 X20.761817 Y9.584974 Z-0.125000
G01 X20.745884 Y9.571463 Z-0.125000
G01 X20.730815 Y9.557179 Z-0.125000
G03 X20.711507 Y9.537738 Z-0.125000 I2.825294 J-2.825187
G03 X20.693398 Y9.518693 Z-0.125000 I0.511255 J-0.504271
G01 X20.687625 Y9.538045 Z-0.125000
G02 X20.682708 Y9.557179 Z-0.125000 I1.459899 J0.385324
G02 X20.681166 Y9.566563 Z-0.125000 I1.849471 J0.308715
G02 X20.679501 Y9.577491 Z-0.125000 I0.599027 J0.096870
G01 X20.680882 Y9.625509 Z-0.125000
G01 X20.694468 Y9.673704 Z-0.125000
G01 X20.721776 Y9.724452 Z-0.125000
G01 X20.759679 Y9.767780 Z-0.125000
G01 X20.848616 Y9.829906 Z-0.125000
G01 X20.952106 Y9.862924 Z-0.125000
G01 X21.058805 Y9.864758 Z-0.125000
G01 X21.161637 Y9.835129 Z-0.125000
G01 X21.174291 Y9.829182 Z-0.125000
G01 X21.187294 Y9.822301 Z-0.125000
G03 X21.203688 Y9.814242 Z-0.125000 I0.604541 J1.209137
G01 X21.220435 Y9.805195 Z-0.125000
G01 X21.173397 Y9.644840 Z-0.125000
G00 Z5.000000

(End cutting path id: path2551)


(Start cutting path id: path2549)
(Change tool to Default tool)

G00 Z5.000000
G00 X25.659083 Y9.781677

G01 Z-0.125000 F100.0(Penetrate)
G01 X25.691180 Y9.793123 Z-0.125000 F400.000000
G02 X25.724294 Y9.803058 Z-0.125000 I0.393918 J-1.252903
G01 X25.750140 Y9.809775 Z-0.125000
G02 X25.775608 Y9.814817 Z-0.125000 I0.261575 J-1.254206
G01 X25.972366 Y9.805367 Z-0.125000
G01 X26.145495 Y9.711120 Z-0.125000
G01 X26.248043 Y9.563566 Z-0.125000
G01 X26.266297 Y9.385064 Z-0.125000
G01 X26.261658 Y9.360185 Z-0.125000
G01 X26.254537 Y9.334819 Z-0.125000
G02 X26.239341 Y9.293015 Z-0.125000 I-1.362672 J0.471672
G02 X26.221397 Y9.250365 Z-0.125000 I-0.632814 J0.241143
G03 X26.210821 Y9.300042 Z-0.125000 I-1.342230 J-0.259781
G03 X26.197879 Y9.348717 Z-0.125000 I-0.777421 J-0.180662
G03 X26.185827 Y9.382337 Z-0.125000 I-0.755312 J-0.251771
G03 X26.172221 Y9.414997 Z-0.125000 I-0.587313 J-0.225511
G01 X26.100983 Y9.515160 Z-0.125000
G01 X25.999038 Y9.583905 Z-0.125000
G01 X25.881399 Y9.613724 Z-0.125000
G01 X25.761711 Y9.598871 Z-0.125000
G01 X25.743036 Y9.593209 Z-0.125000
G01 X25.725364 Y9.586043 Z-0.125000
G03 X25.702676 Y9.577360 Z-0.125000 I0.181758 J-0.508901
G01 X25.679394 Y9.566800 Z-0.125000
G01 X25.659083 Y9.781677 Z-0.125000
G00 Z5.000000

(End cutting path id: path2549)


(Start cutting path id: path2547)
(Change tool to Default tool)

G00 Z5.000000
G00 X24.074768 Y7.573043

G01 Z-0.125000 F100.0(Penetrate)
G01 X24.090487 Y7.578529 Z-0.125000 F400.000000
G01 X24.104701 Y7.583733 Z-0.125000
G01 X24.117190 Y7.588685 Z-0.125000
G03 X24.128220 Y7.593355 Z-0.125000 I-0.527323 J1.260853
G01 X24.154608 Y7.606664 Z-0.125000
G01 X24.179534 Y7.623288 Z-0.125000
G01 X24.199010 Y7.639417 Z-0.125000
G01 X24.214812 Y7.657497 Z-0.125000
G01 X24.222094 Y7.667184 Z-0.125000
G01 X24.228709 Y7.677809 Z-0.125000
G02 X24.239705 Y7.696519 Z-0.125000 I2.855582 J-1.665729
G01 X24.250090 Y7.716295 Z-0.125000
G03 X24.258040 Y7.700650 Z-0.125000 I1.208158 J0.604106
G01 X24.265057 Y7.685292 Z-0.125000
G02 X24.269727 Y7.674262 Z-0.125000 I-1.261915 J-0.540809
G01 X24.274678 Y7.661774 Z-0.125000
G01 X24.300679 Y7.486343 Z-0.125000
G01 X24.246883 Y7.317543 Z-0.125000
G01 X24.135047 Y7.206015 Z-0.125000
G01 X23.981762 Y7.165740 Z-0.125000
G01 X23.967351 Y7.166406 Z-0.125000
G02 X23.952897 Y7.167876 Z-0.125000 I0.074817 J0.807365
G02 X23.923575 Y7.173331 Z-0.125000 I0.130408 J0.782467
G02 X23.894100 Y7.179635 Z-0.125000 I0.381081 J1.853784
G01 X23.914972 Y7.190000 Z-0.125000
G03 X23.934724 Y7.201016 Z-0.125000 I-0.275040 J0.516362
G01 X23.942393 Y7.204820 Z-0.125000
G01 X23.950759 Y7.210638 Z-0.125000
G01 X24.004357 Y7.259867 Z-0.125000
G01 X24.044835 Y7.322887 Z-0.125000
G01 X24.071728 Y7.401540 Z-0.125000
G01 X24.080113 Y7.484311 Z-0.125000
G03 X24.079979 Y7.503537 Z-0.125000 I-1.380110 J0.000000
G01 X24.079042 Y7.522797 Z-0.125000
G03 X24.077299 Y7.547883 Z-0.125000 I-1.826748 J-0.114345
G03 X24.074765 Y7.573042 Z-0.125000 I-0.522165 J-0.039893
G00 Z5.000000

(End cutting path id: path2547)


(Start cutting path id: path2545)
(Change tool to Default tool)

G00 Z5.000000
G00 X12.901177 Y11.460067

G01 Z-0.125000 F100.0(Penetrate)
G03 X12.873719 Y11.492238 Z-0.125000 I-7.856577 J-6.677955 F400.000000
G03 X12.846656 Y11.523141 Z-0.125000 I-1.463047 J-1.253938
G01 X12.828249 Y11.541548 Z-0.125000
G01 X12.808170 Y11.558419 Z-0.125000
G01 X12.745650 Y11.598817 Z-0.125000
G01 X12.673471 Y11.623630 Z-0.125000
G01 X12.599366 Y11.630980 Z-0.125000
G01 X12.524875 Y11.620423 Z-0.125000
G03 X12.496435 Y11.611651 Z-0.125000 I0.140999 J-0.507624
G03 X12.469285 Y11.602249 Z-0.125000 I0.779432 J-2.294756
G03 X12.434286 Y11.588212 Z-0.125000 I0.197172 J-0.542248
G03 X12.398729 Y11.572317 Z-0.125000 I1.253135 J-2.850994
G02 X12.419945 Y11.602300 Z-0.125000 I0.960966 J-0.657506
G02 X12.441490 Y11.630045 Z-0.125000 I0.494604 J-0.361836
G01 X12.452562 Y11.643974 Z-0.125000
G02 X12.463940 Y11.655702 Z-0.125000 I0.393808 J-0.370702
G01 X12.515974 Y11.692970 Z-0.125000
G01 X12.575120 Y11.716637 Z-0.125000
G01 X12.656574 Y11.729471 Z-0.125000
G01 X12.738682 Y11.726258 Z-0.125000
G01 X12.806361 Y11.712026 Z-0.125000
G01 X12.871244 Y11.685634 Z-0.125000
G01 X12.928762 Y11.648280 Z-0.125000
G01 X12.979216 Y11.601181 Z-0.125000
G02 X12.985632 Y11.593162 Z-0.125000 I-32.916932 J-26.363697
G03 X12.992045 Y11.585145 Z-0.125000 I66.313273 J53.129296
G01 X13.005986 Y11.568720 Z-0.125000
G01 X13.017701 Y11.553074 Z-0.125000
G01 X12.901177 Y11.460067 Z-0.125000
G00 Z5.000000

(End cutting path id: path2545)


(Start cutting path id: path2543)
(Change tool to Default tool)

G00 Z5.000000
G00 X11.871692 Y9.628805

G01 Z-0.125000 F100.0(Penetrate)
G02 X11.874392 Y9.687731 Z-0.125000 I1.574594 J-0.042621 F400.000000
G02 X11.880245 Y9.745330 Z-0.125000 I0.786264 J-0.050794
G02 X11.886094 Y9.777799 Z-0.125000 I0.556012 J-0.083400
G01 X11.895211 Y9.809472 Z-0.125000
G01 X11.963486 Y9.929644 Z-0.125000
G01 X12.071603 Y10.015797 Z-0.125000
G01 X12.214331 Y10.061495 Z-0.125000
G01 X12.364519 Y10.055351 Z-0.125000
G01 X12.380819 Y10.051504 Z-0.125000
G01 X12.395522 Y10.047868 Z-0.125000
G03 X12.416053 Y10.041888 Z-0.125000 I0.206937 J0.672297
G01 X12.435076 Y10.036108 Z-0.125000
G01 X12.391245 Y9.867200 Z-0.125000
G03 X12.357390 Y9.876062 Z-0.125000 I-0.215826 J-0.755406
G03 X12.323896 Y9.883236 Z-0.125000 I-0.174310 J-0.732094
G01 X12.297556 Y9.888347 Z-0.125000
G03 X12.271513 Y9.891787 Z-0.125000 I-0.259162 J-1.861675
G01 X12.187749 Y9.892860 Z-0.125000
G01 X12.106881 Y9.874683 Z-0.125000
G01 X12.037322 Y9.841355 Z-0.125000
G01 X11.979666 Y9.792367 Z-0.125000
G01 X11.953783 Y9.762061 Z-0.125000
G03 X11.930489 Y9.730363 Z-0.125000 I0.676355 J-0.521455
G03 X11.899947 Y9.680456 Z-0.125000 I1.034090 J-0.667142
G03 X11.871692 Y9.628805 Z-0.125000 I1.024945 J-0.594225
G00 Z5.000000

(End cutting path id: path2543)


(Start cutting path id: path2541)
(Change tool to Default tool)

G00 Z5.000000
G00 X17.924588 Y9.556110

G01 Z-0.125000 F100.0(Penetrate)
G03 X17.883183 Y9.621636 Z-0.125000 I-0.758408 J-0.433379 F400.000000
G03 X17.835859 Y9.684395 Z-0.125000 I-0.844934 J-0.587923
G01 X17.814508 Y9.706583 Z-0.125000
G01 X17.788821 Y9.725018 Z-0.125000
G01 X17.751604 Y9.741497 Z-0.125000
G01 X17.711850 Y9.750675 Z-0.125000
G03 X17.618707 Y9.757351 Z-0.125000 I-0.115278 J-0.955160
G03 X17.525837 Y9.756020 Z-0.125000 I-0.028618 J-1.243555
G01 X17.495904 Y9.929204 Z-0.125000
G01 X17.518354 Y9.929740 Z-0.125000
G01 X17.540804 Y9.930275 Z-0.125000
G01 X17.573944 Y9.930275 Z-0.125000
G02 X17.644131 Y9.923750 Z-0.125000 I-0.011476 J-0.504192
G01 X17.712919 Y9.906756 Z-0.125000
G01 X17.775295 Y9.881518 Z-0.125000
G01 X17.831583 Y9.846890 Z-0.125000
G01 X17.882896 Y9.801813 Z-0.125000
G01 X17.922450 Y9.747469 Z-0.125000
G01 X17.941370 Y9.697236 Z-0.125000
G01 X17.945970 Y9.643773 Z-0.125000
G01 X17.945048 Y9.629532 Z-0.125000
G01 X17.941692 Y9.614908 Z-0.125000
G02 X17.934452 Y9.585852 Z-0.125000 I-0.574267 J0.127660
G01 X17.924587 Y9.556111 Z-0.125000
G00 Z5.000000

(End cutting path id: path2541)


(Start cutting path id: path2539)
(Change tool to Default tool)

G00 Z5.000000
G00 X14.073912 Y7.472554

G01 Z-0.125000 F100.0(Penetrate)
G02 X14.045254 Y7.479713 Z-0.125000 I0.122902 J0.552861 F400.000000
G02 X14.016184 Y7.488589 Z-0.125000 I0.160013 J0.576138
G01 X13.998982 Y7.494160 Z-0.125000
G02 X13.983043 Y7.500348 Z-0.125000 I0.296565 J0.787466
G01 X13.945456 Y7.524001 Z-0.125000
G01 X13.913556 Y7.554870 Z-0.125000
G01 X13.887109 Y7.594280 Z-0.125000
G01 X13.869725 Y7.637185 Z-0.125000
G01 X13.860168 Y7.680955 Z-0.125000
G01 X13.856897 Y7.726985 Z-0.125000
G01 X13.859524 Y7.770604 Z-0.125000
G01 X13.868657 Y7.813577 Z-0.125000
G01 X13.875803 Y7.839006 Z-0.125000
G01 X13.884692 Y7.864891 Z-0.125000
G02 X13.896134 Y7.898116 Z-0.125000 I1.683156 J-0.561052
G02 X13.908211 Y7.930102 Z-0.125000 I0.826995 J-0.293988
G01 X14.078188 Y7.850993 Z-0.125000
G03 X14.047513 Y7.814809 Z-0.125000 I0.507015 J-0.460917
G03 X14.019391 Y7.777229 Z-0.125000 I0.704626 J-0.556599
G01 X14.004898 Y7.752496 Z-0.125000
G01 X13.992665 Y7.725916 Z-0.125000
G01 X13.984005 Y7.695996 Z-0.125000
G01 X13.980905 Y7.663911 Z-0.125000
G01 X13.984989 Y7.632370 Z-0.125000
G01 X13.993734 Y7.602977 Z-0.125000
G01 X14.008175 Y7.572287 Z-0.125000
G01 X14.025805 Y7.543110 Z-0.125000
G03 X14.051562 Y7.505362 Z-0.125000 I0.917286 J0.598240
G02 X14.073912 Y7.472554 Z-0.125000 I-0.746964 J-0.532860
G00 Z5.000000

(End cutting path id: path2539)


(Start cutting path id: path2537)
(Change tool to Default tool)

G00 Z5.000000
G00 X14.334757 Y7.977140

G01 Z-0.125000 F100.0(Penetrate)
G02 X14.275291 Y7.971388 Z-0.125000 I-0.105544 J0.780993 F400.000000
G02 X14.216094 Y7.969656 Z-0.125000 I-0.059197 J1.010734
G02 X14.176194 Y7.972317 Z-0.125000 I0.030165 J0.752969
G01 X14.135916 Y7.978209 Z-0.125000
G01 X14.100465 Y7.989544 Z-0.125000
G01 X14.068567 Y8.007073 Z-0.125000
G01 X14.036914 Y8.032422 Z-0.125000
G01 X14.009770 Y8.063732 Z-0.125000
G01 X13.990313 Y8.095859 Z-0.125000
G01 X13.976629 Y8.130012 Z-0.125000
G01 X13.968017 Y8.164929 Z-0.125000
G01 X13.965939 Y8.200569 Z-0.125000
G01 X13.970146 Y8.244983 Z-0.125000
G01 X13.979836 Y8.287161 Z-0.125000
G01 X13.992459 Y8.319773 Z-0.125000
G01 X14.010839 Y8.350234 Z-0.125000
G02 X14.023863 Y8.366381 Z-0.125000 I2.016871 J-1.613441
G01 X14.036495 Y8.381237 Z-0.125000
G02 X14.107209 Y8.460231 Z-0.125000 I4.690424 J-4.127582
G02 X14.178677 Y8.538385 Z-0.125000 I18.468901 J-16.817250
G03 X14.225227 Y8.591064 Z-0.125000 I-0.870699 J0.816298
G03 X14.269546 Y8.646358 Z-0.125000 I-1.464865 J1.219515
G01 X14.291550 Y8.677805 Z-0.125000
G03 X14.310169 Y8.710500 Z-0.125000 I-0.455691 J0.281150
G01 X14.822239 Y9.686532 Z-0.125000
G01 X13.108570 Y9.675842 Z-0.125000
G01 X13.099727 Y9.650236 Z-0.125000
G01 X13.089327 Y9.625598 Z-0.125000
G01 X13.083754 Y9.613273 Z-0.125000
G01 X13.077568 Y9.602078 Z-0.125000
G01 X13.026818 Y9.544277 Z-0.125000
G01 X12.959974 Y9.506934 Z-0.125000
G01 X12.876515 Y9.490652 Z-0.125000
G01 X12.791066 Y9.499450 Z-0.125000
G01 X12.703524 Y9.539444 Z-0.125000
G01 X12.633917 Y9.605285 Z-0.125000
G01 X12.589549 Y9.690227 Z-0.125000
G01 X12.575120 Y9.784884 Z-0.125000
G01 X12.583348 Y9.849723 Z-0.125000
G01 X12.605053 Y9.909962 Z-0.125000
G01 X12.631737 Y9.951499 Z-0.125000
G01 X12.670264 Y9.984794 Z-0.125000
G01 X12.710672 Y10.005570 Z-0.125000
G01 X12.754719 Y10.020073 Z-0.125000
G02 X12.826170 Y10.030545 Z-0.125000 I0.128749 J-0.629420
G02 X12.896900 Y10.032901 Z-0.125000 I0.056373 J-0.629567
G01 X14.681126 Y9.991208 Z-0.125000
G03 X14.720137 Y9.991336 Z-0.125000 I-0.000000 J5.931867
G03 X14.759165 Y9.992279 Z-0.125000 I-0.007309 J1.111370
G01 X14.776201 Y9.993100 Z-0.125000
G01 X14.793375 Y9.995486 Z-0.125000
G01 X14.805558 Y9.998290 Z-0.125000
G01 X14.817963 Y10.001900 Z-0.125000
G01 X14.846266 Y10.010767 Z-0.125000
G03 X14.873553 Y10.021143 Z-0.125000 I-0.176958 J0.506398
G01 X14.869485 Y10.041509 Z-0.125000
G01 X14.863932 Y10.060697 Z-0.125000
G01 X14.861081 Y10.067050 Z-0.125000
G01 X14.857518 Y10.072457 Z-0.125000
G01 X14.850905 Y10.080108 Z-0.125000
G01 X14.842551 Y10.086354 Z-0.125000
G01 X14.807589 Y10.109131 Z-0.125000
G03 X14.771994 Y10.130185 Z-0.125000 I-24.213594 J-40.896214
G01 X13.252890 Y10.971519 Z-0.125000
G02 X13.233099 Y10.952633 Z-0.125000 I-0.412584 J0.412568
G01 X13.211197 Y10.934102 Z-0.125000
G01 X13.196121 Y10.922190 Z-0.125000
G01 X13.179126 Y10.911652 Z-0.125000
G01 X13.095226 Y10.882570 Z-0.125000
G01 X13.008080 Y10.889202 Z-0.125000
G01 X12.935503 Y10.928176 Z-0.125000
G01 X12.886210 Y10.995037 Z-0.125000
G01 X12.860951 Y11.132941 Z-0.125000
G01 X12.908659 Y11.265504 Z-0.125000
G01 X13.015915 Y11.364386 Z-0.125000
G01 X13.157746 Y11.400203 Z-0.125000
G01 X13.215314 Y11.396056 Z-0.125000
G01 X13.271064 Y11.383098 Z-0.125000
G02 X13.342493 Y11.354652 Z-0.125000 I-0.212507 J-0.637516
G02 X13.411108 Y11.317887 Z-0.125000 I-0.295550 J-0.633980
G01 X15.021080 Y10.320474 Z-0.125000
G01 X16.418314 Y13.019797 Z-0.125000
G01 X16.947487 Y13.378993 Z-0.125000
G01 X16.994525 Y12.754674 Z-0.125000
G01 X15.376001 Y10.054283 Z-0.125000
G01 X15.391070 Y10.039999 Z-0.125000
G01 X15.407003 Y10.026489 Z-0.125000
G01 X15.429452 Y10.010453 Z-0.125000
G01 X15.456710 Y9.995074 Z-0.125000
G01 X15.485043 Y9.984796 Z-0.125000
G01 X15.518693 Y9.978557 Z-0.125000
G01 X15.553461 Y9.976243 Z-0.125000
G01 X17.144190 Y9.991210 Z-0.125000
G01 X17.194024 Y9.986484 Z-0.125000
G01 X17.242542 Y9.971967 Z-0.125000
G01 X17.282209 Y9.950350 Z-0.125000
G01 X17.316306 Y9.920654 Z-0.125000
G01 X17.345539 Y9.879134 Z-0.125000
G01 X17.364413 Y9.831923 Z-0.125000
G01 X17.373253 Y9.773086 Z-0.125000
G01 X17.370827 Y9.713260 Z-0.125000
G01 X17.351008 Y9.646749 Z-0.125000
G01 X17.314168 Y9.587113 Z-0.125000
G01 X17.263507 Y9.539204 Z-0.125000
G01 X17.202988 Y9.508004 Z-0.125000
G01 X17.135013 Y9.492557 Z-0.125000
G01 X17.067220 Y9.494107 Z-0.125000
G01 X17.016612 Y9.511013 Z-0.125000
G01 X16.974214 Y9.543283 Z-0.125000
G01 X16.966896 Y9.551922 Z-0.125000
G01 X16.960316 Y9.561456 Z-0.125000
G01 X16.947172 Y9.584989 Z-0.125000
G02 X16.934659 Y9.609563 Z-0.125000 I1.667888 J0.864750
G03 X16.911653 Y9.631659 Z-0.125000 I-0.558384 J-0.558366
G03 X16.886553 Y9.653394 Z-0.125000 I-0.359094 J-0.389333
G01 X16.876724 Y9.660632 Z-0.125000
G01 X16.866240 Y9.666222 Z-0.125000
G01 X16.844900 Y9.674142 Z-0.125000
G01 X16.821341 Y9.679051 Z-0.125000
G03 X16.762989 Y9.684417 Z-0.125000 I-0.170525 J-1.534183
G03 X16.704816 Y9.686534 Z-0.125000 I-0.058173 J-0.798408
G01 X15.085222 Y9.694017 Z-0.125000
G01 X14.422418 Y8.435759 Z-0.125000
G01 X14.442043 Y8.414257 Z-0.125000
G03 X14.460904 Y8.391928 Z-0.125000 I1.553627 J1.293208
G01 X14.469475 Y8.380528 Z-0.125000
G01 X14.476939 Y8.369479 Z-0.125000
G01 X14.503486 Y8.311824 Z-0.125000
G01 X14.515425 Y8.250815 Z-0.125000
G01 X14.513002 Y8.186068 Z-0.125000
G01 X14.495113 Y8.123600 Z-0.125000
G01 X14.470341 Y8.075642 Z-0.125000
G01 X14.438454 Y8.032731 Z-0.125000
G01 X14.406601 Y8.005554 Z-0.125000
G01 X14.370035 Y7.985694 Z-0.125000
G01 X14.366294 Y7.984624 Z-0.125000
G01 X14.362552 Y7.983558 Z-0.125000
G01 X14.334757 Y7.977144 Z-0.125000
G00 Z5.000000

(End cutting path id: path2537)


(Start cutting path id: path2535)
(Change tool to Default tool)

G00 Z5.000000
G00 X23.550939 Y8.136426

G01 Z-0.125000 F100.0(Penetrate)
G01 X23.012143 Y9.508003 Z-0.125000 F400.000000
G01 X21.881101 Y9.556110 Z-0.125000
G01 X21.873401 Y9.528704 Z-0.125000
G03 X21.865065 Y9.502657 Z-0.125000 I1.895949 J-0.621149
G02 X21.860176 Y9.489977 Z-0.125000 I-0.689794 J0.258678
G01 X21.854374 Y9.477001 Z-0.125000
G01 X21.824934 Y9.434035 Z-0.125000
G01 X21.785956 Y9.400030 Z-0.125000
G01 X21.726932 Y9.368230 Z-0.125000
G01 X21.663017 Y9.347647 Z-0.125000
G01 X21.594518 Y9.340259 Z-0.125000
G01 X21.526180 Y9.346577 Z-0.125000
G01 X21.470425 Y9.364279 Z-0.125000
G01 X21.421414 Y9.394683 Z-0.125000
G01 X21.381779 Y9.433950 Z-0.125000
G01 X21.352996 Y9.483413 Z-0.125000
G01 X21.335433 Y9.545223 Z-0.125000
G01 X21.331615 Y9.609560 Z-0.125000
G01 X21.341346 Y9.674019 Z-0.125000
G01 X21.364755 Y9.735707 Z-0.125000
G01 X21.393994 Y9.777257 Z-0.125000
G01 X21.434243 Y9.810539 Z-0.125000
G01 X21.474960 Y9.831393 Z-0.125000
G01 X21.517628 Y9.844749 Z-0.125000
G02 X21.591900 Y9.858463 Z-0.125000 I0.168586 J-0.705014
G02 X21.668362 Y9.865060 Z-0.125000 I0.112446 J-0.856908
G01 X22.559940 Y9.900338 Z-0.125000
G01 X21.501592 Y12.160286 Z-0.125000
G01 X21.649119 Y12.833780 Z-0.125000
G01 X22.011523 Y12.559037 Z-0.125000
G01 X23.081631 Y9.904615 Z-0.125000
G01 X23.311475 Y9.906751 Z-0.125000
G01 X24.583630 Y10.864609 Z-0.125000
G02 X24.641861 Y10.904948 Z-0.125000 I0.422369 J-0.547511
G02 X24.703363 Y10.940511 Z-0.125000 I0.616913 J-0.995916
G02 X24.769051 Y10.971886 Z-0.125000 I0.447118 J-0.851639
G02 X24.835923 Y10.998239 Z-0.125000 I0.440368 J-1.019459
G02 X24.915787 Y11.018107 Z-0.125000 I0.178075 J-0.545345
G02 X24.998417 Y11.026034 Z-0.125000 I0.093086 J-0.535720
G01 X25.052048 Y11.020625 Z-0.125000
G01 X25.102114 Y11.002515 Z-0.125000
G01 X25.139599 Y10.976328 Z-0.125000
G01 X25.167325 Y10.942649 Z-0.125000
G01 X25.197686 Y10.878927 Z-0.125000
G01 X25.217570 Y10.811157 Z-0.125000
G01 X25.221759 Y10.754248 Z-0.125000
G01 X25.212225 Y10.696770 Z-0.125000
G01 X25.191022 Y10.644994 Z-0.125000
G01 X25.157704 Y10.599488 Z-0.125000
G01 X25.105132 Y10.557042 Z-0.125000
G01 X25.044386 Y10.531069 Z-0.125000
G01 X24.981409 Y10.523836 Z-0.125000
G01 X24.919308 Y10.535347 Z-0.125000
G01 X24.904797 Y10.540905 Z-0.125000
G01 X24.891513 Y10.547106 Z-0.125000
G01 X24.870784 Y10.555924 Z-0.125000
G01 X24.850890 Y10.566349 Z-0.125000
G01 X23.593701 Y9.865060 Z-0.125000
G01 X25.025143 Y9.860782 Z-0.125000
G02 X25.111142 Y9.859171 Z-0.125000 I-0.000000 J-2.296035
G02 X25.197258 Y9.854368 Z-0.125000 I-0.088509 J-2.361387
G01 X25.239769 Y9.850501 Z-0.125000
G02 X25.282781 Y9.842608 Z-0.125000 I-0.084616 J-0.582227
G01 X25.383805 Y9.802466 Z-0.125000
G01 X25.463449 Y9.729290 Z-0.125000
G01 X25.510858 Y9.637847 Z-0.125000
G01 X25.521177 Y9.534725 Z-0.125000
G01 X25.508930 Y9.477935 Z-0.125000
G01 X25.482691 Y9.424614 Z-0.125000
G01 X25.445333 Y9.380961 Z-0.125000
G01 X25.398237 Y9.347643 Z-0.125000
G01 X25.345120 Y9.324545 Z-0.125000
G01 X25.290264 Y9.311296 Z-0.125000
G01 X25.227726 Y9.306513 Z-0.125000
G01 X25.165187 Y9.311296 Z-0.125000
G01 X25.116498 Y9.321785 Z-0.125000
G01 X25.067905 Y9.338022 Z-0.125000
G01 X25.031507 Y9.355286 Z-0.125000
G01 X24.997348 Y9.377576 Z-0.125000
G01 X24.986210 Y9.386283 Z-0.125000
G01 X24.975967 Y9.395750 Z-0.125000
G02 X24.955588 Y9.415194 Z-0.125000 I0.579053 J0.627315
G02 X24.936413 Y9.434236 Z-0.125000 I2.707431 J2.745544
G01 X23.313613 Y9.503723 Z-0.125000
G01 X24.033075 Y8.139630 Z-0.125000
G02 X24.076226 Y8.026633 Z-0.125000 I-0.460705 J-0.240670
G02 X24.091873 Y7.907649 Z-0.125000 I-0.496519 J-0.125814
G01 X24.079402 Y7.820890 Z-0.125000
G01 X24.039489 Y7.743016 Z-0.125000
G01 X23.985339 Y7.692456 Z-0.125000
G01 X23.917619 Y7.663908 Z-0.125000
G01 X23.812953 Y7.651687 Z-0.125000
G01 X23.708087 Y7.666044 Z-0.125000
G01 X23.614197 Y7.706808 Z-0.125000
G01 X23.538110 Y7.775086 Z-0.125000
G01 X23.495590 Y7.853434 Z-0.125000
G01 X23.485727 Y7.940787 Z-0.125000
G01 X23.490290 Y7.978593 Z-0.125000
G01 X23.499625 Y8.015620 Z-0.125000
G02 X23.522935 Y8.077375 Z-0.125000 I0.799565 J-0.266518
G02 X23.550939 Y8.136421 Z-0.125000 I0.703819 J-0.297641
G00 Z5.000000

(End cutting path id: path2535)


(Start cutting path id: path2533)
(Change tool to Default tool)

G00 Z5.000000
G00 X17.229713 Y12.103628

G01 Z-0.125000 F100.0(Penetrate)
G01 X17.211540 Y12.120734 Z-0.125000 F400.000000
G01 X17.073635 Y13.683668 Z-0.125000
G01 X15.870966 Y12.886165 Z-0.125000
G02 X15.908015 Y12.955297 Z-0.125000 I42.738104 J-22.859651
G02 X15.944730 Y13.023002 Z-0.125000 I8.242167 J-4.425719
G03 X15.951144 Y13.034227 Z-0.125000 I-44.937739 J25.701493
G02 X15.957558 Y13.045451 Z-0.125000 I86.217227 J-49.306029
G01 X16.250475 Y13.536140 Z-0.125000
G01 X16.531631 Y14.040727 Z-0.125000
G02 X16.551437 Y14.076365 Z-0.125000 I2.266521 J-1.236323
G02 X16.572255 Y14.112352 Z-0.125000 I1.949508 J-1.103699
G01 X16.853412 Y14.591281 Z-0.125000
G01 X17.205126 Y15.189943 Z-0.125000
G01 X17.546150 Y15.733015 Z-0.125000
G01 X17.671227 Y15.932925 Z-0.125000
G02 X17.698288 Y15.905207 Z-0.125000 I-1.142863 J-1.142863
G02 X17.725747 Y15.876266 Z-0.125000 I-6.278370 J-5.984403
G01 X17.732365 Y15.868713 Z-0.125000
G01 X17.738577 Y15.862369 Z-0.125000
G02 X17.793582 Y15.788258 Z-0.125000 I-3.081404 J-2.344512
G02 X17.845480 Y15.711634 Z-0.125000 I-1.199792 J-0.868512
G02 X17.906300 Y15.613066 Z-0.125000 I-3.051037 J-1.950660
G02 X17.964144 Y15.511724 Z-0.125000 I-2.752956 J-1.638484
G02 X18.069186 Y15.315936 Z-0.125000 I-28.192564 J-15.251708
G02 X18.172606 Y15.119386 Z-0.125000 I-21.343091 J-11.355727
G02 X18.192056 Y15.081685 Z-0.125000 I-0.483953 J-0.273538
G02 X18.208953 Y15.043485 Z-0.125000 I-0.873042 J-0.409006
G01 X18.218401 Y15.016758 Z-0.125000
G01 X18.223920 Y14.987894 Z-0.125000
G01 X18.223840 Y14.968364 Z-0.125000
G01 X18.219642 Y14.948340 Z-0.125000
G01 X18.205983 Y14.920464 Z-0.125000
G01 X18.187571 Y14.895958 Z-0.125000
G01 X18.161150 Y14.871156 Z-0.125000
G01 X18.130912 Y14.852127 Z-0.125000
G01 X17.999420 Y14.805090 Z-0.125000
G01 X17.959866 Y14.914131 Z-0.125000
G01 X17.943292 Y14.937700 Z-0.125000
G01 X17.918173 Y14.948340 Z-0.125000
G01 X17.884435 Y14.945079 Z-0.125000
G01 X17.856169 Y14.928029 Z-0.125000
G01 X17.836088 Y14.900886 Z-0.125000
G01 X17.825167 Y14.870301 Z-0.125000
G01 X17.820542 Y14.819066 Z-0.125000
G01 X17.826237 Y14.767673 Z-0.125000
G02 X17.841426 Y14.672588 Z-0.125000 I-1.116724 J-0.227143
G02 X17.848688 Y14.575246 Z-0.125000 I-1.163268 J-0.135716
G01 X17.845461 Y14.559672 Z-0.125000
G01 X17.834790 Y14.547451 Z-0.125000
G01 X17.737508 Y14.484378 Z-0.125000
G01 X17.712920 Y14.325091 Z-0.125000
G01 X17.706563 Y14.306434 Z-0.125000
G01 X17.695815 Y14.287674 Z-0.125000
G01 X17.671223 Y14.252257 Z-0.125000
G02 X17.643433 Y14.219256 Z-0.125000 I-0.515278 J0.405732
G01 X17.627159 Y14.247381 Z-0.125000
G02 X17.613499 Y14.275915 Z-0.125000 I0.497923 J0.255913
G01 X17.609434 Y14.287349 Z-0.125000
G01 X17.607085 Y14.298365 Z-0.125000
G01 X17.597463 Y14.386026 Z-0.125000
G01 X17.593472 Y14.401738 Z-0.125000
G01 X17.584635 Y14.414890 Z-0.125000
G01 X17.565236 Y14.433676 Z-0.125000
G01 X17.544012 Y14.448030 Z-0.125000
G01 X17.524467 Y14.455223 Z-0.125000
G01 X17.504457 Y14.457652 Z-0.125000
G01 X17.487378 Y14.454570 Z-0.125000
G01 X17.473455 Y14.446961 Z-0.125000
G01 X17.459184 Y14.434585 Z-0.125000
G01 X17.448867 Y14.419167 Z-0.125000
G01 X17.441454 Y14.402225 Z-0.125000
G01 X17.438176 Y14.384957 Z-0.125000
G01 X17.437110 Y14.348076 Z-0.125000
G03 X17.439247 Y14.311193 Z-0.125000 I0.636888 J0.018394
G03 X17.447160 Y14.254996 Z-0.125000 I1.082005 J0.123704
G03 X17.457421 Y14.200013 Z-0.125000 I1.487265 J0.249103
G02 X17.473375 Y14.107225 Z-0.125000 I-0.850886 J-0.194061
G02 X17.478802 Y14.014000 Z-0.125000 I-0.797952 J-0.093224
G01 X17.474925 Y13.946817 Z-0.125000
G01 X17.460628 Y13.881440 Z-0.125000
G01 X17.375105 Y13.589592 Z-0.125000
G01 X17.373826 Y13.582109 Z-0.125000
G01 X17.374035 Y13.574626 Z-0.125000
G03 X17.378575 Y13.528738 Z-0.125000 I0.771295 J0.053150
G03 X17.384725 Y13.482688 Z-0.125000 I5.349136 J0.690923
G02 X17.404161 Y13.498752 Z-0.125000 I1.980358 J-2.376393
G02 X17.423210 Y13.513691 Z-0.125000 I0.356332 J-0.434749
G01 X17.426441 Y13.516497 Z-0.125000
G01 X17.428555 Y13.519036 Z-0.125000
G01 X17.680848 Y13.918856 Z-0.125000
G01 X17.890380 Y14.248120 Z-0.125000
G02 X18.000205 Y14.415406 Z-0.125000 I6.501090 J-4.148319
G02 X18.114878 Y14.579522 Z-0.125000 I5.196716 J-3.509004
G02 X18.157351 Y14.633327 Z-0.125000 I0.581384 J-0.415278
G02 X18.204677 Y14.683219 Z-0.125000 I0.606489 J-0.527904
G01 X18.212266 Y14.691132 Z-0.125000
G01 X18.220713 Y14.698185 Z-0.125000
G02 X18.260990 Y14.727051 Z-0.125000 I6.607855 J-9.177334
G02 X18.300891 Y14.754845 Z-0.125000 I1.256253 J-1.760971
G03 X18.326880 Y14.716331 Z-0.125000 I3.449635 J2.299801
G02 X18.352205 Y14.676804 Z-0.125000 I-0.659315 J-0.450305
G01 X18.390690 Y14.614801 Z-0.125000
G02 X18.414135 Y14.568459 Z-0.125000 I-0.444213 J-0.253843
G02 X18.433452 Y14.520725 Z-0.125000 I-0.711603 J-0.315742
G02 X18.446023 Y14.475590 Z-0.125000 I-0.566760 J-0.182166
G01 X18.453763 Y14.429857 Z-0.125000
G01 X18.455897 Y14.399389 Z-0.125000
G01 X18.454834 Y14.368922 Z-0.125000
G01 X18.450559 Y14.341783 Z-0.125000
G01 X18.443075 Y14.315469 Z-0.125000
G01 X18.432139 Y14.283791 Z-0.125000
G02 X18.418487 Y14.251327 Z-0.125000 I-0.662292 J0.259419
G01 X18.402908 Y14.221187 Z-0.125000
G02 X18.385346 Y14.190392 Z-0.125000 I-2.370943 J1.331659
G01 X18.168331 Y13.835471 Z-0.125000
G03 X18.138430 Y13.785584 Z-0.125000 I2.511284 J-1.539156
G03 X18.109534 Y13.736051 Z-0.125000 I12.250172 J-7.179250
G03 X17.981858 Y13.511209 Z-0.125000 I41.567458 J-23.752814
G03 X17.856172 Y13.287055 Z-0.125000 I41.190039 J-23.242954
G03 X17.710859 Y13.028005 Z-0.125000 I39.901890 J-22.553178
G03 X17.567532 Y12.769639 Z-0.125000 I86.527934 J-48.169777
G03 X17.550101 Y12.738652 Z-0.125000 I1.240592 J-0.718251
G03 X17.533322 Y12.706567 Z-0.125000 I0.874532 J-0.477761
G03 X17.487402 Y12.619809 Z-0.125000 I7.181768 J-3.856818
G03 X17.442454 Y12.533382 Z-0.125000 I35.479621 J-18.506652
G02 X17.371418 Y12.391043 Z-0.125000 I-18.980760 J9.383684
G03 X17.301341 Y12.249018 Z-0.125000 I8.528899 J-4.296545
G01 X17.229715 Y12.103628 Z-0.125000
G00 Z5.000000

(End cutting path id: path2533)


(Start cutting path id: path2531)
(Change tool to Default tool)

G00 Z5.000000
G00 X8.662439 Y24.215836

G01 Z-0.125000 F100.0(Penetrate)
G03 X8.720347 Y24.190260 Z-0.125000 I5.510019 J12.397228 F400.000000
G02 X8.780033 Y24.163453 Z-0.125000 I-1.535416 J-3.498494
G02 X8.793055 Y24.156875 Z-0.125000 I-0.821328 J-1.641999
G01 X8.804621 Y24.150624 Z-0.125000
G01 X9.152058 Y23.973164 Z-0.125000
G01 X9.546533 Y23.791427 Z-0.125000
G03 X9.702241 Y23.711300 Z-0.125000 I59.297623 J115.037984
G03 X9.857623 Y23.632141 Z-0.125000 I11.672062 J22.719347
G01 X9.863620 Y23.629028 Z-0.125000
G01 X9.869383 Y23.626795 Z-0.125000
G01 X9.905988 Y23.610073 Z-0.125000
G01 X9.939940 Y23.589379 Z-0.125000
G01 X9.964285 Y23.570007 Z-0.125000
G01 X9.984839 Y23.548756 Z-0.125000
G01 X9.997529 Y23.527349 Z-0.125000
G01 X10.004082 Y23.504925 Z-0.125000
G01 X10.001855 Y23.489367 Z-0.125000
G01 X9.994461 Y23.478199 Z-0.125000
G01 X9.988964 Y23.473579 Z-0.125000
G01 X9.982701 Y23.470716 Z-0.125000
G01 X9.970912 Y23.469224 Z-0.125000
G01 X9.959182 Y23.468579 Z-0.125000
G01 X9.923861 Y23.471803 Z-0.125000
G01 X9.889695 Y23.478201 Z-0.125000
G01 X9.853184 Y23.488396 Z-0.125000
G01 X9.817000 Y23.502788 Z-0.125000
G02 X9.721948 Y23.547647 Z-0.125000 I1.192577 J2.650118
G02 X9.628849 Y23.594726 Z-0.125000 I2.524594 J5.108008
G02 X9.524071 Y23.651484 Z-0.125000 I1.315018 J2.552655
G02 X9.422525 Y23.710182 Z-0.125000 I4.195544 J7.375456
G02 X9.316741 Y23.775257 Z-0.125000 I4.855243 J8.011067
G02 X9.212994 Y23.841674 Z-0.125000 I2.882688 J4.617153
G02 X9.073954 Y23.932582 Z-0.125000 I6.292286 J9.775559
G02 X8.938251 Y24.024480 Z-0.125000 I5.008660 J7.542321
G03 X8.891562 Y24.056545 Z-0.125000 I-8.259962 J-11.976888
G03 X8.845244 Y24.087553 Z-0.125000 I-1.585554 J-2.318302
G01 X8.662439 Y24.215837 Z-0.125000
G00 Z5.000000

(End cutting path id: path2531)


(Start cutting path id: path2529)
(Change tool to Default tool)

G00 Z5.000000
G00 X6.920975 Y20.451751

G01 Z-0.125000 F100.0(Penetrate)
G01 X7.164716 Y20.492375 Z-0.125000 F400.000000
G01 X8.244445 Y20.686940 Z-0.125000
G01 X9.647023 Y20.939232 Z-0.125000
G01 X9.788137 Y20.967028 Z-0.125000
G03 X9.793558 Y20.936296 Z-0.125000 I0.855212 J0.135029
G02 X9.798827 Y20.907161 Z-0.125000 I-1.057779 J-0.206332
G02 X9.803033 Y20.883330 Z-0.125000 I-0.522961 J-0.104589
G02 X9.806310 Y20.861193 Z-0.125000 I-2.184378 J-0.334628
G02 X9.811931 Y20.785291 Z-0.125000 I-0.509635 J-0.075902
G02 X9.806310 Y20.709389 Z-0.125000 I-0.515256 J0.000000
G01 X9.791039 Y20.641449 Z-0.125000
G01 X9.764617 Y20.577898 Z-0.125000
G01 X9.752798 Y20.556242 Z-0.125000
G01 X9.737891 Y20.537274 Z-0.125000
G01 X9.726561 Y20.525438 Z-0.125000
G01 X9.712234 Y20.514824 Z-0.125000
G01 X9.690868 Y20.504651 Z-0.125000
G01 X9.667335 Y20.496651 Z-0.125000
G02 X9.620820 Y20.487061 Z-0.125000 I-0.166163 J0.688394
G02 X9.573259 Y20.480615 Z-0.125000 I-0.115694 J0.674914
G01 X8.690233 Y20.389747 Z-0.125000
G02 X8.531642 Y20.375208 Z-0.125000 I-0.865319 J8.566728
G02 X8.371660 Y20.363021 Z-0.125000 I-1.072338 J13.020589
G02 X8.079723 Y20.345953 Z-0.125000 I-1.292847 J19.607908
G02 X7.784758 Y20.332019 Z-0.125000 I-2.003832 J39.289422
G01 X7.555983 Y20.321328 Z-0.125000
G03 X7.577414 Y20.299221 Z-0.125000 I0.525535 J0.488009
G01 X7.600883 Y20.277498 Z-0.125000
G01 X7.610700 Y20.269699 Z-0.125000
G01 X7.621195 Y20.263600 Z-0.125000
G01 X7.649376 Y20.249941 Z-0.125000
G01 X7.678923 Y20.241150 Z-0.125000
G03 X7.727267 Y20.233338 Z-0.125000 I0.129169 J0.645865
G03 X7.778344 Y20.229391 Z-0.125000 I0.068519 J0.554154
G03 X7.972935 Y20.225110 Z-0.125000 I0.290816 J8.794020
G03 X8.167474 Y20.224046 Z-0.125000 I0.194539 J17.787533
G03 X8.434174 Y20.228185 Z-0.125000 I-0.461380 J38.324624
G03 X8.700924 Y20.234736 Z-0.125000 I-0.456029 J24.001829
G03 X9.002851 Y20.247558 Z-0.125000 I-1.076099 J28.901004
G03 X9.304931 Y20.263600 Z-0.125000 I-1.337284 J28.034071
G03 X9.470198 Y20.275510 Z-0.125000 I-0.350352 J6.014061
G03 X9.634195 Y20.291395 Z-0.125000 I-0.649027 J7.555104
G01 X9.653437 Y20.293534 Z-0.125000
G01 X9.672680 Y20.295673 Z-0.125000
G02 X9.749395 Y20.306841 Z-0.125000 I22.496762 J-154.264774
G02 X9.827691 Y20.318123 Z-0.125000 I4.706432 J-32.385657
G01 X9.843726 Y20.270016 Z-0.125000
G03 X9.850141 Y20.251307 Z-0.125000 I1.107499 J0.369293
G02 X9.856555 Y20.232599 Z-0.125000 I-1.094400 J-0.385646
G03 X9.889436 Y20.155745 Z-0.125000 I0.751511 J0.276069
G03 X9.930318 Y20.082935 Z-0.125000 I0.680384 J0.334140
G03 X9.972055 Y20.025518 Z-0.125000 I0.560547 J0.363590
G03 X10.020118 Y19.973892 Z-0.125000 I0.403223 J0.327209
G01 X10.045775 Y19.951442 Z-0.125000
G02 X10.071502 Y19.930242 Z-0.125000 I-1.518012 J-1.868372
G01 X10.098157 Y19.909750 Z-0.125000
G03 X10.036046 Y19.890610 Z-0.125000 I22.562184 J-73.328817
G02 X9.974149 Y19.872333 Z-0.125000 I-0.779099 J2.524520
G02 X9.943808 Y19.863456 Z-0.125000 I-0.224259 J0.710177
G02 X9.912145 Y19.855229 Z-0.125000 I-0.462238 J1.713992
G02 X9.646703 Y19.790510 Z-0.125000 I-1.075535 J3.834549
G02 X9.375487 Y19.744049 Z-0.125000 I-0.795616 J3.829582
G02 X9.078642 Y19.711291 Z-0.125000 I-0.685872 J4.853921
G02 X8.780033 Y19.697012 Z-0.125000 I-0.374766 J4.707538
G02 X8.504185 Y19.700895 Z-0.125000 I-0.085942 J3.694196
G02 X8.230547 Y19.724806 Z-0.125000 I0.197500 J3.837896
G02 X7.973746 Y19.765520 Z-0.125000 I0.383298 J3.247911
G02 X7.722753 Y19.825296 Z-0.125000 I0.686064 J3.437504
G02 X7.495707 Y19.905853 Z-0.125000 I0.446637 J1.619068
G02 X7.282310 Y20.017723 Z-0.125000 I0.689739 J1.575179
G02 X7.141447 Y20.124951 Z-0.125000 I0.476004 J0.771451
G02 X7.023603 Y20.258256 Z-0.125000 I0.616049 J0.663341
G01 X7.007224 Y20.282013 Z-0.125000
G02 X6.992601 Y20.306363 Z-0.125000 I29.916454 J17.982997
G02 X6.955991 Y20.378646 Z-0.125000 I9.769267 J4.993245
G02 X6.920975 Y20.451752 Z-0.125000 I1.966162 J0.986695
G00 Z5.000000

(End cutting path id: path2529)


(Start cutting path id: path2527)
(Change tool to Default tool)

G00 Z5.000000
G00 X10.070363 Y22.912678

G01 Z-0.125000 F100.0(Penetrate)
G02 X9.887197 Y22.973786 Z-0.125000 I2.755292 J8.563821 F400.000000
G02 X9.705820 Y23.038824 Z-0.125000 I2.722701 J7.878398
G02 X9.616838 Y23.073160 Z-0.125000 I0.635592 J1.779642
G02 X9.529429 Y23.111519 Z-0.125000 I0.913281 J2.199851
G02 X9.300723 Y23.229919 Z-0.125000 I1.131800 J2.466320
G02 X9.083640 Y23.370226 Z-0.125000 I1.333273 J2.300922
G02 X8.880166 Y23.532174 Z-0.125000 I1.569206 J2.180367
G02 X8.693440 Y23.713387 Z-0.125000 I1.726467 J1.965800
G02 X8.552357 Y23.869134 Z-0.125000 I3.414585 J3.234863
G02 X8.416559 Y24.030892 Z-0.125000 I5.211145 J4.512716
G02 X8.283482 Y24.202731 Z-0.125000 I5.005561 J4.013894
G02 X8.156784 Y24.379398 Z-0.125000 I4.383079 J3.277139
G02 X8.124434 Y24.429492 Z-0.125000 I1.121099 J0.759461
G02 X8.094779 Y24.479888 Z-0.125000 I1.277754 J0.785815
G02 X8.070674 Y24.525432 Z-0.125000 I0.691681 J0.395235
G02 X8.048811 Y24.572894 Z-0.125000 I1.031274 J0.503820
G01 X8.039323 Y24.601977 Z-0.125000
G01 X8.033844 Y24.631692 Z-0.125000
G01 X8.034557 Y24.642923 Z-0.125000
G01 X8.039189 Y24.652003 Z-0.125000
G01 X8.048814 Y24.659472 Z-0.125000
G01 X8.059501 Y24.662694 Z-0.125000
G01 X8.084555 Y24.664237 Z-0.125000
G01 X8.109746 Y24.661623 Z-0.125000
G02 X8.189073 Y24.644519 Z-0.125000 I-0.209855 J-1.165830
G02 X8.266895 Y24.621000 Z-0.125000 I-0.211752 J-0.841147
G02 X8.366898 Y24.584157 Z-0.125000 I-0.539573 J-1.618719
G02 X8.464666 Y24.540822 Z-0.125000 I-0.607471 J-1.502469
G03 X8.619574 Y24.474479 Z-0.125000 I1.216973 J2.627568
G03 X8.778964 Y24.416813 Z-0.125000 I1.094804 J2.776952
G03 X9.094250 Y24.319162 Z-0.125000 I3.355972 J10.277642
G03 X9.412904 Y24.231870 Z-0.125000 I2.624353 J8.954702
G02 X9.683710 Y24.161632 Z-0.125000 I-7.464636 J-29.337689
G02 X9.954906 Y24.089687 Z-0.125000 I-38.892241 J-147.150843
G02 X10.127824 Y24.042232 Z-0.125000 I-4.215395 J-15.699013
G02 X10.298067 Y23.993473 Z-0.125000 I-4.282063 J-15.272602
G01 X10.335698 Y23.980704 Z-0.125000
G02 X10.372901 Y23.964610 Z-0.125000 I-0.194168 J-0.499861
G01 X10.389664 Y23.954083 Z-0.125000
G01 X10.404971 Y23.941091 Z-0.125000
G02 X10.414641 Y23.929498 Z-0.125000 I-0.426771 J-0.365796
G01 X10.422076 Y23.918641 Z-0.125000
G02 X10.437391 Y23.889860 Z-0.125000 I-0.788817 J-0.438216
G01 X10.449872 Y23.861982 Z-0.125000
G01 X10.398557 Y23.810668 Z-0.125000
G01 X10.386453 Y23.797904 Z-0.125000
G03 X10.373969 Y23.783942 Z-0.125000 I2.422347 J-2.178338
G03 X10.324625 Y23.724765 Z-0.125000 I0.911160 J-0.809929
G03 X10.278825 Y23.661003 Z-0.125000 I0.763060 J-0.596424
G03 X10.233265 Y23.585151 Z-0.125000 I1.001563 J-0.653201
G03 X10.193302 Y23.505992 Z-0.125000 I1.067470 J-0.588568
G03 X10.149853 Y23.401200 Z-0.125000 I1.134377 J-0.531738
G03 X10.115262 Y23.293254 Z-0.125000 I1.415760 J-0.513195
G03 X10.092156 Y23.188252 Z-0.125000 I1.327108 J-0.347078
G03 X10.077846 Y23.081584 Z-0.125000 I1.202945 J-0.215673
G03 X10.075313 Y23.053222 Z-0.125000 I0.658208 J-0.073078
G03 X10.073568 Y23.024925 Z-0.125000 I2.359094 J-0.159655
G02 X10.071563 Y22.968794 Z-0.125000 I-3.950521 J0.113042
G03 X10.070361 Y22.912676 Z-0.125000 I1.309814 J-0.056118
G00 Z5.000000

(End cutting path id: path2527)


(Start cutting path id: path2525)
(Change tool to Default tool)

G00 Z5.000000
G00 X7.479013 Y15.586557

G01 Z-0.125000 F100.0(Penetrate)
G03 X7.546172 Y15.635191 Z-0.125000 I-3.700200 J5.180314 F400.000000
G03 X7.613712 Y15.684908 Z-0.125000 I-19.251564 J26.223371
G01 X7.681061 Y15.734083 Z-0.125000
G03 X7.731761 Y15.773281 Z-0.125000 I-1.314171 J1.752178
G03 X7.781551 Y15.813193 Z-0.125000 I-6.760162 J8.484336
G03 X8.174973 Y16.135340 Z-0.125000 I-45.839988 J56.383301
G02 X8.566225 Y16.457823 Z-0.125000 I583.970357 J-708.103701
G01 X9.902523 Y17.562140 Z-0.125000
G01 X10.736374 Y18.288017 Z-0.125000
G01 X10.757958 Y18.305143 Z-0.125000
G03 X10.779135 Y18.321157 Z-0.125000 I-0.960725 J1.292481
G02 X10.820905 Y18.354653 Z-0.125000 I4.788435 J-5.928479
G02 X10.863589 Y18.387438 Z-0.125000 I0.962115 J-1.208449
G02 X10.895528 Y18.376125 Z-0.125000 I-1.503324 J-4.295182
G02 X10.927731 Y18.363919 Z-0.125000 I-0.319359 J-0.891114
G01 X10.953492 Y18.354612 Z-0.125000
G03 X10.977976 Y18.344675 Z-0.125000 I1.011786 J2.457944
G02 X11.058649 Y18.304900 Z-0.125000 I-0.226974 J-0.562048
G02 X11.132987 Y18.253808 Z-0.125000 I-0.328168 J-0.557109
G01 X11.180922 Y18.207432 Z-0.125000
G01 X11.218510 Y18.152249 Z-0.125000
G01 X11.223087 Y18.144262 Z-0.125000
G01 X11.227062 Y18.135144 Z-0.125000
G02 X11.236556 Y18.109181 Z-0.125000 I-1.575583 J-0.590838
G02 X11.246305 Y18.081693 Z-0.125000 I-9.072917 J-3.233322
G02 X11.230384 Y18.051562 Z-0.125000 I-9.217319 J4.851256
G02 X11.213165 Y18.019688 Z-0.125000 I-2.120006 J1.124674
G01 X11.208347 Y18.011342 Z-0.125000
G01 X11.202474 Y18.002584 Z-0.125000
G02 X11.167001 Y17.953190 Z-0.125000 I-0.604582 J0.396747
G02 X11.128711 Y17.907439 Z-0.125000 I-0.733756 J0.575212
G02 X11.051188 Y17.826177 Z-0.125000 I-1.548050 J1.399194
G02 X10.970493 Y17.748153 Z-0.125000 I-2.937665 J2.957501
G02 X10.728594 Y17.531880 Z-0.125000 I-7.877349 J8.567346
G02 X10.479804 Y17.321606 Z-0.125000 I-7.693927 J8.850890
G02 X10.300219 Y17.180658 Z-0.125000 I-3.561692 J4.353153
G02 X10.115262 Y17.047932 Z-0.125000 I-3.015718 J4.007247
G02 X10.056959 Y17.008036 Z-0.125000 I-2.927558 J4.215712
G02 X9.997668 Y16.968823 Z-0.125000 I-2.233282 J3.312348
G02 X9.530998 Y16.666484 Z-0.125000 I-132.926246 J204.664103
G02 X9.063328 Y16.364817 Z-0.125000 I-177.210430 J274.213370
G03 X9.032706 Y16.345392 Z-0.125000 I4.922845 J-7.794458
G03 X9.003462 Y16.326331 Z-0.125000 I0.902925 J-1.417244
G02 X8.944278 Y16.288028 Z-0.125000 I-18.575886 J28.638105
G02 X8.883729 Y16.249361 Z-0.125000 I-3.879841 J6.008623
G03 X8.923721 Y16.259092 Z-0.125000 I-1.519246 J6.330464
G03 X8.963907 Y16.269672 Z-0.125000 I-0.319522 J1.295256
G01 X8.982820 Y16.275007 Z-0.125000
G02 X9.003462 Y16.281432 Z-0.125000 I1.007863 J-3.202071
G03 X9.073827 Y16.304560 Z-0.125000 I-0.346483 J1.172718
G03 X9.142437 Y16.331676 Z-0.125000 I-0.441012 J1.216229
G03 X9.238958 Y16.375001 Z-0.125000 I-1.092012 J2.562017
G03 X9.333795 Y16.421475 Z-0.125000 I-1.527952 J3.237978
G03 X9.529297 Y16.525635 Z-0.125000 I-3.123288 J6.097808
G03 X9.721856 Y16.636352 Z-0.125000 I-3.336328 J6.025321
G03 X9.922004 Y16.758037 Z-0.125000 I-3.893750 J6.629934
G03 X10.119538 Y16.886507 Z-0.125000 I-4.143097 J6.586464
G03 X10.378255 Y17.067386 Z-0.125000 I-3.709402 J5.581129
G03 X10.629469 Y17.260671 Z-0.125000 I-4.246889 J5.779630
G03 X10.825103 Y17.426393 Z-0.125000 I-2.853362 J3.566718
G03 X11.012185 Y17.602764 Z-0.125000 I-3.424976 J3.820384
G02 X11.070782 Y17.656530 Z-0.125000 I0.654879 J-0.654896
G02 X11.132987 Y17.704322 Z-0.125000 I0.569158 J-0.676426
G01 X11.167786 Y17.724160 Z-0.125000
G01 X11.204612 Y17.737462 Z-0.125000
G02 X11.215330 Y17.738916 Z-0.125000 I0.106357 J-0.743434
G01 X11.225993 Y17.739598 Z-0.125000
G01 X11.259668 Y17.739866 Z-0.125000
G02 X11.293343 Y17.738527 Z-0.125000 I-0.067413 J-2.120997
G01 X11.336104 Y17.667971 Z-0.125000
G01 X11.346260 Y17.650332 Z-0.125000
G01 X11.356416 Y17.632693 Z-0.125000
G02 X11.370799 Y17.605273 Z-0.125000 I-3.578912 J-1.894780
G02 X11.384211 Y17.578172 Z-0.125000 I-0.680588 J-0.353687
G02 X11.411413 Y17.521893 Z-0.125000 I-14.564307 J-7.074348
G02 X11.437663 Y17.465923 Z-0.125000 I-2.851333 J-1.371404
G01 X11.355347 Y17.379331 Z-0.125000
G02 X11.335638 Y17.358156 Z-0.125000 I-2.561021 J2.364082
G02 X11.314724 Y17.336569 Z-0.125000 I-0.692116 J0.649615
G02 X11.107524 Y17.128556 Z-0.125000 I-6.099825 J5.868763
G02 X10.891384 Y16.926059 Z-0.125000 I-5.996386 J6.183780
G02 X10.695445 Y16.756510 Z-0.125000 I-4.444774 J4.938604
G02 X10.491564 Y16.593587 Z-0.125000 I-4.252687 J5.112784
G02 X10.221163 Y16.397088 Z-0.125000 I-4.120252 J5.385527
G02 X9.941008 Y16.214078 Z-0.125000 I-3.782184 J5.483913
G02 X9.641568 Y16.038439 Z-0.125000 I-3.777597 J6.097193
G02 X9.333795 Y15.876262 Z-0.125000 I-3.957834 J7.137927
G02 X9.009294 Y15.730578 Z-0.125000 I-2.206409 J4.480361
G02 X8.675267 Y15.609003 Z-0.125000 I-1.796057 J4.415007
G02 X8.394799 Y15.532983 Z-0.125000 I-1.021010 J3.211525
G02 X8.108676 Y15.481788 Z-0.125000 I-0.717861 J3.186854
G02 X7.995711 Y15.472688 Z-0.125000 I-0.130341 J0.912393
G02 X7.883109 Y15.476442 Z-0.125000 I-0.020363 J1.079905
G02 X7.768539 Y15.492884 Z-0.125000 I0.080964 J0.971588
G02 X7.656473 Y15.521342 Z-0.125000 I0.248067 J1.211756
G02 X7.616824 Y15.534385 Z-0.125000 I0.782542 J2.445505
G02 X7.578434 Y15.548067 Z-0.125000 I0.397737 J1.176710
G01 X7.479013 Y15.586553 Z-0.125000
G00 Z5.000000

(End cutting path id: path2525)


(Start cutting path id: path2523)
(Change tool to Default tool)

G00 Z5.000000
G00 X10.125953 Y12.433962

G01 Z-0.125000 F100.0(Penetrate)
G01 X10.249961 Y12.568661 Z-0.125000 F400.000000
G01 X10.310896 Y12.636010 Z-0.125000
G03 X10.448900 Y12.791531 Z-0.125000 I-7.359378 J6.669418
G03 X10.583501 Y12.949238 Z-0.125000 I-8.889068 J7.723025
G03 X10.907987 Y13.338645 Z-0.125000 I-59.335022 J49.772659
G03 X11.230269 Y13.730705 Z-0.125000 I-57.353876 J47.474762
G03 X11.635091 Y14.231722 Z-0.125000 I-142.889789 J115.869041
G03 X12.038462 Y14.734533 Z-0.125000 I-143.593723 J115.608837
G03 X12.125605 Y14.845053 Z-0.125000 I-4.403425 J3.561605
G03 X12.209509 Y14.957962 Z-0.125000 I-3.449002 J2.650622
G01 X12.971733 Y16.000274 Z-0.125000
G01 X13.092534 Y16.164906 Z-0.125000
G01 X13.403624 Y15.937201 Z-0.125000
G02 X13.361374 Y15.866289 Z-0.125000 I-9.796555 J5.788841
G02 X13.318101 Y15.795019 Z-0.125000 I-7.576501 J4.551470
G02 X13.308480 Y15.779518 Z-0.125000 I-0.518715 J0.311224
G03 X13.298859 Y15.764017 Z-0.125000 I0.509093 J-0.326725
G02 X13.129120 Y15.506724 Z-0.125000 I-7.722834 J4.910202
G02 X12.951422 Y15.255154 Z-0.125000 I-8.492583 J5.810251
G02 X12.745470 Y14.979719 Z-0.125000 I-9.101294 J6.590604
G02 X12.532358 Y14.709945 Z-0.125000 I-12.105519 J9.343874
G02 X12.152895 Y14.255396 Z-0.125000 I-23.186858 J18.971008
G02 X11.763719 Y13.808745 Z-0.125000 I-20.046222 J17.073805
G02 X11.544448 Y13.573829 Z-0.125000 I-6.450305 J5.800939
G02 X11.316861 Y13.349058 Z-0.125000 I-5.190457 J5.027873
G01 X11.305434 Y13.338329 Z-0.125000
G02 X11.294411 Y13.328747 Z-0.125000 I-0.696550 J0.790217
G02 X11.222054 Y13.266170 Z-0.125000 I-29.608386 J34.163068
G02 X11.150091 Y13.204739 Z-0.125000 I-5.762570 J6.677529
