%
(Header)
(Generated by gcodetools from Inkscape.)
(Using default header. To add your own header create file "header" in the output dir.)
M3
(Header end.)
G21 (All units in mm)

(Start cutting path id: line5415)
(Change tool to Default tool)

G00 Z5.000000
G00 X-57.237760 Y8.014620

G01 Z-0.125000 F100.0(Penetrate)
G01 X-52.535810 Y7.813819 Z-0.125000 F400.000000
G00 Z5.000000

(End cutting path id: line5415)


(Start cutting path id: line5413)
(Change tool to Default tool)

G00 Z5.000000
G00 X-51.904216 Y15.523740

G01 Z-0.125000 F100.0(Penetrate)
G01 X-45.746001 Y9.821690 Z-0.125000 F400.000000
G00 Z5.000000

(End cutting path id: line5413)


(Start cutting path id: line5411)
(Change tool to Default tool)

G00 Z5.000000
G00 X-57.799193 Y15.032467

G01 Z-0.125000 F100.0(Penetrate)
G01 X-54.368795 Y12.989002 Z-0.125000 F400.000000
G00 Z5.000000

(End cutting path id: line5411)


(Start cutting path id: line5409)
(Change tool to Default tool)

G00 Z5.000000
G00 X-56.746536 Y21.138071

G01 Z-0.125000 F100.0(Penetrate)
G01 X-52.497351 Y18.492718 Z-0.125000 F400.000000
G00 Z5.000000

(End cutting path id: line5409)


(Start cutting path id: line5407)
(Change tool to Default tool)

G00 Z5.000000
G00 X-57.955171 Y16.311312

G01 Z-0.125000 F100.0(Penetrate)
G01 X-53.231488 Y18.259771 Z-0.125000 F400.000000
G00 Z5.000000

(End cutting path id: line5407)


(Start cutting path id: line5405)
(Change tool to Default tool)

G00 Z5.000000
G00 X-56.325473 Y22.962692

G01 Z-0.125000 F100.0(Penetrate)
G01 X-50.219916 Y20.072047 Z-0.125000 F400.000000
G00 Z5.000000

(End cutting path id: line5405)


(Start cutting path id: line5403)
(Change tool to Default tool)

G00 Z5.000000
G00 X-36.605193 Y13.979809

G01 Z-0.125000 F100.0(Penetrate)
G01 X-33.727915 Y13.979809 Z-0.125000 F400.000000
G00 Z5.000000

(End cutting path id: line5403)


(Start cutting path id: line5401)
(Change tool to Default tool)

G00 Z5.000000
G00 X-39.131620 Y25.840019

G01 Z-0.125000 F100.0(Penetrate)
G01 X-35.692906 Y28.015543 Z-0.125000 F400.000000
G00 Z5.000000

(End cutting path id: line5401)


(Start cutting path id: line5399)
(Change tool to Default tool)

G00 Z5.000000
G00 X-56.789907 Y19.340242

G01 Z-0.125000 F100.0(Penetrate)
G01 X-55.693830 Y18.489703 Z-0.125000 F400.000000
G00 Z5.000000

(End cutting path id: line5399)


(Start cutting path id: line5397)
(Change tool to Default tool)

G00 Z5.000000
G00 X-54.360432 Y25.664306

G01 Z-0.125000 F100.0(Penetrate)
G01 X-52.325279 Y24.646992 Z-0.125000 F400.000000
G00 Z5.000000

(End cutting path id: line5397)


(Start cutting path id: path5395)
(Change tool to Default tool)

G00 Z5.000000
G00 X-41.674528 Y9.413030

G01 Z-0.125000 F100.0(Penetrate)
G01 X-41.706191 Y9.401073 Z-0.125000 F400.000000
G01 X-41.791560 Y9.389448 Z-0.125000
G01 X-41.934616 Y9.450177 Z-0.125000
G01 X-41.994506 Y9.598424 Z-0.125000
G01 X-41.933440 Y9.748926 Z-0.125000
G01 X-41.775563 Y9.815665 Z-0.125000
G01 X-41.706766 Y9.807032 Z-0.125000
G01 X-41.672826 Y9.793688 Z-0.125000
G01 X-41.689698 Y9.737336 Z-0.125000
G01 X-41.716916 Y9.748254 Z-0.125000
G01 X-41.775563 Y9.756639 Z-0.125000
G01 X-41.881955 Y9.706490 Z-0.125000
G01 X-41.919629 Y9.601633 Z-0.125000
G01 X-41.873701 Y9.489316 Z-0.125000
G01 X-41.778092 Y9.449204 Z-0.125000
G01 X-41.718311 Y9.457433 Z-0.125000
G01 X-41.687121 Y9.468556 Z-0.125000
G01 X-41.674528 Y9.413030 Z-0.125000
G01 X-41.674528 Y9.413030 Z-0.125000
G00 Z5.000000

(End cutting path id: path5395)


(Start cutting path id: path5393)
(Change tool to Default tool)

G00 Z5.000000
G00 X-42.126660 Y9.881207

G01 Z-0.125000 F100.0(Penetrate)
G01 X-42.160346 Y9.896216 Z-0.125000 F400.000000
G01 X-42.172996 Y9.929197 Z-0.125000
G01 X-42.159960 Y9.961504 Z-0.125000
G01 X-42.125007 Y9.976360 Z-0.125000
G01 X-42.090588 Y9.961441 Z-0.125000
G01 X-42.077844 Y9.929197 Z-0.125000
G01 X-42.090461 Y9.896766 Z-0.125000
G01 X-42.125833 Y9.881207 Z-0.125000
G01 X-42.126660 Y9.881207 Z-0.125000
G01 X-42.126660 Y9.881207 Z-0.125000
G00 Z5.000000

(End cutting path id: path5393)


(Start cutting path id: path5393)
(Change tool to Default tool)

G00 Z5.000000
G00 X-42.162008 Y9.398638

G01 Z-0.125000 F100.0(Penetrate)
G01 X-42.162008 Y9.806233 Z-0.125000 F400.000000
G01 X-42.087957 Y9.806233 Z-0.125000
G01 X-42.087957 Y9.398638 Z-0.125000
G01 X-42.162008 Y9.398638 Z-0.125000
G01 X-42.162008 Y9.398638 Z-0.125000
G00 Z5.000000

(End cutting path id: path5393)


(Start cutting path id: path5391)
(Change tool to Default tool)

G00 Z5.000000
G00 X-42.351486 Y9.903962

G01 Z-0.125000 F100.0(Penetrate)
G01 X-42.351486 Y9.806184 Z-0.125000 F400.000000
G01 X-42.245345 Y9.806184 Z-0.125000
G01 X-42.245345 Y9.749783 Z-0.125000
G01 X-42.351486 Y9.749783 Z-0.125000
G01 X-42.351486 Y9.529965 Z-0.125000
G01 X-42.334890 Y9.472353 Z-0.125000
G01 X-42.295911 Y9.450809 Z-0.125000
G01 X-42.268275 Y9.452526 Z-0.125000
G01 X-42.252930 Y9.455768 Z-0.125000
G01 X-42.249575 Y9.399465 Z-0.125000
G01 X-42.271945 Y9.393417 Z-0.125000
G01 X-42.315311 Y9.389303 Z-0.125000
G01 X-42.364417 Y9.398872 Z-0.125000
G01 X-42.395343 Y9.420372 Z-0.125000
G01 X-42.415471 Y9.458447 Z-0.125000
G01 X-42.423981 Y9.527291 Z-0.125000
G01 X-42.423981 Y9.749637 Z-0.125000
G01 X-42.487189 Y9.749637 Z-0.125000
G01 X-42.487189 Y9.806038 Z-0.125000
G01 X-42.423981 Y9.806038 Z-0.125000
G01 X-42.423981 Y9.881013 Z-0.125000
G01 X-42.351486 Y9.903962 Z-0.125000
G01 X-42.351486 Y9.903962 Z-0.125000
G00 Z5.000000

(End cutting path id: path5391)


(Start cutting path id: path5389)
(Change tool to Default tool)

G00 Z5.000000
G00 X-42.556086 Y9.496319

G01 Z-0.125000 F100.0(Penetrate)
G03 X-42.554670 Y9.441753 Z-0.125000 I1.052291 J0.000000 F400.000000
G01 X-42.550202 Y9.398638 Z-0.125000
G01 X-42.616814 Y9.398638 Z-0.125000
G01 X-42.623524 Y9.449934 Z-0.125000
G01 X-42.626003 Y9.449934 Z-0.125000
G01 X-42.668291 Y9.411191 Z-0.125000
G01 X-42.750718 Y9.389400 Z-0.125000
G01 X-42.847684 Y9.433297 Z-0.125000
G01 X-42.875238 Y9.506432 Z-0.125000
G01 X-42.820510 Y9.604530 Z-0.125000
G01 X-42.630136 Y9.657985 Z-0.125000
G01 X-42.630136 Y9.666348 Z-0.125000
G01 X-42.640389 Y9.710128 Z-0.125000
G01 X-42.722809 Y9.760771 Z-0.125000
G01 X-42.781693 Y9.752663 Z-0.125000
G01 X-42.829728 Y9.730334 Z-0.125000
G01 X-42.846502 Y9.780074 Z-0.125000
G01 X-42.790463 Y9.804738 Z-0.125000
G01 X-42.711772 Y9.815471 Z-0.125000
G01 X-42.585019 Y9.746755 Z-0.125000
G01 X-42.555891 Y9.648650 Z-0.125000
G01 X-42.555891 Y9.496270 Z-0.125000
G01 X-42.556086 Y9.496270 Z-0.125000
G01 X-42.556086 Y9.496319 Z-0.125000
G00 Z5.000000

(End cutting path id: path5389)


(Start cutting path id: path5389)
(Change tool to Default tool)

G00 Z5.000000
G00 X-42.628678 Y9.606592

G01 Z-0.125000 F100.0(Penetrate)
G01 X-42.745344 Y9.590334 Z-0.125000 F400.000000
G01 X-42.801236 Y9.514795 Z-0.125000
G01 X-42.776238 Y9.460321 Z-0.125000
G01 X-42.732241 Y9.444002 Z-0.125000
G01 X-42.661539 Y9.469440 Z-0.125000
G01 X-42.631984 Y9.512267 Z-0.125000
G01 X-42.629346 Y9.524212 Z-0.125000
G01 X-42.628678 Y9.535848 Z-0.125000
G01 X-42.628678 Y9.606592 Z-0.125000
G01 X-42.628678 Y9.606592 Z-0.125000
G01 X-42.628678 Y9.606592 Z-0.125000
G00 Z5.000000

(End cutting path id: path5389)


(Start cutting path id: path5387)
(Change tool to Default tool)

G00 Z5.000000
G00 X-43.545680 Y9.695862

G01 Z-0.125000 F100.0(Penetrate)
G03 X-43.546896 Y9.757815 Z-0.125000 I-1.579699 J0.000000 F400.000000
G03 X-43.549035 Y9.806233 Z-0.125000 I-4.909130 J-0.192678
G01 X-43.484223 Y9.806233 Z-0.125000
G01 X-43.480868 Y9.740545 Z-0.125000
G01 X-43.478340 Y9.740545 Z-0.125000
G01 X-43.436651 Y9.786808 Z-0.125000
G01 X-43.349492 Y9.815471 Z-0.125000
G01 X-43.277606 Y9.791383 Z-0.125000
G01 X-43.234891 Y9.733786 Z-0.125000
G01 X-43.233287 Y9.733786 Z-0.125000
G01 X-43.210283 Y9.765915 Z-0.125000
G01 X-43.186999 Y9.786833 Z-0.125000
G01 X-43.149947 Y9.806682 Z-0.125000
G01 X-43.097876 Y9.815471 Z-0.125000
G01 X-43.034245 Y9.792145 Z-0.125000
G01 X-42.963048 Y9.638537 Z-0.125000
G01 X-42.963048 Y9.398492 Z-0.125000
G01 X-43.035446 Y9.398492 Z-0.125000
G01 X-43.035446 Y9.629250 Z-0.125000
G01 X-43.064217 Y9.723059 Z-0.125000
G01 X-43.123840 Y9.754694 Z-0.125000
G01 X-43.180679 Y9.733454 Z-0.125000
G01 X-43.212331 Y9.688228 Z-0.125000
G01 X-43.216516 Y9.670745 Z-0.125000
G01 X-43.218214 Y9.651227 Z-0.125000
G01 X-43.218214 Y9.398492 Z-0.125000
G01 X-43.290660 Y9.398492 Z-0.125000
G01 X-43.290660 Y9.642621 Z-0.125000
G01 X-43.315943 Y9.723421 Z-0.125000
G01 X-43.375699 Y9.754694 Z-0.125000
G01 X-43.436530 Y9.730284 Z-0.125000
G01 X-43.467497 Y9.680643 Z-0.125000
G01 X-43.471985 Y9.663529 Z-0.125000
G01 X-43.473380 Y9.644371 Z-0.125000
G01 X-43.473380 Y9.398443 Z-0.125000
G01 X-43.545778 Y9.398443 Z-0.125000
G01 X-43.545778 Y9.695813 Z-0.125000
G01 X-43.545680 Y9.695813 Z-0.125000
G01 X-43.545680 Y9.695862 Z-0.125000
G00 Z5.000000

(End cutting path id: path5387)


(Start cutting path id: path5385)
(Change tool to Default tool)

G00 Z5.000000
G00 X-43.842126 Y9.389400

G01 Z-0.125000 F100.0(Penetrate)
G01 X-43.973569 Y9.444091 Z-0.125000 F400.000000
G01 X-44.037488 Y9.599105 Z-0.125000
G01 X-43.969448 Y9.760880 Z-0.125000
G01 X-43.835368 Y9.815568 Z-0.125000
G01 X-43.698081 Y9.755975 Z-0.125000
G01 X-43.639131 Y9.606592 Z-0.125000
G01 X-43.721016 Y9.432625 Z-0.125000
G01 X-43.841251 Y9.389351 Z-0.125000
G01 X-43.842126 Y9.389400 Z-0.125000
G01 X-43.842126 Y9.389400 Z-0.125000
G01 X-43.842126 Y9.389400 Z-0.125000
G00 Z5.000000

(End cutting path id: path5385)


(Start cutting path id: path5385)
(Change tool to Default tool)

G00 Z5.000000
G00 X-43.839598 Y9.445023

G01 Z-0.125000 F100.0(Penetrate)
G01 X-43.757053 Y9.485055 Z-0.125000 F400.000000
G01 X-43.715710 Y9.604259 Z-0.125000
G01 X-43.740427 Y9.701887 Z-0.125000
G01 X-43.837848 Y9.759945 Z-0.125000
G01 X-43.933319 Y9.706119 Z-0.125000
G01 X-43.962465 Y9.601633 Z-0.125000
G01 X-43.923334 Y9.486024 Z-0.125000
G01 X-43.840376 Y9.445023 Z-0.125000
G01 X-43.839598 Y9.445023 Z-0.125000
G01 X-43.839598 Y9.445023 Z-0.125000
G01 X-43.839598 Y9.445023 Z-0.125000
G00 Z5.000000

(End cutting path id: path5385)


(Start cutting path id: path5383)
(Change tool to Default tool)

G00 Z5.000000
G00 X-44.130063 Y9.458491

G01 Z-0.125000 F100.0(Penetrate)
G01 X-44.150188 Y9.331290 Z-0.125000 F400.000000
G01 X-44.188166 Y9.271493 Z-0.125000
G01 X-44.259650 Y9.232842 Z-0.125000
G01 X-44.337288 Y9.222676 Z-0.125000
G01 X-44.415185 Y9.231496 Z-0.125000
G01 X-44.472894 Y9.256274 Z-0.125000
G01 X-44.454369 Y9.313550 Z-0.125000
G01 X-44.410181 Y9.292441 Z-0.125000
G01 X-44.334711 Y9.280585 Z-0.125000
G01 X-44.251508 Y9.313309 Z-0.125000
G01 X-44.203385 Y9.423824 Z-0.125000
G01 X-44.203385 Y9.468459 Z-0.125000
G01 X-44.204989 Y9.468459 Z-0.125000
G01 X-44.248658 Y9.424106 Z-0.125000
G01 X-44.334663 Y9.400242 Z-0.125000
G01 X-44.454936 Y9.455636 Z-0.125000
G01 X-44.508193 Y9.599834 Z-0.125000
G01 X-44.438574 Y9.767878 Z-0.125000
G01 X-44.323772 Y9.815422 Z-0.125000
G01 X-44.232143 Y9.785714 Z-0.125000
G01 X-44.196626 Y9.745504 Z-0.125000
G01 X-44.194924 Y9.745504 Z-0.125000
G01 X-44.192396 Y9.806087 Z-0.125000
G01 X-44.126708 Y9.806087 Z-0.125000
G03 X-44.129033 Y9.765426 Z-0.125000 I0.693419 J-0.060041
G03 X-44.130015 Y9.694938 Z-0.125000 I2.530402 J-0.070489
G01 X-44.130015 Y9.458491 Z-0.125000
G01 X-44.130063 Y9.458491 Z-0.125000
G00 Z5.000000

(End cutting path id: path5383)


(Start cutting path id: path5383)
(Change tool to Default tool)

G00 Z5.000000
G00 X-44.204260 Y9.646268

G01 Z-0.125000 F100.0(Penetrate)
G01 X-44.205154 Y9.663781 Z-0.125000 F400.000000
G01 X-44.208490 Y9.679184 Z-0.125000
G01 X-44.242938 Y9.732370 Z-0.125000
G01 X-44.312054 Y9.758340 Z-0.125000
G01 X-44.391848 Y9.720313 Z-0.125000
G01 X-44.433316 Y9.603335 Z-0.125000
G01 X-44.400989 Y9.502212 Z-0.125000
G01 X-44.312880 Y9.456789 Z-0.125000
G01 X-44.251383 Y9.476564 Z-0.125000
G01 X-44.210143 Y9.533417 Z-0.125000
G01 X-44.205585 Y9.552194 Z-0.125000
G01 X-44.204260 Y9.572946 Z-0.125000
G01 X-44.204260 Y9.646268 Z-0.125000
G01 X-44.204260 Y9.646268 Z-0.125000
G01 X-44.204260 Y9.646268 Z-0.125000
G00 Z5.000000

(End cutting path id: path5383)


(Start cutting path id: path5381)
(Change tool to Default tool)

G00 Z5.000000
G00 X-44.840036 Y9.806233

G01 Z-0.125000 F100.0(Penetrate)
G01 X-44.751544 Y9.565410 Z-0.125000 F400.000000
G02 X-44.736267 Y9.521322 Z-0.125000 I-0.873670 J-0.327429
G02 X-44.724608 Y9.482024 Z-0.125000 I-0.969554 J-0.309034
G01 X-44.722906 Y9.482024 Z-0.125000
G03 X-44.711441 Y9.520440 Z-0.125000 I-1.698591 J0.527849
G02 X-44.696796 Y9.566966 Z-0.125000 I0.895267 J-0.256233
G01 X-44.615939 Y9.806184 Z-0.125000
G01 X-44.537707 Y9.806184 Z-0.125000
G01 X-44.648855 Y9.515621 Z-0.125000
G02 X-44.732683 Y9.330453 Z-0.125000 I-1.520590 J0.576830
G01 X-44.788643 Y9.259629 Z-0.125000
G01 X-44.851727 Y9.220810 Z-0.125000
G01 X-44.879613 Y9.212466 Z-0.125000
G01 X-44.898090 Y9.274702 Z-0.125000
G01 X-44.870491 Y9.285463 Z-0.125000
G01 X-44.833277 Y9.310973 Z-0.125000
G01 X-44.805041 Y9.338932 Z-0.125000
G01 X-44.770944 Y9.393581 Z-0.125000
G01 X-44.766380 Y9.404342 Z-0.125000
G01 X-44.765061 Y9.411280 Z-0.125000
G01 X-44.765921 Y9.417179 Z-0.125000
G01 X-44.770944 Y9.429756 Z-0.125000
G01 X-44.920845 Y9.806135 Z-0.125000
G01 X-44.840036 Y9.806135 Z-0.125000
G01 X-44.840036 Y9.806233 Z-0.125000
G00 Z5.000000

(End cutting path id: path5381)


(Start cutting path id: path5379)
(Change tool to Default tool)

G00 Z5.000000
G00 X-45.361356 Y9.441668

G01 Z-0.125000 F100.0(Penetrate)
G01 X-45.046385 Y9.902357 Z-0.125000 F400.000000
G01 X-45.046385 Y9.904789 Z-0.125000
G01 X-45.334371 Y9.904789 Z-0.125000
G01 X-45.334371 Y9.966295 Z-0.125000
G01 X-44.951233 Y9.966295 Z-0.125000
G01 X-44.951233 Y9.921660 Z-0.125000
G01 X-45.264502 Y9.462721 Z-0.125000
G01 X-45.264502 Y9.460193 Z-0.125000
G01 X-44.947100 Y9.460193 Z-0.125000
G01 X-44.947100 Y9.398687 Z-0.125000
G01 X-45.361405 Y9.398687 Z-0.125000
G01 X-45.361405 Y9.441717 Z-0.125000
G01 X-45.361356 Y9.441717 Z-0.125000
G01 X-45.361356 Y9.441668 Z-0.125000
G00 Z5.000000

(End cutting path id: path5379)


(Start cutting path id: path5375)
(Change tool to Default tool)

G00 Z5.000000
G00 X-30.342929 Y14.407536

G01 Z-0.125000 F100.0(Penetrate)
G01 X-30.268878 Y14.407536 Z-0.125000 F400.000000
G01 X-30.268878 Y13.809539 Z-0.125000
G01 X-30.342929 Y13.809539 Z-0.125000
G01 X-30.342929 Y14.407536 Z-0.125000
G01 X-30.342929 Y14.407536 Z-0.125000
G00 Z5.000000

(End cutting path id: path5375)


(Start cutting path id: path5373)
(Change tool to Default tool)

G00 Z5.000000
G00 X-30.461711 Y13.907317

G01 Z-0.125000 F100.0(Penetrate)
G03 X-30.460207 Y13.852771 Z-0.125000 I0.989700 J-0.000000 F400.000000
G01 X-30.455779 Y13.809539 Z-0.125000
G01 X-30.522342 Y13.809539 Z-0.125000
G01 X-30.529052 Y13.860932 Z-0.125000
G01 X-30.531629 Y13.860932 Z-0.125000
G01 X-30.573776 Y13.822148 Z-0.125000
G01 X-30.656246 Y13.800398 Z-0.125000
G01 X-30.753224 Y13.844264 Z-0.125000
G01 X-30.780815 Y13.917430 Z-0.125000
G01 X-30.726095 Y14.015511 Z-0.125000
G01 X-30.535713 Y14.068935 Z-0.125000
G01 X-30.535713 Y14.077346 Z-0.125000
G01 X-30.545966 Y14.121085 Z-0.125000
G01 X-30.628386 Y14.171672 Z-0.125000
G01 X-30.687386 Y14.163555 Z-0.125000
G01 X-30.735353 Y14.141332 Z-0.125000
G01 X-30.752079 Y14.191024 Z-0.125000
G01 X-30.696109 Y14.215709 Z-0.125000
G01 X-30.617349 Y14.226420 Z-0.125000
G01 X-30.490726 Y14.157751 Z-0.125000
G01 X-30.461614 Y14.059648 Z-0.125000
G01 X-30.461614 Y13.907317 Z-0.125000
G01 X-30.461711 Y13.907317 Z-0.125000
G01 X-30.461711 Y13.907317 Z-0.125000
G00 Z5.000000

(End cutting path id: path5373)


(Start cutting path id: path5373)
(Change tool to Default tool)

G00 Z5.000000
G00 X-30.534206 Y14.017639

G01 Z-0.125000 F100.0(Penetrate)
G01 X-30.650858 Y14.001398 Z-0.125000 F400.000000
G01 X-30.706813 Y13.925793 Z-0.125000
G01 X-30.681805 Y13.871346 Z-0.125000
G01 X-30.637819 Y13.855049 Z-0.125000
G01 X-30.567165 Y13.880456 Z-0.125000
G01 X-30.537512 Y13.923313 Z-0.125000
G01 X-30.534867 Y13.935189 Z-0.125000
G01 X-30.534206 Y13.946895 Z-0.125000
G01 X-30.534206 Y14.017639 Z-0.125000
G01 X-30.534206 Y14.017639 Z-0.125000
G00 Z5.000000

(End cutting path id: path5373)


(Start cutting path id: path5371)
(Change tool to Default tool)

G00 Z5.000000
G00 X-30.938348 Y14.314960

G01 Z-0.125000 F100.0(Penetrate)
G01 X-30.938348 Y14.217182 Z-0.125000 F400.000000
G01 X-30.832256 Y14.217182 Z-0.125000
G01 X-30.832256 Y14.160684 Z-0.125000
G01 X-30.938348 Y14.160684 Z-0.125000
G01 X-30.938348 Y13.940963 Z-0.125000
G01 X-30.921758 Y13.883318 Z-0.125000
G01 X-30.882774 Y13.861758 Z-0.125000
G01 X-30.855144 Y13.863516 Z-0.125000
G01 X-30.839793 Y13.866815 Z-0.125000
G01 X-30.836438 Y13.810365 Z-0.125000
G01 X-30.858790 Y13.804359 Z-0.125000
G01 X-30.902271 Y13.800301 Z-0.125000
G01 X-30.951311 Y13.809874 Z-0.125000
G01 X-30.982254 Y13.831370 Z-0.125000
G01 X-31.002369 Y13.869414 Z-0.125000
G01 X-31.010843 Y13.938240 Z-0.125000
G01 X-31.010843 Y14.160538 Z-0.125000
G01 X-31.073954 Y14.160538 Z-0.125000
G01 X-31.073954 Y14.217036 Z-0.125000
G01 X-31.010843 Y14.217036 Z-0.125000
G01 X-31.010843 Y14.292011 Z-0.125000
G01 X-30.938348 Y14.314960 Z-0.125000
G01 X-30.938348 Y14.314960 Z-0.125000
G00 Z5.000000

(End cutting path id: path5371)


(Start cutting path id: path5369)
(Change tool to Default tool)

G00 Z5.000000
G00 X-31.189382 Y14.292205

G01 Z-0.125000 F100.0(Penetrate)
G01 X-31.223027 Y14.307170 Z-0.125000 F400.000000
G01 X-31.235718 Y14.340195 Z-0.125000
G01 X-31.222646 Y14.372525 Z-0.125000
G01 X-31.187680 Y14.387358 Z-0.125000
G01 X-31.153249 Y14.372463 Z-0.125000
G01 X-31.140468 Y14.340195 Z-0.125000
G01 X-31.153143 Y14.307731 Z-0.125000
G01 X-31.188555 Y14.292205 Z-0.125000
G01 X-31.189382 Y14.292205 Z-0.125000
G01 X-31.189382 Y14.292205 Z-0.125000
G00 Z5.000000

(End cutting path id: path5369)


(Start cutting path id: path5369)
(Change tool to Default tool)

G00 Z5.000000
G00 X-31.224730 Y13.809587

G01 Z-0.125000 F100.0(Penetrate)
G01 X-31.224730 Y14.217279 Z-0.125000 F400.000000
G01 X-31.150582 Y14.217279 Z-0.125000
G01 X-31.150582 Y13.809587 Z-0.125000
G01 X-31.224730 Y13.809587 Z-0.125000
G01 X-31.224730 Y13.809587 Z-0.125000
G00 Z5.000000

(End cutting path id: path5369)


(Start cutting path id: path5367)
(Change tool to Default tool)

G00 Z5.000000
G00 X-31.703944 Y14.084105

G01 Z-0.125000 F100.0(Penetrate)
G03 X-31.704792 Y14.160404 Z-0.125000 I-3.431584 J0.000000 F400.000000
G03 X-31.707201 Y14.217134 Z-0.125000 I-1.404616 J-0.031239
G01 X-31.640736 Y14.217134 Z-0.125000
G01 X-31.636506 Y14.147216 Z-0.125000
G01 X-31.634853 Y14.147216 Z-0.125000
G01 X-31.577874 Y14.203468 Z-0.125000
G01 X-31.490787 Y14.226372 Z-0.125000
G01 X-31.374550 Y14.173117 Z-0.125000
G01 X-31.317354 Y14.019195 Z-0.125000
G01 X-31.389719 Y13.846551 Z-0.125000
G01 X-31.502602 Y13.800349 Z-0.125000
G01 X-31.579091 Y13.818690 Z-0.125000
G01 X-31.628191 Y13.864238 Z-0.125000
G01 X-31.629796 Y13.864238 Z-0.125000
G01 X-31.629796 Y13.642864 Z-0.125000
G01 X-31.703944 Y13.642864 Z-0.125000
G01 X-31.703944 Y14.084105 Z-0.125000
G01 X-31.703944 Y14.084105 Z-0.125000
G01 X-31.703944 Y14.084105 Z-0.125000
G00 Z5.000000

(End cutting path id: path5367)


(Start cutting path id: path5367)
(Change tool to Default tool)

G00 Z5.000000
G00 X-31.629699 Y13.975582

G01 Z-0.125000 F100.0(Penetrate)
G01 X-31.628980 Y13.959765 Z-0.125000 F400.000000
G01 X-31.626344 Y13.945193 Z-0.125000
G01 X-31.585768 Y13.882469 Z-0.125000
G01 X-31.516070 Y13.858404 Z-0.125000
G01 X-31.430543 Y13.901120 Z-0.125000
G01 X-31.392231 Y14.015889 Z-0.125000
G01 X-31.425324 Y14.121751 Z-0.125000
G01 X-31.512667 Y14.167491 Z-0.125000
G01 X-31.580663 Y14.144371 Z-0.125000
G01 X-31.625420 Y14.076520 Z-0.125000
G02 X-31.628348 Y14.060591 Z-0.125000 I-1.387719 J0.246854
G01 X-31.629699 Y14.046229 Z-0.125000
G01 X-31.629699 Y13.975582 Z-0.125000
G01 X-31.629699 Y13.975582 Z-0.125000
G00 Z5.000000

(End cutting path id: path5367)


(Start cutting path id: path5365)
(Change tool to Default tool)

G00 Z5.000000
G00 X-31.865562 Y14.292205

G01 Z-0.125000 F100.0(Penetrate)
G01 X-31.899167 Y14.307201 Z-0.125000 F400.000000
G01 X-31.911801 Y14.340195 Z-0.125000
G01 X-31.898769 Y14.372484 Z-0.125000
G01 X-31.863763 Y14.387358 Z-0.125000
G01 X-31.829343 Y14.372437 Z-0.125000
G01 X-31.816600 Y14.340195 Z-0.125000
G01 X-31.829256 Y14.307736 Z-0.125000
G01 X-31.864638 Y14.292205 Z-0.125000
G01 X-31.865562 Y14.292205 Z-0.125000
G01 X-31.865562 Y14.292205 Z-0.125000
G00 Z5.000000

(End cutting path id: path5365)


(Start cutting path id: path5365)
(Change tool to Default tool)

G00 Z5.000000
G00 X-31.900861 Y13.809587

G01 Z-0.125000 F100.0(Penetrate)
G01 X-31.900861 Y14.217279 Z-0.125000 F400.000000
G01 X-31.826811 Y14.217279 Z-0.125000
G01 X-31.826811 Y13.809587 Z-0.125000
G01 X-31.900861 Y13.809587 Z-0.125000
G01 X-31.900861 Y13.809587 Z-0.125000
G00 Z5.000000

(End cutting path id: path5365)


(Start cutting path id: path5363)
(Change tool to Default tool)

G00 Z5.000000
G00 X-31.987699 Y13.823931

G01 Z-0.125000 F100.0(Penetrate)
G01 X-32.019436 Y13.811979 Z-0.125000 F400.000000
G01 X-32.104732 Y13.800398 Z-0.125000
G01 X-32.247836 Y13.861086 Z-0.125000
G01 X-32.307727 Y14.009179 Z-0.125000
G01 X-32.246564 Y14.159815 Z-0.125000
G01 X-32.088784 Y14.226469 Z-0.125000
G01 X-32.019987 Y14.217867 Z-0.125000
G01 X-31.986046 Y14.204541 Z-0.125000
G01 X-32.002918 Y14.148091 Z-0.125000
G01 X-32.030173 Y14.159091 Z-0.125000
G01 X-32.088832 Y14.167442 Z-0.125000
G01 X-32.195208 Y14.117287 Z-0.125000
G01 X-32.232849 Y14.012485 Z-0.125000
G01 X-32.186968 Y13.900197 Z-0.125000
G01 X-32.091361 Y13.860057 Z-0.125000
G01 X-32.031598 Y13.868294 Z-0.125000
G01 X-32.000438 Y13.879359 Z-0.125000
G01 X-31.987699 Y13.823931 Z-0.125000
G01 X-31.987699 Y13.823931 Z-0.125000
G00 Z5.000000

(End cutting path id: path5363)


(Start cutting path id: path5361)
(Change tool to Default tool)

G00 Z5.000000
G00 X-32.365003 Y13.823931

G01 Z-0.125000 F100.0(Penetrate)
G01 X-32.396719 Y13.811985 Z-0.125000 F400.000000
G01 X-32.482035 Y13.800398 Z-0.125000
G01 X-32.625110 Y13.861091 Z-0.125000
G01 X-32.684981 Y14.009179 Z-0.125000
G01 X-32.623840 Y14.159779 Z-0.125000
G01 X-32.465990 Y14.226469 Z-0.125000
G01 X-32.397228 Y14.217878 Z-0.125000
G01 X-32.363301 Y14.204541 Z-0.125000
G01 X-32.380173 Y14.148091 Z-0.125000
G01 X-32.407412 Y14.159089 Z-0.125000
G01 X-32.466038 Y14.167442 Z-0.125000
G01 X-32.572523 Y14.117280 Z-0.125000
G01 X-32.610201 Y14.012485 Z-0.125000
G01 X-32.564233 Y13.900145 Z-0.125000
G01 X-32.468615 Y13.860057 Z-0.125000
G01 X-32.408817 Y13.868302 Z-0.125000
G01 X-32.377644 Y13.879359 Z-0.125000
G01 X-32.365003 Y13.823931 Z-0.125000
G01 X-32.365003 Y13.823931 Z-0.125000
G00 Z5.000000

(End cutting path id: path5361)


(Start cutting path id: path5359)
(Change tool to Default tool)

G00 Z5.000000
G00 X-33.016775 Y13.800398

G01 Z-0.125000 F100.0(Penetrate)
G01 X-33.192077 Y13.878889 Z-0.125000 F400.000000
G01 X-33.271990 Y14.088384 Z-0.125000
G01 X-33.186958 Y14.307978 Z-0.125000
G01 X-33.009239 Y14.386482 Z-0.125000
G01 X-32.829971 Y14.304721 Z-0.125000
G01 X-32.753246 Y14.099323 Z-0.125000
G01 X-32.847332 Y13.870711 Z-0.125000
G01 X-33.015997 Y13.800398 Z-0.125000
G01 X-33.016775 Y13.800398 Z-0.125000
G01 X-33.016775 Y13.800398 Z-0.125000
G01 X-33.016775 Y13.800398 Z-0.125000
G00 Z5.000000

(End cutting path id: path5359)


(Start cutting path id: path5359)
(Change tool to Default tool)

G00 Z5.000000
G00 X-33.013372 Y13.860154

G01 Z-0.125000 F100.0(Penetrate)
G01 X-32.883551 Y13.928370 Z-0.125000 F400.000000
G01 X-32.831430 Y14.095920 Z-0.125000
G01 X-32.875148 Y14.250087 Z-0.125000
G01 X-33.012545 Y14.326775 Z-0.125000
G01 X-33.147623 Y14.252891 Z-0.125000
G01 X-33.195314 Y14.090037 Z-0.125000
G01 X-33.146139 Y13.930034 Z-0.125000
G01 X-33.014247 Y13.860154 Z-0.125000
G01 X-33.013372 Y13.860154 Z-0.125000
G01 X-33.013372 Y13.860154 Z-0.125000
G00 Z5.000000

(End cutting path id: path5359)


(Start cutting path id: path5355)
(Change tool to Default tool)

G00 Z5.000000
G00 X-58.437254 Y16.617775

G01 Z-0.125000 F100.0(Penetrate)
G01 X-58.363204 Y16.617775 Z-0.125000 F400.000000
G01 X-58.363204 Y16.019779 Z-0.125000
G01 X-58.437254 Y16.019779 Z-0.125000
G01 X-58.437254 Y16.617775 Z-0.125000
G01 X-58.437254 Y16.617775 Z-0.125000
G00 Z5.000000

(End cutting path id: path5355)


(Start cutting path id: path5353)
(Change tool to Default tool)

G00 Z5.000000
G00 X-58.556037 Y16.117508

G01 Z-0.125000 F100.0(Penetrate)
G03 X-58.554556 Y16.062956 Z-0.125000 I1.005836 J0.000000 F400.000000
G01 X-58.550154 Y16.019779 Z-0.125000
G01 X-58.616668 Y16.019779 Z-0.125000
G01 X-58.623426 Y16.071123 Z-0.125000
G01 X-58.625906 Y16.071123 Z-0.125000
G01 X-58.668104 Y16.032312 Z-0.125000
G01 X-58.750572 Y16.010540 Z-0.125000
G01 X-58.847588 Y16.054425 Z-0.125000
G01 X-58.875189 Y16.127621 Z-0.125000
G01 X-58.820469 Y16.225703 Z-0.125000
G01 X-58.630087 Y16.279126 Z-0.125000
G01 X-58.630087 Y16.287538 Z-0.125000
G01 X-58.640332 Y16.331261 Z-0.125000
G01 X-58.722760 Y16.381863 Z-0.125000
G01 X-58.781656 Y16.373784 Z-0.125000
G01 X-58.829679 Y16.351524 Z-0.125000
G01 X-58.846502 Y16.401215 Z-0.125000
G01 X-58.790369 Y16.425933 Z-0.125000
G01 X-58.711772 Y16.436611 Z-0.125000
G01 X-58.585078 Y16.367908 Z-0.125000
G01 X-58.555988 Y16.269888 Z-0.125000
G01 X-58.555988 Y16.117508 Z-0.125000
G01 X-58.556037 Y16.117508 Z-0.125000
G00 Z5.000000

(End cutting path id: path5353)


(Start cutting path id: path5353)
(Change tool to Default tool)

G00 Z5.000000
G00 X-58.628434 Y16.227879

G01 Z-0.125000 F100.0(Penetrate)
G01 X-58.745168 Y16.211591 Z-0.125000 F400.000000
G01 X-58.801089 Y16.135984 Z-0.125000
G01 X-58.776084 Y16.081553 Z-0.125000
G01 X-58.732047 Y16.065240 Z-0.125000
G01 X-58.661443 Y16.090660 Z-0.125000
G01 X-58.631789 Y16.133553 Z-0.125000
G01 X-58.629141 Y16.145348 Z-0.125000
G01 X-58.628434 Y16.157134 Z-0.125000
G01 X-58.628434 Y16.227879 Z-0.125000
G01 X-58.628434 Y16.227879 Z-0.125000
G00 Z5.000000

(End cutting path id: path5353)


(Start cutting path id: path5351)
(Change tool to Default tool)

G00 Z5.000000
G00 X-59.545534 Y16.317148

G01 Z-0.125000 F100.0(Penetrate)
G03 X-59.546754 Y16.378942 Z-0.125000 I-1.565825 J0.000000 F400.000000
G03 X-59.548938 Y16.427470 Z-0.125000 I-4.417642 J-0.174475
G01 X-59.484077 Y16.427470 Z-0.125000
G01 X-59.480722 Y16.361783 Z-0.125000
G01 X-59.478194 Y16.361783 Z-0.125000
G01 X-59.436553 Y16.407996 Z-0.125000
G01 X-59.349346 Y16.436660 Z-0.125000
G01 X-59.277561 Y16.412602 Z-0.125000
G01 X-59.234843 Y16.354976 Z-0.125000
G01 X-59.233189 Y16.354976 Z-0.125000
G01 X-59.210162 Y16.387118 Z-0.125000
G01 X-59.186853 Y16.408070 Z-0.125000
G01 X-59.149821 Y16.427878 Z-0.125000
G01 X-59.097584 Y16.436660 Z-0.125000
G01 X-59.034023 Y16.413347 Z-0.125000
G01 X-58.962853 Y16.259726 Z-0.125000
G01 X-58.962853 Y16.019730 Z-0.125000
G01 X-59.035251 Y16.019730 Z-0.125000
G01 X-59.035251 Y16.250537 Z-0.125000
G01 X-59.063999 Y16.344261 Z-0.125000
G01 X-59.123694 Y16.375932 Z-0.125000
G01 X-59.180461 Y16.354769 Z-0.125000
G01 X-59.212088 Y16.309515 Z-0.125000
G01 X-59.216291 Y16.292015 Z-0.125000
G01 X-59.217971 Y16.272416 Z-0.125000
G01 X-59.217971 Y16.019730 Z-0.125000
G01 X-59.290417 Y16.019730 Z-0.125000
G01 X-59.290417 Y16.263956 Z-0.125000
G01 X-59.315677 Y16.344654 Z-0.125000
G01 X-59.375456 Y16.375932 Z-0.125000
G01 X-59.436254 Y16.351557 Z-0.125000
G01 X-59.467254 Y16.301832 Z-0.125000
G01 X-59.471730 Y16.284804 Z-0.125000
G01 X-59.473137 Y16.265561 Z-0.125000
G01 X-59.473137 Y16.019681 Z-0.125000
G01 X-59.545534 Y16.019681 Z-0.125000
G01 X-59.545534 Y16.317148 Z-0.125000
G01 X-59.545534 Y16.317148 Z-0.125000
G01 X-59.545534 Y16.317148 Z-0.125000
G00 Z5.000000

(End cutting path id: path5351)


(Start cutting path id: path5349)
(Change tool to Default tool)

G00 Z5.000000
G00 X-59.707250 Y16.502396

G01 Z-0.125000 F100.0(Penetrate)
G01 X-59.740915 Y16.517382 Z-0.125000 F400.000000
G01 X-59.753586 Y16.550386 Z-0.125000
G01 X-59.740515 Y16.582716 Z-0.125000
G01 X-59.705548 Y16.597549 Z-0.125000
G01 X-59.671106 Y16.582606 Z-0.125000
G01 X-59.658385 Y16.550386 Z-0.125000
G01 X-59.671002 Y16.517955 Z-0.125000
G01 X-59.706375 Y16.502396 Z-0.125000
G01 X-59.707250 Y16.502396 Z-0.125000
G01 X-59.707250 Y16.502396 Z-0.125000
G00 Z5.000000

(End cutting path id: path5349)


(Start cutting path id: path5349)
(Change tool to Default tool)

G00 Z5.000000
G00 X-59.742598 Y16.019827

G01 Z-0.125000 F100.0(Penetrate)
G01 X-59.742598 Y16.427470 Z-0.125000 F400.000000
G01 X-59.668498 Y16.427470 Z-0.125000
G01 X-59.668498 Y16.019827 Z-0.125000
G01 X-59.742598 Y16.019827 Z-0.125000
G01 X-59.742598 Y16.019827 Z-0.125000
G00 Z5.000000

(End cutting path id: path5349)


(Start cutting path id: path5347)
(Change tool to Default tool)

G00 Z5.000000
G00 X-60.020421 Y16.300228

G01 Z-0.125000 F100.0(Penetrate)
G03 X-60.021278 Y16.371232 Z-0.125000 I-2.944218 J0.000000 F400.000000
G03 X-60.023825 Y16.427422 Z-0.125000 I-1.327423 J-0.032022
G01 X-59.958964 Y16.427422 Z-0.125000
G01 X-59.955609 Y16.347391 Z-0.125000
G01 X-59.953081 Y16.347391 Z-0.125000
G01 X-59.905399 Y16.414175 Z-0.125000
G01 X-59.839403 Y16.436660 Z-0.125000
G01 X-59.828771 Y16.435946 Z-0.125000
G01 X-59.819225 Y16.434132 Z-0.125000
G01 X-59.819225 Y16.365089 Z-0.125000
G03 X-59.831070 Y16.366201 Z-0.125000 I-0.058023 J-0.554439
G01 X-59.845286 Y16.366791 Z-0.125000
G01 X-59.909208 Y16.340192 Z-0.125000
G01 X-59.944669 Y16.272465 Z-0.125000
G01 X-59.946527 Y16.256025 Z-0.125000
G01 X-59.947197 Y16.237068 Z-0.125000
G01 X-59.947197 Y16.019779 Z-0.125000
G01 X-60.021297 Y16.019779 Z-0.125000
G01 X-60.020421 Y16.300228 Z-0.125000
G01 X-60.020421 Y16.300228 Z-0.125000
G00 Z5.000000

(End cutting path id: path5347)


(Start cutting path id: path5345)
(Change tool to Default tool)

G00 Z5.000000
G00 X-60.108037 Y16.034171

G01 Z-0.125000 F100.0(Penetrate)
G01 X-60.139826 Y16.022186 Z-0.125000 F400.000000
G01 X-60.225070 Y16.010540 Z-0.125000
G01 X-60.368155 Y16.071272 Z-0.125000
G01 X-60.428016 Y16.219419 Z-0.125000
G01 X-60.366874 Y16.370034 Z-0.125000
G01 X-60.209073 Y16.436709 Z-0.125000
G01 X-60.140289 Y16.428118 Z-0.125000
G01 X-60.106336 Y16.414829 Z-0.125000
G01 X-60.123207 Y16.358331 Z-0.125000
G01 X-60.150504 Y16.369356 Z-0.125000
G01 X-60.209073 Y16.377682 Z-0.125000
G01 X-60.315448 Y16.327528 Z-0.125000
G01 X-60.353090 Y16.222725 Z-0.125000
G01 X-60.307161 Y16.110391 Z-0.125000
G01 X-60.211601 Y16.070296 Z-0.125000
G01 X-60.151845 Y16.078487 Z-0.125000
G01 X-60.120630 Y16.089599 Z-0.125000
G01 X-60.108037 Y16.034171 Z-0.125000
G01 X-60.108037 Y16.034171 Z-0.125000
G00 Z5.000000

(End cutting path id: path5345)


(Start cutting path id: path5343)
(Change tool to Default tool)

G00 Z5.000000
G00 X-60.517285 Y16.117508

G01 Z-0.125000 F100.0(Penetrate)
G03 X-60.515826 Y16.062959 Z-0.125000 I1.020104 J-0.000000 F400.000000
G01 X-60.511402 Y16.019779 Z-0.125000
G01 X-60.578014 Y16.019779 Z-0.125000
G01 X-60.584723 Y16.071123 Z-0.125000
G01 X-60.587252 Y16.071123 Z-0.125000
G01 X-60.629433 Y16.032317 Z-0.125000
G01 X-60.711869 Y16.010540 Z-0.125000
G01 X-60.808900 Y16.054444 Z-0.125000
G01 X-60.836486 Y16.127621 Z-0.125000
G01 X-60.781779 Y16.225697 Z-0.125000
G01 X-60.591433 Y16.279126 Z-0.125000
G01 X-60.591433 Y16.287538 Z-0.125000
G01 X-60.601667 Y16.331258 Z-0.125000
G01 X-60.684057 Y16.381863 Z-0.125000
G01 X-60.743023 Y16.373774 Z-0.125000
G01 X-60.790976 Y16.351524 Z-0.125000
G01 X-60.807848 Y16.401215 Z-0.125000
G01 X-60.751714 Y16.425933 Z-0.125000
G01 X-60.673117 Y16.436611 Z-0.125000
G01 X-60.546391 Y16.367912 Z-0.125000
G01 X-60.517285 Y16.269888 Z-0.125000
G01 X-60.517285 Y16.117508 Z-0.125000
G01 X-60.517285 Y16.117508 Z-0.125000
G01 X-60.517285 Y16.117508 Z-0.125000
G00 Z5.000000

(End cutting path id: path5343)


(Start cutting path id: path5343)
(Change tool to Default tool)

G00 Z5.000000
G00 X-60.589780 Y16.227879

G01 Z-0.125000 F100.0(Penetrate)
G01 X-60.706514 Y16.211591 Z-0.125000 F400.000000
G01 X-60.762435 Y16.135984 Z-0.125000
G01 X-60.737430 Y16.081553 Z-0.125000
G01 X-60.693393 Y16.065240 Z-0.125000
G01 X-60.622738 Y16.090677 Z-0.125000
G01 X-60.593135 Y16.133553 Z-0.125000
G01 X-60.590469 Y16.145354 Z-0.125000
G01 X-60.589780 Y16.157134 Z-0.125000
G01 X-60.589780 Y16.227879 Z-0.125000
G01 X-60.589780 Y16.227879 Z-0.125000
G00 Z5.000000

(End cutting path id: path5343)


(Start cutting path id: path5341)
(Change tool to Default tool)

G00 Z5.000000
G00 X-61.200370 Y16.587387

G01 Z-0.125000 F100.0(Penetrate)
G01 X-61.126271 Y16.587387 Z-0.125000 F400.000000
G01 X-61.126271 Y16.081333 Z-0.125000
G01 X-60.883746 Y16.081333 Z-0.125000
G01 X-60.883746 Y16.019779 Z-0.125000
G01 X-61.200370 Y16.019779 Z-0.125000
G01 X-61.200370 Y16.587387 Z-0.125000
G01 X-61.200370 Y16.587387 Z-0.125000
G00 Z5.000000

(End cutting path id: path5341)


(Start cutting path id: path5337)
(Change tool to Default tool)

G00 Z5.000000
G00 X-57.070064 Y19.802926

G01 Z-0.125000 F100.0(Penetrate)
G01 X-56.995965 Y19.802926 Z-0.125000 F400.000000
G01 X-56.995965 Y19.204929 Z-0.125000
G01 X-57.070064 Y19.204929 Z-0.125000
G01 X-57.070064 Y19.802926 Z-0.125000
G01 X-57.070064 Y19.802926 Z-0.125000
G00 Z5.000000

(End cutting path id: path5337)


(Start cutting path id: path5335)
(Change tool to Default tool)

G00 Z5.000000
G00 X-57.188798 Y19.302659

G01 Z-0.125000 F100.0(Penetrate)
G03 X-57.187321 Y19.248113 Z-0.125000 I1.007768 J0.000000 F400.000000
G01 X-57.182915 Y19.204881 Z-0.125000
G01 X-57.249478 Y19.204881 Z-0.125000
G01 X-57.256285 Y19.256274 Z-0.125000
G01 X-57.258764 Y19.256274 Z-0.125000
G01 X-57.300923 Y19.217504 Z-0.125000
G01 X-57.383382 Y19.195740 Z-0.125000
G01 X-57.480445 Y19.239666 Z-0.125000
G01 X-57.507999 Y19.312772 Z-0.125000
G01 X-57.453280 Y19.410861 Z-0.125000
G01 X-57.262897 Y19.464326 Z-0.125000
G01 X-57.262897 Y19.472688 Z-0.125000
G01 X-57.273142 Y19.516412 Z-0.125000
G01 X-57.355570 Y19.567014 Z-0.125000
G01 X-57.414487 Y19.558911 Z-0.125000
G01 X-57.462440 Y19.536674 Z-0.125000
G01 X-57.479263 Y19.586366 Z-0.125000
G01 X-57.423221 Y19.611039 Z-0.125000
G01 X-57.344533 Y19.621714 Z-0.125000
G01 X-57.217825 Y19.553041 Z-0.125000
G01 X-57.188701 Y19.454990 Z-0.125000
G01 X-57.188701 Y19.302610 Z-0.125000
G01 X-57.188798 Y19.302610 Z-0.125000
G01 X-57.188798 Y19.302659 Z-0.125000
G00 Z5.000000

(End cutting path id: path5335)


(Start cutting path id: path5335)
(Change tool to Default tool)

G00 Z5.000000
G00 X-57.261195 Y19.413078

G01 Z-0.125000 F100.0(Penetrate)
G01 X-57.377905 Y19.396848 Z-0.125000 F400.000000
G01 X-57.433851 Y19.321232 Z-0.125000
G01 X-57.408845 Y19.266801 Z-0.125000
G01 X-57.364808 Y19.250488 Z-0.125000
G01 X-57.294158 Y19.275914 Z-0.125000
G01 X-57.264599 Y19.318753 Z-0.125000
G01 X-57.261924 Y19.330702 Z-0.125000
G01 X-57.261244 Y19.342334 Z-0.125000
G01 X-57.261244 Y19.413078 Z-0.125000
G01 X-57.261195 Y19.413078 Z-0.125000
G00 Z5.000000

(End cutting path id: path5335)


(Start cutting path id: path5333)
(Change tool to Default tool)

G00 Z5.000000
G00 X-57.819566 Y19.279953

G01 Z-0.125000 F100.0(Penetrate)
G01 X-57.780325 Y19.261579 Z-0.125000 F400.000000
G01 X-57.721058 Y19.251314 Z-0.125000
G01 X-57.659786 Y19.274345 Z-0.125000
G01 X-57.642729 Y19.311946 Z-0.125000
G01 X-57.658519 Y19.349337 Z-0.125000
G01 X-57.717703 Y19.386823 Z-0.125000
G01 X-57.804029 Y19.444675 Z-0.125000
G01 X-57.826373 Y19.502299 Z-0.125000
G01 X-57.792201 Y19.580268 Z-0.125000
G01 X-57.685710 Y19.621859 Z-0.125000
G01 X-57.622860 Y19.613220 Z-0.125000
G01 X-57.586328 Y19.596576 Z-0.125000
G01 X-57.604026 Y19.543530 Z-0.125000
G01 X-57.630171 Y19.556178 Z-0.125000
G01 X-57.687364 Y19.567112 Z-0.125000
G01 X-57.739492 Y19.546619 Z-0.125000
G01 X-57.754753 Y19.511586 Z-0.125000
G01 X-57.738218 Y19.476560 Z-0.125000
G01 X-57.678126 Y19.441668 Z-0.125000
G01 X-57.598693 Y19.388589 Z-0.125000
G01 X-57.571158 Y19.318704 Z-0.125000
G01 X-57.608751 Y19.237589 Z-0.125000
G01 X-57.722760 Y19.195789 Z-0.125000
G01 X-57.790446 Y19.204736 Z-0.125000
G01 X-57.837264 Y19.224329 Z-0.125000
G01 X-57.819566 Y19.279953 Z-0.125000
G01 X-57.819566 Y19.279953 Z-0.125000
G00 Z5.000000

(End cutting path id: path5333)


(Start cutting path id: path5331)
(Change tool to Default tool)

G00 Z5.000000
G00 X-57.928138 Y19.302659

G01 Z-0.125000 F100.0(Penetrate)
G03 X-57.926660 Y19.248113 Z-0.125000 I1.007768 J0.000000 F400.000000
G01 X-57.922254 Y19.204881 Z-0.125000
G01 X-57.988817 Y19.204881 Z-0.125000
G01 X-57.995527 Y19.256274 Z-0.125000
G01 X-57.998056 Y19.256274 Z-0.125000
G01 X-58.040274 Y19.217489 Z-0.125000
G01 X-58.122673 Y19.195740 Z-0.125000
G01 X-58.219721 Y19.239647 Z-0.125000
G01 X-58.247290 Y19.312772 Z-0.125000
G01 X-58.192599 Y19.410841 Z-0.125000
G01 X-58.002237 Y19.464326 Z-0.125000
G01 X-58.002237 Y19.472688 Z-0.125000
G01 X-58.012471 Y19.516409 Z-0.125000
G01 X-58.094861 Y19.567014 Z-0.125000
G01 X-58.153828 Y19.558907 Z-0.125000
G01 X-58.201829 Y19.536674 Z-0.125000
G01 X-58.218700 Y19.586366 Z-0.125000
G01 X-58.162578 Y19.611039 Z-0.125000
G01 X-58.083970 Y19.621714 Z-0.125000
G01 X-57.957262 Y19.553041 Z-0.125000
G01 X-57.928138 Y19.454990 Z-0.125000
G01 X-57.928138 Y19.302659 Z-0.125000
G01 X-57.928138 Y19.302659 Z-0.125000
G00 Z5.000000

(End cutting path id: path5331)


(Start cutting path id: path5331)
(Change tool to Default tool)

G00 Z5.000000
G00 X-58.000535 Y19.413078

G01 Z-0.125000 F100.0(Penetrate)
G01 X-58.117293 Y19.396816 Z-0.125000 F400.000000
G01 X-58.173190 Y19.321232 Z-0.125000
G01 X-58.148185 Y19.266801 Z-0.125000
G01 X-58.104148 Y19.250488 Z-0.125000
G01 X-58.033497 Y19.275914 Z-0.125000
G01 X-58.003939 Y19.318753 Z-0.125000
G01 X-58.001264 Y19.330702 Z-0.125000
G01 X-58.000584 Y19.342334 Z-0.125000
G01 X-58.000584 Y19.413078 Z-0.125000
G01 X-58.000535 Y19.413078 Z-0.125000
G00 Z5.000000

(End cutting path id: path5331)


(Start cutting path id: path5329)
(Change tool to Default tool)

G00 Z5.000000
G00 X-58.765255 Y19.204978

G01 Z-0.125000 F100.0(Penetrate)
G01 X-58.765255 Y19.772586 Z-0.125000 F400.000000
G01 X-58.684398 Y19.772586 Z-0.125000
G01 X-58.503331 Y19.485427 Z-0.125000
G02 X-58.444712 Y19.386023 Z-0.125000 I-2.135672 J-1.326398
G02 X-58.402247 Y19.301054 Z-0.125000 I-0.893870 J-0.499830
G01 X-58.399767 Y19.301881 Z-0.125000
G02 X-58.406229 Y19.409820 Z-0.125000 I1.890548 J0.167348
G02 X-58.408179 Y19.534341 Z-0.125000 I3.976124 J0.124520
G01 X-58.408179 Y19.772635 Z-0.125000
G01 X-58.339136 Y19.772635 Z-0.125000
G01 X-58.339136 Y19.205027 Z-0.125000
G01 X-58.413235 Y19.205027 Z-0.125000
G01 X-58.593475 Y19.493061 Z-0.125000
G02 X-58.651931 Y19.590737 Z-0.125000 I2.276582 J1.428788
G02 X-58.698741 Y19.682539 Z-0.125000 I0.961344 J0.548024
G01 X-58.701269 Y19.681664 Z-0.125000
G02 X-58.697391 Y19.580535 Z-0.125000 I-2.449958 J-0.144604
G02 X-58.696213 Y19.447551 Z-0.125000 I-7.505884 J-0.132984
G01 X-58.696213 Y19.204929 Z-0.125000
G01 X-58.765255 Y19.204929 Z-0.125000
G01 X-58.765255 Y19.204978 Z-0.125000
G00 Z5.000000

(End cutting path id: path5329)


(Start cutting path id: path5325)
(Change tool to Default tool)

G00 Z5.000000
G00 X-58.019498 Y8.171964

G01 Z-0.125000 F100.0(Penetrate)
G01 X-57.967457 Y8.062270 Z-0.125000 F400.000000
G01 X-57.880537 Y8.030475 Z-0.125000
G01 X-57.806675 Y8.038539 Z-0.125000
G01 X-57.767686 Y8.050702 Z-0.125000
G01 X-57.754218 Y7.998482 Z-0.125000
G01 X-57.794689 Y7.984368 Z-0.125000
G01 X-57.890650 Y7.972421 Z-0.125000
G01 X-58.033933 Y8.034149 Z-0.125000
G01 X-58.091117 Y8.177896 Z-0.125000
G01 X-58.035926 Y8.333421 Z-0.125000
G01 X-57.899062 Y8.398589 Z-0.125000
G01 X-57.756526 Y8.311117 Z-0.125000
G01 X-57.731512 Y8.206631 Z-0.125000
G01 X-57.732308 Y8.183912 Z-0.125000
G01 X-57.733992 Y8.171235 Z-0.125000
G01 X-58.019498 Y8.171964 Z-0.125000
G01 X-58.019498 Y8.171964 Z-0.125000
G00 Z5.000000

(End cutting path id: path5325)


(Start cutting path id: path5325)
(Change tool to Default tool)

G00 Z5.000000
G00 X-57.803083 Y8.225059

G01 Z-0.125000 F100.0(Penetrate)
G01 X-57.817281 Y8.290357 Z-0.125000 F400.000000
G01 X-57.904945 Y8.345543 Z-0.125000
G01 X-57.993156 Y8.297071 Z-0.125000
G01 X-58.018622 Y8.225059 Z-0.125000
G01 X-57.803083 Y8.225059 Z-0.125000
G01 X-57.803083 Y8.225059 Z-0.125000
G00 Z5.000000

(End cutting path id: path5325)


(Start cutting path id: path5323)
(Change tool to Default tool)

G00 Z5.000000
G00 X-58.258667 Y8.578781

G01 Z-0.125000 F100.0(Penetrate)
G01 X-58.184568 Y8.578781 Z-0.125000 F400.000000
G01 X-58.184568 Y7.980735 Z-0.125000
G01 X-58.258667 Y7.980735 Z-0.125000
G01 X-58.258667 Y8.578781 Z-0.125000
G01 X-58.258667 Y8.578781 Z-0.125000
G00 Z5.000000

(End cutting path id: path5323)


(Start cutting path id: path5321)
(Change tool to Default tool)

G00 Z5.000000
G00 X-58.737881 Y8.578781

G01 Z-0.125000 F100.0(Penetrate)
G01 X-58.663782 Y8.578781 Z-0.125000 F400.000000
G01 X-58.663782 Y8.323518 Z-0.125000
G01 X-58.662080 Y8.323518 Z-0.125000
G01 X-58.610840 Y8.374514 Z-0.125000
G01 X-58.523120 Y8.397666 Z-0.125000
G01 X-58.406685 Y8.343193 Z-0.125000
G01 X-58.351340 Y8.190538 Z-0.125000
G01 X-58.425224 Y8.015998 Z-0.125000
G01 X-58.534935 Y7.971546 Z-0.125000
G01 X-58.611748 Y7.990678 Z-0.125000
G01 X-58.671367 Y8.048174 Z-0.125000
G01 X-58.673069 Y8.048174 Z-0.125000
G01 X-58.677250 Y7.980784 Z-0.125000
G01 X-58.741236 Y7.980784 Z-0.125000
G03 X-58.738624 Y8.026544 Z-0.125000 I-0.712133 J0.063606
G03 X-58.737881 Y8.086050 Z-0.125000 I-2.383296 J0.059506
G01 X-58.737881 Y8.578781 Z-0.125000
G01 X-58.737881 Y8.578781 Z-0.125000
G00 Z5.000000

(End cutting path id: path5321)


(Start cutting path id: path5321)
(Change tool to Default tool)

G00 Z5.000000
G00 X-58.663734 Y8.144153

G01 Z-0.125000 F100.0(Penetrate)
G01 X-58.663098 Y8.130157 Z-0.125000 F400.000000
G01 X-58.661205 Y8.117216 Z-0.125000
G01 X-58.619840 Y8.054818 Z-0.125000
G01 X-58.550056 Y8.030475 Z-0.125000
G01 X-58.464651 Y8.072915 Z-0.125000
G01 X-58.426266 Y8.187134 Z-0.125000
G01 X-58.459553 Y8.293557 Z-0.125000
G01 X-58.547528 Y8.339611 Z-0.125000
G01 X-58.615019 Y8.316429 Z-0.125000
G01 X-58.659503 Y8.248592 Z-0.125000
G01 X-58.662424 Y8.234769 Z-0.125000
G01 X-58.663734 Y8.217425 Z-0.125000
G01 X-58.663734 Y8.144153 Z-0.125000
G01 X-58.663734 Y8.144153 Z-0.125000
G00 Z5.000000

(End cutting path id: path5321)


(Start cutting path id: path5319)
(Change tool to Default tool)

G00 Z5.000000
G00 X-58.899548 Y8.463305

G01 Z-0.125000 F100.0(Penetrate)
G01 X-58.933174 Y8.478314 Z-0.125000 F400.000000
G01 X-58.945836 Y8.511391 Z-0.125000
G01 X-58.932826 Y8.543672 Z-0.125000
G01 X-58.897846 Y8.558554 Z-0.125000
G01 X-58.863403 Y8.543609 Z-0.125000
G01 X-58.850683 Y8.511391 Z-0.125000
G01 X-58.863311 Y8.478881 Z-0.125000
G01 X-58.898673 Y8.463305 Z-0.125000
G01 X-58.899548 Y8.463305 Z-0.125000
G01 X-58.899548 Y8.463305 Z-0.125000
G00 Z5.000000

(End cutting path id: path5319)


(Start cutting path id: path5319)
(Change tool to Default tool)

G00 Z5.000000
G00 X-58.934896 Y7.980784

G01 Z-0.125000 F100.0(Penetrate)
G01 X-58.934896 Y8.388427 Z-0.125000 F400.000000
G01 X-58.860797 Y8.388427 Z-0.125000
G01 X-58.860797 Y7.980784 Z-0.125000
G01 X-58.934896 Y7.980784 Z-0.125000
G01 X-58.934896 Y7.980784 Z-0.125000
G00 Z5.000000

(End cutting path id: path5319)


(Start cutting path id: path5317)
(Change tool to Default tool)

G00 Z5.000000
G00 X-59.057860 Y8.578781

G01 Z-0.125000 F100.0(Penetrate)
G01 X-59.057860 Y8.086001 Z-0.125000 F400.000000
G03 X-59.057117 Y8.026541 Z-0.125000 I2.379432 J-0.000000
G03 X-59.054505 Y7.980735 Z-0.125000 I0.717508 J0.017936
G01 X-59.121019 Y7.980735 Z-0.125000
G01 X-59.124374 Y8.051529 Z-0.125000
G01 X-59.126076 Y8.051529 Z-0.125000
G01 X-59.174152 Y7.997953 Z-0.125000
G01 X-59.264161 Y7.971497 Z-0.125000
G01 X-59.380899 Y8.024159 Z-0.125000
G01 X-59.439345 Y8.178674 Z-0.125000
G01 X-59.374086 Y8.346386 Z-0.125000
G01 X-59.256625 Y8.397617 Z-0.125000
G01 X-59.169937 Y8.373662 Z-0.125000
G01 X-59.133661 Y8.336111 Z-0.125000
G01 X-59.131959 Y8.336111 Z-0.125000
G01 X-59.131959 Y8.578635 Z-0.125000
G01 X-59.057860 Y8.578635 Z-0.125000
G01 X-59.057860 Y8.578781 Z-0.125000
G01 X-59.057860 Y8.578781 Z-0.125000
G00 Z5.000000

(End cutting path id: path5317)


(Start cutting path id: path5317)
(Change tool to Default tool)

G00 Z5.000000
G00 X-59.131959 Y8.222579

G01 Z-0.125000 F100.0(Penetrate)
G01 X-59.132633 Y8.238467 Z-0.125000 F400.000000
G01 X-59.135314 Y8.254524 Z-0.125000
G01 X-59.169935 Y8.312274 Z-0.125000
G01 X-59.242233 Y8.339611 Z-0.125000
G01 X-59.327558 Y8.296161 Z-0.125000
G01 X-59.364370 Y8.182953 Z-0.125000
G01 X-59.330974 Y8.076765 Z-0.125000
G01 X-59.243886 Y8.031351 Z-0.125000
G01 X-59.178164 Y8.053833 Z-0.125000
G01 X-59.135266 Y8.119842 Z-0.125000
G01 X-59.132717 Y8.134706 Z-0.125000
G01 X-59.131911 Y8.151738 Z-0.125000
G01 X-59.131911 Y8.222579 Z-0.125000
G01 X-59.131959 Y8.222579 Z-0.125000
G00 Z5.000000

(End cutting path id: path5317)


(Start cutting path id: path5315)
(Change tool to Default tool)

G00 Z5.000000
G00 X-59.877279 Y8.278154

G01 Z-0.125000 F100.0(Penetrate)
G03 X-59.878165 Y8.339908 Z-0.125000 I-2.153101 J0.000000 F400.000000
G03 X-59.880683 Y8.388427 Z-0.125000 I-1.048600 J-0.030088
G01 X-59.814995 Y8.388427 Z-0.125000
G01 X-59.810814 Y8.322010 Z-0.125000
G01 X-59.809112 Y8.322010 Z-0.125000
G01 X-59.767124 Y8.368967 Z-0.125000
G01 X-59.674382 Y8.397763 Z-0.125000
G01 X-59.605856 Y8.374979 Z-0.125000
G01 X-59.530365 Y8.224281 Z-0.125000
G01 X-59.530365 Y7.980833 Z-0.125000
G01 X-59.604464 Y7.980833 Z-0.125000
G01 X-59.604464 Y8.215821 Z-0.125000
G01 X-59.627510 Y8.297346 Z-0.125000
G01 X-59.698741 Y8.337180 Z-0.125000
G01 X-59.762816 Y8.313761 Z-0.125000
G01 X-59.798124 Y8.261331 Z-0.125000
G01 X-59.801907 Y8.245916 Z-0.125000
G01 X-59.803180 Y8.226809 Z-0.125000
G01 X-59.803180 Y7.980881 Z-0.125000
G01 X-59.877231 Y7.980881 Z-0.125000
G01 X-59.877231 Y8.278154 Z-0.125000
G01 X-59.877279 Y8.278154 Z-0.125000
G00 Z5.000000

(End cutting path id: path5315)


(Start cutting path id: path5313)
(Change tool to Default tool)

G00 Z5.000000
G00 X-59.996013 Y8.078465

G01 Z-0.125000 F100.0(Penetrate)
G03 X-59.994533 Y8.023913 Z-0.125000 I1.005836 J-0.000000 F400.000000
G01 X-59.990130 Y7.980735 Z-0.125000
G01 X-60.056644 Y7.980735 Z-0.125000
G01 X-60.063403 Y8.032128 Z-0.125000
G01 X-60.065931 Y8.032128 Z-0.125000
G01 X-60.108130 Y7.993318 Z-0.125000
G01 X-60.190597 Y7.971546 Z-0.125000
G01 X-60.287651 Y8.015460 Z-0.125000
G01 X-60.315214 Y8.088578 Z-0.125000
G01 X-60.260488 Y8.186684 Z-0.125000
G01 X-60.070113 Y8.240180 Z-0.125000
G01 X-60.070113 Y8.248543 Z-0.125000
G01 X-60.080320 Y8.292194 Z-0.125000
G01 X-60.162785 Y8.342869 Z-0.125000
G01 X-60.221693 Y8.334775 Z-0.125000
G01 X-60.269753 Y8.312578 Z-0.125000
G01 X-60.286576 Y8.362220 Z-0.125000
G01 X-60.230454 Y8.386916 Z-0.125000
G01 X-60.151846 Y8.397617 Z-0.125000
G01 X-60.025184 Y8.328944 Z-0.125000
G01 X-59.996062 Y8.230845 Z-0.125000
G01 X-59.996062 Y8.078465 Z-0.125000
G01 X-59.996013 Y8.078465 Z-0.125000
G00 Z5.000000

(End cutting path id: path5313)


(Start cutting path id: path5313)
(Change tool to Default tool)

G00 Z5.000000
G00 X-60.068460 Y8.188836

G01 Z-0.125000 F100.0(Penetrate)
G01 X-60.185210 Y8.172549 Z-0.125000 F400.000000
G01 X-60.241066 Y8.096990 Z-0.125000
G01 X-60.216023 Y8.042527 Z-0.125000
G01 X-60.172023 Y8.026245 Z-0.125000
G01 X-60.101375 Y8.051632 Z-0.125000
G01 X-60.071766 Y8.094461 Z-0.125000
G01 X-60.069114 Y8.106331 Z-0.125000
G01 X-60.068411 Y8.118043 Z-0.125000
G01 X-60.068411 Y8.188836 Z-0.125000
G01 X-60.068460 Y8.188836 Z-0.125000
G00 Z5.000000

(End cutting path id: path5313)


(Start cutting path id: path5311)
(Change tool to Default tool)

G00 Z5.000000
G00 X-60.484466 Y8.230116

G01 Z-0.125000 F100.0(Penetrate)
G02 X-60.490988 Y8.360336 Z-0.125000 I23.828011 J1.258728 F400.000000
G02 X-60.493704 Y8.475120 Z-0.125000 I2.424269 J0.114783
G01 X-60.495406 Y8.475120 Z-0.125000
G02 X-60.526355 Y8.377286 Z-0.125000 I-6.387500 J1.966839
G02 X-60.566977 Y8.259532 Z-0.125000 I-3.268000 J1.061480
G01 X-60.667234 Y7.984188 Z-0.125000
G01 X-60.722809 Y7.984188 Z-0.125000
G01 X-60.815433 Y8.254572 Z-0.125000
G02 X-60.853606 Y8.375574 Z-0.125000 I3.724202 J1.241401
G02 X-60.880245 Y8.475217 Z-0.125000 I1.753926 J0.522302
G01 X-60.881947 Y8.475217 Z-0.125000
G02 X-60.885826 Y8.361908 Z-0.125000 I-5.570832 J0.134006
G02 X-60.892936 Y8.224281 Z-0.125000 I-9.543717 J0.423985
G01 X-60.908106 Y7.980881 Z-0.125000
G01 X-60.978023 Y7.980881 Z-0.125000
G01 X-60.938445 Y8.548538 Z-0.125000
G01 X-60.844995 Y8.548538 Z-0.125000
G01 X-60.748141 Y8.273972 Z-0.125000
G02 X-60.715013 Y8.169713 Z-0.125000 I-2.938782 J-0.991175
G02 X-60.690864 Y8.082792 Z-0.125000 I-2.271249 J-0.677815
G01 X-60.689163 Y8.082792 Z-0.125000
G02 X-60.664475 Y8.167157 Z-0.125000 I1.662597 J-0.440722
G02 X-60.628531 Y8.273972 Z-0.125000 I3.734264 J-1.197144
G01 X-60.527447 Y8.548538 Z-0.125000
G01 X-60.433997 Y8.548538 Z-0.125000
G01 X-60.398600 Y7.980881 Z-0.125000
G01 X-60.470998 Y7.980881 Z-0.125000
G01 X-60.484466 Y8.230116 Z-0.125000
G01 X-60.484466 Y8.230116 Z-0.125000
G00 Z5.000000

(End cutting path id: path5311)


(Start cutting path id: path5307)
(Change tool to Default tool)

G00 Z5.000000
G00 X-57.278845 Y21.501667

G01 Z-0.125000 F100.0(Penetrate)
G01 X-57.278845 Y21.008936 Z-0.125000 F400.000000
G03 X-57.278072 Y20.949406 Z-0.125000 I2.292250 J0.000000
G03 X-57.275442 Y20.903670 Z-0.125000 I0.727584 J0.018902
G01 X-57.341956 Y20.903670 Z-0.125000
G01 X-57.345359 Y20.974415 Z-0.125000
G01 X-57.347061 Y20.974415 Z-0.125000
G01 X-57.395139 Y20.920863 Z-0.125000
G01 X-57.485146 Y20.894432 Z-0.125000
G01 X-57.601954 Y20.947138 Z-0.125000
G01 X-57.660330 Y21.101511 Z-0.125000
G01 X-57.595044 Y21.269343 Z-0.125000
G01 X-57.477610 Y21.320552 Z-0.125000
G01 X-57.390942 Y21.296601 Z-0.125000
G01 X-57.354598 Y21.258997 Z-0.125000
G01 X-57.352993 Y21.258997 Z-0.125000
G01 X-57.352993 Y21.501618 Z-0.125000
G01 X-57.278942 Y21.501618 Z-0.125000
G01 X-57.278942 Y21.501667 Z-0.125000
G01 X-57.278845 Y21.501667 Z-0.125000
G00 Z5.000000

(End cutting path id: path5307)


(Start cutting path id: path5307)
(Change tool to Default tool)

G00 Z5.000000
G00 X-57.352944 Y21.145417

G01 Z-0.125000 F100.0(Penetrate)
G01 X-57.353618 Y21.161304 Z-0.125000 F400.000000
G01 X-57.356299 Y21.177361 Z-0.125000
G01 X-57.391003 Y21.235189 Z-0.125000
G01 X-57.463267 Y21.262497 Z-0.125000
G01 X-57.548596 Y21.218977 Z-0.125000
G01 X-57.585307 Y21.105839 Z-0.125000
G01 X-57.551925 Y20.999686 Z-0.125000
G01 X-57.464871 Y20.954285 Z-0.125000
G01 X-57.399141 Y20.976771 Z-0.125000
G01 X-57.356251 Y21.042679 Z-0.125000
G01 X-57.353700 Y21.057638 Z-0.125000
G01 X-57.352896 Y21.074769 Z-0.125000
G01 X-57.352896 Y21.145417 Z-0.125000
G01 X-57.352944 Y21.145417 Z-0.125000
G01 X-57.352944 Y21.145417 Z-0.125000
G00 Z5.000000

(End cutting path id: path5307)


(Start cutting path id: path5305)
(Change tool to Default tool)

G00 Z5.000000
G00 X-57.792532 Y21.386288

G01 Z-0.125000 F100.0(Penetrate)
G01 X-57.826224 Y21.401317 Z-0.125000 F400.000000
G01 X-57.838868 Y21.434326 Z-0.125000
G01 X-57.825796 Y21.466643 Z-0.125000
G01 X-57.790782 Y21.481489 Z-0.125000
G01 X-57.756363 Y21.466570 Z-0.125000
G01 X-57.743619 Y21.434326 Z-0.125000
G01 X-57.756229 Y21.401899 Z-0.125000
G01 X-57.791706 Y21.386288 Z-0.125000
G01 X-57.792532 Y21.386288 Z-0.125000
G01 X-57.792532 Y21.386288 Z-0.125000
G00 Z5.000000

(End cutting path id: path5305)


(Start cutting path id: path5305)
(Change tool to Default tool)

G00 Z5.000000
G00 X-57.827929 Y20.903719

G01 Z-0.125000 F100.0(Penetrate)
G01 X-57.827929 Y21.311313 Z-0.125000 F400.000000
G01 X-57.753829 Y21.311313 Z-0.125000
G01 X-57.753829 Y20.903719 Z-0.125000
G01 X-57.827929 Y20.903719 Z-0.125000
G01 X-57.827929 Y20.903719 Z-0.125000
G00 Z5.000000

(End cutting path id: path5305)


(Start cutting path id: path5303)
(Change tool to Default tool)

G00 Z5.000000
G00 X-58.124277 Y20.894481

G01 Z-0.125000 F100.0(Penetrate)
G01 X-58.255747 Y20.949167 Z-0.125000 F400.000000
G01 X-58.319687 Y21.104186 Z-0.125000
G01 X-58.251643 Y21.265965 Z-0.125000
G01 X-58.117567 Y21.320649 Z-0.125000
G01 X-57.980245 Y21.261033 Z-0.125000
G01 X-57.921331 Y21.111722 Z-0.125000
G01 X-58.003215 Y20.937754 Z-0.125000
G01 X-58.123451 Y20.894481 Z-0.125000
G01 X-58.124277 Y20.894481 Z-0.125000
G01 X-58.124277 Y20.894481 Z-0.125000
G01 X-58.124277 Y20.894481 Z-0.125000
G00 Z5.000000

(End cutting path id: path5303)


(Start cutting path id: path5303)
(Change tool to Default tool)

G00 Z5.000000
G00 X-58.121749 Y20.950055

G01 Z-0.125000 F100.0(Penetrate)
G01 X-58.039278 Y20.990072 Z-0.125000 F400.000000
G01 X-57.997958 Y21.109291 Z-0.125000
G01 X-58.022673 Y21.206938 Z-0.125000
G01 X-58.120047 Y21.264977 Z-0.125000
G01 X-58.215536 Y21.211129 Z-0.125000
G01 X-58.244664 Y21.106665 Z-0.125000
G01 X-58.205570 Y20.991112 Z-0.125000
G01 X-58.122624 Y20.950104 Z-0.125000
G01 X-58.121797 Y20.950104 Z-0.125000
G01 X-58.121797 Y20.950055 Z-0.125000
G01 X-58.121749 Y20.950055 Z-0.125000
G00 Z5.000000

(End cutting path id: path5303)


(Start cutting path id: path5301)
(Change tool to Default tool)

G00 Z5.000000
G00 X-58.992610 Y21.200942

G01 Z-0.125000 F100.0(Penetrate)
G03 X-58.993812 Y21.262863 Z-0.125000 I-1.595167 J0.000000 F400.000000
G03 X-58.996013 Y21.311313 Z-0.125000 I-3.685839 J-0.143184
G01 X-58.931152 Y21.311313 Z-0.125000
G01 X-58.927797 Y21.245626 Z-0.125000
G01 X-58.925269 Y21.245626 Z-0.125000
G01 X-58.883614 Y21.291910 Z-0.125000
G01 X-58.796422 Y21.320600 Z-0.125000
G01 X-58.724599 Y21.296499 Z-0.125000
G01 X-58.681918 Y21.238916 Z-0.125000
G01 X-58.680216 Y21.238916 Z-0.125000
G01 X-58.657175 Y21.271091 Z-0.125000
G01 X-58.633880 Y21.291962 Z-0.125000
G01 X-58.596849 Y21.311792 Z-0.125000
G01 X-58.544611 Y21.320600 Z-0.125000
G01 X-58.481016 Y21.297265 Z-0.125000
G01 X-58.409880 Y21.143666 Z-0.125000
G01 X-58.409880 Y20.903670 Z-0.125000
G01 X-58.482278 Y20.903670 Z-0.125000
G01 X-58.482278 Y21.134428 Z-0.125000
G01 X-58.511046 Y21.228253 Z-0.125000
G01 X-58.570720 Y21.259920 Z-0.125000
G01 X-58.627477 Y21.238716 Z-0.125000
G01 X-58.659114 Y21.193358 Z-0.125000
G01 X-58.663297 Y21.175936 Z-0.125000
G01 X-58.664998 Y21.156405 Z-0.125000
G01 X-58.664998 Y20.903670 Z-0.125000
G01 X-58.737444 Y20.903670 Z-0.125000
G01 X-58.737444 Y21.147799 Z-0.125000
G01 X-58.762749 Y21.228603 Z-0.125000
G01 X-58.822532 Y21.259872 Z-0.125000
G01 X-58.883369 Y21.235446 Z-0.125000
G01 X-58.914329 Y21.185773 Z-0.125000
G01 X-58.918804 Y21.168669 Z-0.125000
G01 X-58.920212 Y21.149501 Z-0.125000
G01 X-58.920212 Y20.903573 Z-0.125000
G01 X-58.992610 Y20.903573 Z-0.125000
G01 X-58.992610 Y21.200942 Z-0.125000
G01 X-58.992610 Y21.200942 Z-0.125000
G01 X-58.992610 Y21.200942 Z-0.125000
G00 Z5.000000

(End cutting path id: path5301)


(Start cutting path id: path5299)
(Change tool to Default tool)

G00 Z5.000000
G00 X-59.460009 Y21.501667

G01 Z-0.125000 F100.0(Penetrate)
G01 X-59.385910 Y21.501667 Z-0.125000 F400.000000
G01 X-59.385910 Y21.247279 Z-0.125000
G01 X-59.384208 Y21.247279 Z-0.125000
G01 X-59.362232 Y21.276601 Z-0.125000
G01 X-59.331162 Y21.299498 Z-0.125000
G01 X-59.296248 Y21.314903 Z-0.125000
G01 X-59.255361 Y21.320649 Z-0.125000
G01 X-59.188873 Y21.298406 Z-0.125000
G01 X-59.113046 Y21.146340 Z-0.125000
G01 X-59.113046 Y20.903816 Z-0.125000
G01 X-59.187145 Y20.903816 Z-0.125000
G01 X-59.187145 Y21.137929 Z-0.125000
G01 X-59.210489 Y21.219729 Z-0.125000
G01 X-59.281471 Y21.259191 Z-0.125000
G01 X-59.345279 Y21.236150 Z-0.125000
G01 X-59.380853 Y21.185092 Z-0.125000
G01 X-59.384756 Y21.170140 Z-0.125000
G01 X-59.385910 Y21.149695 Z-0.125000
G01 X-59.385910 Y20.903816 Z-0.125000
G01 X-59.460009 Y20.903816 Z-0.125000
G01 X-59.460009 Y21.501667 Z-0.125000
G01 X-59.460009 Y21.501667 Z-0.125000
G00 Z5.000000

(End cutting path id: path5299)


(Start cutting path id: path5297)
(Change tool to Default tool)

G00 Z5.000000
G00 X-59.649487 Y21.409043

G01 Z-0.125000 F100.0(Penetrate)
G01 X-59.649487 Y21.311265 Z-0.125000 F400.000000
G01 X-59.543346 Y21.311265 Z-0.125000
G01 X-59.543346 Y21.254815 Z-0.125000
G01 X-59.649487 Y21.254815 Z-0.125000
G01 X-59.649487 Y21.034997 Z-0.125000
G01 X-59.632891 Y20.977385 Z-0.125000
G01 X-59.593913 Y20.955841 Z-0.125000
G01 X-59.566277 Y20.957559 Z-0.125000
G01 X-59.550931 Y20.960801 Z-0.125000
G01 X-59.547577 Y20.904448 Z-0.125000
G01 X-59.569929 Y20.898402 Z-0.125000
G01 X-59.613264 Y20.894286 Z-0.125000
G01 X-59.662305 Y20.903860 Z-0.125000
G01 X-59.693247 Y20.925355 Z-0.125000
G01 X-59.713376 Y20.963391 Z-0.125000
G01 X-59.721885 Y21.032274 Z-0.125000
G01 X-59.721885 Y21.254621 Z-0.125000
G01 X-59.785044 Y21.254621 Z-0.125000
G01 X-59.785044 Y21.311070 Z-0.125000
G01 X-59.721885 Y21.311070 Z-0.125000
G01 X-59.721885 Y21.386045 Z-0.125000
G01 X-59.649487 Y21.409043 Z-0.125000
G01 X-59.649487 Y21.409043 Z-0.125000
G00 Z5.000000

(End cutting path id: path5297)


(Start cutting path id: path5295)
(Change tool to Default tool)

G00 Z5.000000
G00 X-59.853260 Y21.169825

G01 Z-0.125000 F100.0(Penetrate)
G01 X-60.073030 Y21.169825 Z-0.125000 F400.000000
G01 X-60.073030 Y20.965176 Z-0.125000
G01 X-59.827151 Y20.965176 Z-0.125000
G01 X-59.827151 Y20.903719 Z-0.125000
G01 X-60.147178 Y20.903719 Z-0.125000
G01 X-60.147178 Y21.471327 Z-0.125000
G01 X-59.839792 Y21.471327 Z-0.125000
G01 X-59.839792 Y21.409869 Z-0.125000
G01 X-60.073030 Y21.409869 Z-0.125000
G01 X-60.073030 Y21.230504 Z-0.125000
G01 X-59.853260 Y21.230504 Z-0.125000
G01 X-59.853260 Y21.169825 Z-0.125000
G01 X-59.853260 Y21.169825 Z-0.125000
G00 Z5.000000

(End cutting path id: path5295)


(Start cutting path id: path5291)
(Change tool to Default tool)

G00 Z5.000000
G00 X-52.869160 Y20.282433

G01 Z-0.125000 F100.0(Penetrate)
G02 X-52.378965 Y19.219240 Z-0.125000 I-1.541181 J-1.355176 F400.000000
G02 X-52.438956 Y18.048806 Z-0.125000 I-3.009116 J-0.432521
G03 X-52.645178 Y16.979028 Z-0.125000 I9.669169 J-2.418699
G02 X-53.880975 Y16.562055 Z-0.125000 I-0.721497 J0.098552
G01 X-53.945585 Y16.752361 Z-0.125000
G03 X-53.981719 Y17.020217 Z-0.125000 I-0.510029 J0.067562
G03 X-54.116670 Y17.258097 Z-0.125000 I-1.094025 J-0.463427
G02 X-54.215443 Y17.535022 Z-0.125000 I0.416701 J0.304706
G02 X-54.010245 Y18.134434 Z-0.125000 I0.845580 J0.045360
G03 X-53.794671 Y18.751388 Z-0.125000 I-0.671106 J0.580634
G03 X-53.933452 Y19.181908 Z-0.125000 I-0.844422 J-0.034576
G02 X-54.020421 Y19.632459 Z-0.125000 I0.501350 J0.330445
G02 X-53.981681 Y19.640478 Z-0.125000 I25.782330 J-124.442876
G02 X-53.942870 Y19.648505 Z-0.125000 I129.183845 J-624.974127
G03 X-53.995856 Y20.188850 Z-0.125000 I-1.329463 J0.142404
G03 X-54.204114 Y20.682588 Z-0.125000 I-2.642393 J-0.823766
G03 X-54.469633 Y21.121000 Z-0.125000 I-4.662137 J-2.523963
G01 X-54.223417 Y21.470647 Z-0.125000
G02 X-53.458276 Y20.980546 Z-0.125000 I-0.355834 J-1.397841
G03 X-52.869160 Y20.282433 Z-0.125000 I17.530648 J14.195931
G01 X-52.869160 Y20.282433 Z-0.125000
G00 Z5.000000

(End cutting path id: path5291)


(Start cutting path id: path5289)
(Change tool to Default tool)

G00 Z5.000000
G00 X-52.640590 Y18.804580

G01 Z-0.125000 F100.0(Penetrate)
G02 X-52.692515 Y18.715122 Z-0.125000 I-0.880858 J0.451489 F400.000000
G01 X-52.725191 Y18.592006 Z-0.125000
G03 X-52.706974 Y18.472037 Z-0.125000 I0.662635 J0.039254
G01 X-52.707931 Y18.352399 Z-0.125000
G01 X-52.666800 Y18.349753 Z-0.125000
G01 X-52.625663 Y18.347148 Z-0.125000
G01 X-52.607886 Y18.234057 Z-0.125000
G01 X-52.518161 Y18.158496 Z-0.125000
G01 X-52.630437 Y17.909001 Z-0.125000
G01 X-52.727233 Y17.648067 Z-0.125000
G01 X-52.713092 Y17.550376 Z-0.125000
G01 X-52.706326 Y17.455526 Z-0.125000
G01 X-52.741323 Y17.347834 Z-0.125000
G01 X-52.778578 Y17.247571 Z-0.125000
G02 X-52.736250 Y17.220971 Z-0.125000 I-18.083551 J-28.823127
G01 X-52.692518 Y17.189371 Z-0.125000
G03 X-52.484050 Y17.671444 Z-0.125000 I-1.364265 J0.876073
G03 X-52.357564 Y18.184946 Z-0.125000 I-64.872679 J16.251865
G03 X-52.311190 Y18.555484 Z-0.125000 I-1.609377 J0.389589
G03 X-52.328099 Y18.927933 Z-0.125000 I-3.279223 J0.037732
G01 X-52.340554 Y18.915630 Z-0.125000
G02 X-52.355910 Y18.899441 Z-0.125000 I-0.428484 J0.391036
G01 X-52.518268 Y18.944602 Z-0.125000
G01 X-52.640590 Y18.804580 Z-0.125000
G01 X-52.640590 Y18.804580 Z-0.125000
G00 Z5.000000

(End cutting path id: path5289)


(Start cutting path id: path5287)
(Change tool to Default tool)

G00 Z5.000000
G00 X-56.634512 Y23.474487

G01 Z-0.125000 F100.0(Penetrate)
G01 X-56.634512 Y22.981854 Z-0.125000 F400.000000
G03 X-56.633762 Y22.922280 Z-0.125000 I2.365516 J0.000000
G03 X-56.631108 Y22.876588 Z-0.125000 I0.697279 J0.017566
G01 X-56.697671 Y22.876588 Z-0.125000
G01 X-56.701026 Y22.947332 Z-0.125000
G01 X-56.702728 Y22.947332 Z-0.125000
G01 X-56.750853 Y22.893709 Z-0.125000
G01 X-56.840813 Y22.867253 Z-0.125000
G01 X-56.957594 Y22.919955 Z-0.125000
G01 X-57.015997 Y23.074429 Z-0.125000
G01 X-56.950763 Y23.242138 Z-0.125000
G01 X-56.833277 Y23.293372 Z-0.125000
G01 X-56.746590 Y23.269422 Z-0.125000
G01 X-56.710264 Y23.231866 Z-0.125000
G01 X-56.708660 Y23.231866 Z-0.125000
G01 X-56.708660 Y23.474390 Z-0.125000
G01 X-56.634609 Y23.474390 Z-0.125000
G01 X-56.634609 Y23.474487 Z-0.125000
G01 X-56.634512 Y23.474487 Z-0.125000
G00 Z5.000000

(End cutting path id: path5287)


(Start cutting path id: path5287)
(Change tool to Default tool)

G00 Z5.000000
G00 X-56.708563 Y23.118334

G01 Z-0.125000 F100.0(Penetrate)
G01 X-56.709257 Y23.134327 Z-0.125000 F400.000000
G01 X-56.711918 Y23.150327 Z-0.125000
G01 X-56.746586 Y23.208058 Z-0.125000
G01 X-56.818885 Y23.235367 Z-0.125000
G01 X-56.904157 Y23.191908 Z-0.125000
G01 X-56.940925 Y23.078708 Z-0.125000
G01 X-56.907556 Y22.972607 Z-0.125000
G01 X-56.820490 Y22.927203 Z-0.125000
G01 X-56.754794 Y22.949648 Z-0.125000
G01 X-56.711820 Y23.015597 Z-0.125000
G01 X-56.709288 Y23.030502 Z-0.125000
G01 X-56.708465 Y23.047590 Z-0.125000
G01 X-56.708563 Y23.118334 Z-0.125000
G01 X-56.708563 Y23.118334 Z-0.125000
G01 X-56.708563 Y23.118334 Z-0.125000
G00 Z5.000000

(End cutting path id: path5287)


(Start cutting path id: path5285)
(Change tool to Default tool)

G00 Z5.000000
G00 X-57.148150 Y23.359108

G01 Z-0.125000 F100.0(Penetrate)
G01 X-57.181791 Y23.374119 Z-0.125000 F400.000000
G01 X-57.194438 Y23.407147 Z-0.125000
G01 X-57.181386 Y23.439457 Z-0.125000
G01 X-57.146400 Y23.454309 Z-0.125000
G01 X-57.111969 Y23.439414 Z-0.125000
G01 X-57.099188 Y23.407147 Z-0.125000
G01 X-57.111857 Y23.374655 Z-0.125000
G01 X-57.147275 Y23.359108 Z-0.125000
G01 X-57.148150 Y23.359108 Z-0.125000
G01 X-57.148150 Y23.359108 Z-0.125000
G00 Z5.000000

(End cutting path id: path5285)


(Start cutting path id: path5285)
(Change tool to Default tool)

G00 Z5.000000
G00 X-57.183547 Y22.876588

G01 Z-0.125000 F100.0(Penetrate)
G01 X-57.183547 Y23.284183 Z-0.125000 F400.000000
G01 X-57.109448 Y23.284183 Z-0.125000
G01 X-57.109448 Y22.876588 Z-0.125000
G01 X-57.183547 Y22.876588 Z-0.125000
G01 X-57.183547 Y22.876588 Z-0.125000
G00 Z5.000000

(End cutting path id: path5285)


(Start cutting path id: path5283)
(Change tool to Default tool)

G00 Z5.000000
G00 X-57.479993 Y22.867253

G01 Z-0.125000 F100.0(Penetrate)
G01 X-57.611389 Y22.921901 Z-0.125000 F400.000000
G01 X-57.675354 Y23.076957 Z-0.125000
G01 X-57.607314 Y23.238733 Z-0.125000
G01 X-57.473234 Y23.293421 Z-0.125000
G01 X-57.335938 Y23.233844 Z-0.125000
G01 X-57.276998 Y23.084542 Z-0.125000
G01 X-57.358878 Y22.910541 Z-0.125000
G01 X-57.479117 Y22.867253 Z-0.125000
G01 X-57.479993 Y22.867253 Z-0.125000
G01 X-57.479993 Y22.867253 Z-0.125000
G01 X-57.479993 Y22.867253 Z-0.125000
G00 Z5.000000

(End cutting path id: path5283)


(Start cutting path id: path5283)
(Change tool to Default tool)

G00 Z5.000000
G00 X-57.477464 Y22.922924

G01 Z-0.125000 F100.0(Penetrate)
G01 X-57.394981 Y22.962944 Z-0.125000 F400.000000
G01 X-57.353674 Y23.082111 Z-0.125000
G01 X-57.378412 Y23.179880 Z-0.125000
G01 X-57.475811 Y23.237943 Z-0.125000
G01 X-57.571289 Y23.184098 Z-0.125000
G01 X-57.600428 Y23.079583 Z-0.125000
G01 X-57.561297 Y22.964031 Z-0.125000
G01 X-57.478291 Y22.923022 Z-0.125000
G01 X-57.477464 Y22.923022 Z-0.125000
G01 X-57.477464 Y22.922924 Z-0.125000
G01 X-57.477464 Y22.922924 Z-0.125000
G00 Z5.000000

(End cutting path id: path5283)


(Start cutting path id: path5281)
(Change tool to Default tool)

G00 Z5.000000
G00 X-58.113240 Y23.173909

G01 Z-0.125000 F100.0(Penetrate)
G03 X-58.114099 Y23.235721 Z-0.125000 I-2.223836 J-0.000000 F400.000000
G03 X-58.116595 Y23.284231 Z-0.125000 I-1.028712 J-0.028604
G01 X-58.050907 Y23.284231 Z-0.125000
G01 X-58.046677 Y23.217717 Z-0.125000
G01 X-58.045024 Y23.217717 Z-0.125000
G01 X-58.003018 Y23.264723 Z-0.125000
G01 X-57.910294 Y23.293518 Z-0.125000
G01 X-57.841754 Y23.270725 Z-0.125000
G01 X-57.766276 Y23.120036 Z-0.125000
G01 X-57.766276 Y22.876685 Z-0.125000
G01 X-57.840376 Y22.876685 Z-0.125000
G01 X-57.840376 Y23.111625 Z-0.125000
G01 X-57.863390 Y23.193089 Z-0.125000
G01 X-57.934702 Y23.232984 Z-0.125000
G01 X-57.998779 Y23.209589 Z-0.125000
G01 X-58.034084 Y23.157183 Z-0.125000
G01 X-58.037871 Y23.141713 Z-0.125000
G01 X-58.039141 Y23.122710 Z-0.125000
G01 X-58.039141 Y22.876782 Z-0.125000
G01 X-58.113240 Y22.876782 Z-0.125000
G01 X-58.113240 Y23.173909 Z-0.125000
G01 X-58.113240 Y23.173909 Z-0.125000
G00 Z5.000000

(End cutting path id: path5281)


(Start cutting path id: path5279)
(Change tool to Default tool)

G00 Z5.000000
G00 X-58.493072 Y23.067768

G01 Z-0.125000 F100.0(Penetrate)
G01 X-58.441018 Y22.958045 Z-0.125000 F400.000000
G01 X-58.354111 Y22.926231 Z-0.125000
G01 X-58.280229 Y22.934350 Z-0.125000
G01 X-58.241212 Y22.946506 Z-0.125000
G01 X-58.227744 Y22.894335 Z-0.125000
G01 X-58.268214 Y22.880174 Z-0.125000
G01 X-58.364176 Y22.868128 Z-0.125000
G01 X-58.507469 Y22.929894 Z-0.125000
G01 X-58.564643 Y23.073700 Z-0.125000
G01 X-58.509466 Y23.229173 Z-0.125000
G01 X-58.372588 Y23.294345 Z-0.125000
G01 X-58.230057 Y23.206867 Z-0.125000
G01 X-58.205038 Y23.102338 Z-0.125000
G01 X-58.205835 Y23.079825 Z-0.125000
G01 X-58.207566 Y23.066990 Z-0.125000
G01 X-58.493072 Y23.067768 Z-0.125000
G01 X-58.493072 Y23.067768 Z-0.125000
G00 Z5.000000

(End cutting path id: path5279)


(Start cutting path id: path5279)
(Change tool to Default tool)

G00 Z5.000000
G00 X-58.276657 Y23.120814

G01 Z-0.125000 F100.0(Penetrate)
G01 X-58.290885 Y23.186106 Z-0.125000 F400.000000
G01 X-58.378568 Y23.241250 Z-0.125000
G01 X-58.466773 Y23.192800 Z-0.125000
G01 X-58.492245 Y23.120814 Z-0.125000
G01 X-58.276657 Y23.120814 Z-0.125000
G01 X-58.276657 Y23.120814 Z-0.125000
G00 Z5.000000

(End cutting path id: path5279)


(Start cutting path id: path5277)
(Change tool to Default tool)

G00 Z5.000000
G00 X-59.002480 Y23.474487

G01 Z-0.125000 F100.0(Penetrate)
G01 X-58.928381 Y23.474487 Z-0.125000 F400.000000
G01 X-58.928381 Y23.220197 Z-0.125000
G01 X-58.926679 Y23.220197 Z-0.125000
G01 X-58.904732 Y23.249462 Z-0.125000
G01 X-58.873633 Y23.272416 Z-0.125000
G01 X-58.838673 Y23.287816 Z-0.125000
G01 X-58.797832 Y23.293518 Z-0.125000
G01 X-58.731390 Y23.271295 Z-0.125000
G01 X-58.655516 Y23.119161 Z-0.125000
G01 X-58.655516 Y22.876734 Z-0.125000
G01 X-58.729567 Y22.876734 Z-0.125000
G01 X-58.729567 Y23.110749 Z-0.125000
G01 X-58.752876 Y23.192506 Z-0.125000
G01 X-58.823893 Y23.232012 Z-0.125000
G01 X-58.887655 Y23.208993 Z-0.125000
G01 X-58.923276 Y23.157912 Z-0.125000
G01 X-58.927169 Y23.142824 Z-0.125000
G01 X-58.928332 Y23.122564 Z-0.125000
G01 X-58.928332 Y22.876637 Z-0.125000
G01 X-59.002431 Y22.876637 Z-0.125000
G01 X-59.002431 Y23.474487 Z-0.125000
G01 X-59.002480 Y23.474487 Z-0.125000
G00 Z5.000000

(End cutting path id: path5277)


(Start cutting path id: path5275)
(Change tool to Default tool)

G00 Z5.000000
G00 X-59.481694 Y23.151105

G01 Z-0.125000 F100.0(Penetrate)
G03 X-59.482558 Y23.227460 Z-0.125000 I-3.375043 J-0.000000 F400.000000
G03 X-59.485049 Y23.284183 Z-0.125000 I-1.334839 J-0.030206
G01 X-59.418535 Y23.284183 Z-0.125000
G01 X-59.414305 Y23.214265 Z-0.125000
G01 X-59.412603 Y23.214265 Z-0.125000
G01 X-59.355637 Y23.270533 Z-0.125000
G01 X-59.268586 Y23.293469 Z-0.125000
G01 X-59.152323 Y23.240219 Z-0.125000
G01 X-59.095104 Y23.086293 Z-0.125000
G01 X-59.167467 Y22.913590 Z-0.125000
G01 X-59.280401 Y22.867350 Z-0.125000
G01 X-59.356826 Y22.885694 Z-0.125000
G01 X-59.405893 Y22.931336 Z-0.125000
G01 X-59.407595 Y22.931336 Z-0.125000
G01 X-59.407595 Y22.709865 Z-0.125000
G01 X-59.481694 Y22.709865 Z-0.125000
G01 X-59.481694 Y23.151105 Z-0.125000
G01 X-59.481694 Y23.151105 Z-0.125000
G00 Z5.000000

(End cutting path id: path5275)


(Start cutting path id: path5275)
(Change tool to Default tool)

G00 Z5.000000
G00 X-59.407546 Y23.042533

G01 Z-0.125000 F100.0(Penetrate)
G01 X-59.406815 Y23.026810 Z-0.125000 F400.000000
G01 X-59.404192 Y23.012193 Z-0.125000
G01 X-59.363623 Y22.949489 Z-0.125000
G01 X-59.293869 Y22.925453 Z-0.125000
G01 X-59.208390 Y22.968151 Z-0.125000
G01 X-59.170079 Y23.082938 Z-0.125000
G01 X-59.203119 Y23.188703 Z-0.125000
G01 X-59.290514 Y23.234491 Z-0.125000
G01 X-59.358488 Y23.211397 Z-0.125000
G01 X-59.403365 Y23.143520 Z-0.125000
G02 X-59.406216 Y23.127666 Z-0.125000 I-0.707293 J0.119016
G01 X-59.407595 Y23.113132 Z-0.125000
G01 X-59.407595 Y23.042533 Z-0.125000
G01 X-59.407546 Y23.042533 Z-0.125000
G00 Z5.000000

(End cutting path id: path5275)


(Start cutting path id: path5273)
(Change tool to Default tool)

G00 Z5.000000
G00 X-59.902806 Y22.965857

G01 Z-0.125000 F100.0(Penetrate)
G01 X-59.848592 Y22.940546 Z-0.125000 F400.000000
G01 X-59.772257 Y22.928856 Z-0.125000
G01 X-59.683324 Y22.961384 Z-0.125000
G01 X-59.653474 Y23.025662 Z-0.125000
G01 X-59.676287 Y23.082342 Z-0.125000
G01 X-59.760442 Y23.137734 Z-0.125000
G01 X-59.871719 Y23.207657 Z-0.125000
G01 X-59.910342 Y23.299450 Z-0.125000
G01 X-59.863267 Y23.402582 Z-0.125000
G01 X-59.726747 Y23.453532 Z-0.125000
G01 X-59.641370 Y23.442200 Z-0.125000
G01 X-59.602130 Y23.425720 Z-0.125000
G01 X-59.622357 Y23.365867 Z-0.125000
G01 X-59.651445 Y23.379666 Z-0.125000
G01 X-59.729324 Y23.392803 Z-0.125000
G01 X-59.818318 Y23.353793 Z-0.125000
G01 X-59.836291 Y23.307764 Z-0.125000
G01 X-59.811584 Y23.252386 Z-0.125000
G01 X-59.723441 Y23.198317 Z-0.125000
G01 X-59.616094 Y23.124866 Z-0.125000
G01 X-59.579472 Y23.031448 Z-0.125000
G01 X-59.621861 Y22.930672 Z-0.125000
G01 X-59.777362 Y22.867253 Z-0.125000
G01 X-59.867361 Y22.879346 Z-0.125000
G01 X-59.922206 Y22.904302 Z-0.125000
G01 X-59.902806 Y22.965857 Z-0.125000
G01 X-59.902806 Y22.965857 Z-0.125000
G00 Z5.000000

(End cutting path id: path5273)


(Start cutting path id: path5269)
(Change tool to Default tool)

G00 Z5.000000
G00 X-58.145816 Y14.850770

G01 Z-0.125000 F100.0(Penetrate)
G03 X-58.144331 Y14.796194 Z-0.125000 I1.003191 J0.000000 F400.000000
G01 X-58.139885 Y14.752992 Z-0.125000
G01 X-58.206350 Y14.752992 Z-0.125000
G01 X-58.213157 Y14.804336 Z-0.125000
G01 X-58.215783 Y14.804336 Z-0.125000
G01 X-58.257983 Y14.765461 Z-0.125000
G01 X-58.340351 Y14.743705 Z-0.125000
G01 X-58.437393 Y14.787605 Z-0.125000
G01 X-58.464969 Y14.860737 Z-0.125000
G01 X-58.410262 Y14.958813 Z-0.125000
G01 X-58.219916 Y15.012242 Z-0.125000
G01 X-58.219916 Y15.020751 Z-0.125000
G01 X-58.230112 Y15.064399 Z-0.125000
G01 X-58.312540 Y15.115077 Z-0.125000
G01 X-58.371528 Y15.106964 Z-0.125000
G01 X-58.419410 Y15.084737 Z-0.125000
G01 X-58.436282 Y15.134380 Z-0.125000
G01 X-58.380228 Y15.159075 Z-0.125000
G01 X-58.301551 Y15.169727 Z-0.125000
G01 X-58.174850 Y15.101078 Z-0.125000
G01 X-58.145719 Y15.003053 Z-0.125000
G01 X-58.145719 Y14.850721 Z-0.125000
G01 X-58.145816 Y14.850721 Z-0.125000
G01 X-58.145816 Y14.850770 Z-0.125000
G00 Z5.000000

(End cutting path id: path5269)


(Start cutting path id: path5269)
(Change tool to Default tool)

G00 Z5.000000
G00 X-58.218311 Y14.960995

G01 Z-0.125000 F100.0(Penetrate)
G01 X-58.335013 Y14.944783 Z-0.125000 F400.000000
G01 X-58.390918 Y14.869198 Z-0.125000
G01 X-58.365880 Y14.814703 Z-0.125000
G01 X-58.321875 Y14.798404 Z-0.125000
G01 X-58.251279 Y14.823779 Z-0.125000
G01 X-58.221666 Y14.866621 Z-0.125000
G01 X-58.218997 Y14.878568 Z-0.125000
G01 X-58.218311 Y14.890202 Z-0.125000
G01 X-58.218311 Y14.960995 Z-0.125000
G01 X-58.218311 Y14.960995 Z-0.125000
G00 Z5.000000

(End cutting path id: path5269)


(Start cutting path id: path5267)
(Change tool to Default tool)

G00 Z5.000000
G00 X-58.630039 Y15.350891

G01 Z-0.125000 F100.0(Penetrate)
G01 X-58.555939 Y15.350891 Z-0.125000 F400.000000
G01 X-58.555939 Y14.752992 Z-0.125000
G01 X-58.630039 Y14.752992 Z-0.125000
G01 X-58.630039 Y15.350891 Z-0.125000
G01 X-58.630039 Y15.350891 Z-0.125000
G00 Z5.000000

(End cutting path id: path5267)


(Start cutting path id: path5265)
(Change tool to Default tool)

G00 Z5.000000
G00 X-58.827053 Y15.350891

G01 Z-0.125000 F100.0(Penetrate)
G01 X-58.752954 Y15.350891 Z-0.125000 F400.000000
G01 X-58.752954 Y14.752992 Z-0.125000
G01 X-58.827053 Y14.752992 Z-0.125000
G01 X-58.827053 Y15.350891 Z-0.125000
G01 X-58.827053 Y15.350891 Z-0.125000
G00 Z5.000000

(End cutting path id: path5265)


(Start cutting path id: path5263)
(Change tool to Default tool)

G00 Z5.000000
G00 X-58.988769 Y15.235512

G01 Z-0.125000 F100.0(Penetrate)
G01 X-59.022394 Y15.250520 Z-0.125000 F400.000000
G01 X-59.035057 Y15.283599 Z-0.125000
G01 X-59.022027 Y15.315871 Z-0.125000
G01 X-58.986970 Y15.330762 Z-0.125000
G01 X-58.952567 Y15.315860 Z-0.125000
G01 X-58.939807 Y15.283599 Z-0.125000
G01 X-58.952492 Y15.251056 Z-0.125000
G01 X-58.987894 Y15.235512 Z-0.125000
G01 X-58.988769 Y15.235512 Z-0.125000
G01 X-58.988769 Y15.235512 Z-0.125000
G00 Z5.000000

(End cutting path id: path5263)


(Start cutting path id: path5263)
(Change tool to Default tool)

G00 Z5.000000
G00 X-59.024117 Y14.752992

G01 Z-0.125000 F100.0(Penetrate)
G01 X-59.024117 Y15.160635 Z-0.125000 F400.000000
G01 X-58.950017 Y15.160635 Z-0.125000
G01 X-58.950017 Y14.752992 Z-0.125000
G01 X-59.024117 Y14.752992 Z-0.125000
G01 X-59.024117 Y14.752992 Z-0.125000
G00 Z5.000000

(End cutting path id: path5263)


(Start cutting path id: path5261)
(Change tool to Default tool)

G00 Z5.000000
G00 X-59.379492 Y15.160635

G01 Z-0.125000 F100.0(Penetrate)
G01 X-59.321389 Y15.073894 Z-0.125000 F400.000000
G02 X-59.299842 Y15.039859 Z-0.125000 I-2.329563 J-1.498605
G02 X-59.280109 Y15.007331 Z-0.125000 I-1.367502 J-0.851855
G01 X-59.277581 Y15.007331 Z-0.125000
G02 X-59.257121 Y15.041502 Z-0.125000 I0.730708 J-0.414319
G02 X-59.236301 Y15.073894 Z-0.125000 I2.031612 J-1.282871
G01 X-59.179852 Y15.160635 Z-0.125000
G01 X-59.098994 Y15.160635 Z-0.125000
G01 X-59.237954 Y14.963523 Z-0.125000
G01 X-59.095639 Y14.752992 Z-0.125000
G01 X-59.179803 Y14.752992 Z-0.125000
G01 X-59.239607 Y14.844838 Z-0.125000
G02 X-59.262196 Y14.879990 Z-0.125000 I0.622463 J0.424815
G02 X-59.283367 Y14.915582 Z-0.125000 I2.604987 J1.573621
G01 X-59.285069 Y14.915582 Z-0.125000
G02 X-59.305776 Y14.880531 Z-0.125000 I-0.658856 J0.365593
G03 X-59.328050 Y14.844838 Z-0.125000 I6.562095 J-4.119834
G01 X-59.386979 Y14.752992 Z-0.125000
G01 X-59.468664 Y14.752992 Z-0.125000
G01 X-59.323820 Y14.960995 Z-0.125000
G01 X-59.461905 Y15.160635 Z-0.125000
G01 X-59.379492 Y15.160635 Z-0.125000
G01 X-59.379492 Y15.160635 Z-0.125000
G00 Z5.000000

(End cutting path id: path5261)


(Start cutting path id: path5259)
(Change tool to Default tool)

G00 Z5.000000
G00 X-59.532796 Y14.850770

G01 Z-0.125000 F100.0(Penetrate)
G03 X-59.531316 Y14.796191 Z-0.125000 I1.007442 J-0.000000 F400.000000
G01 X-59.526912 Y14.752992 Z-0.125000
G01 X-59.593329 Y14.752992 Z-0.125000
G01 X-59.600185 Y14.804336 Z-0.125000
G01 X-59.602665 Y14.804336 Z-0.125000
G01 X-59.644858 Y14.765471 Z-0.125000
G01 X-59.727282 Y14.743705 Z-0.125000
G01 X-59.824324 Y14.787605 Z-0.125000
G01 X-59.851899 Y14.860737 Z-0.125000
G01 X-59.797179 Y14.958819 Z-0.125000
G01 X-59.606798 Y15.012242 Z-0.125000
G01 X-59.606798 Y15.020751 Z-0.125000
G01 X-59.617001 Y15.064414 Z-0.125000
G01 X-59.699422 Y15.115077 Z-0.125000
G01 X-59.758377 Y15.106974 Z-0.125000
G01 X-59.806292 Y15.084737 Z-0.125000
G01 X-59.823115 Y15.134380 Z-0.125000
G01 X-59.767062 Y15.159075 Z-0.125000
G01 X-59.688385 Y15.169727 Z-0.125000
G01 X-59.561716 Y15.101075 Z-0.125000
G01 X-59.532601 Y15.003053 Z-0.125000
G01 X-59.532601 Y14.850721 Z-0.125000
G01 X-59.532796 Y14.850721 Z-0.125000
G01 X-59.532796 Y14.850770 Z-0.125000
G00 Z5.000000

(End cutting path id: path5259)


(Start cutting path id: path5259)
(Change tool to Default tool)

G00 Z5.000000
G00 X-59.605193 Y14.960995

G01 Z-0.125000 F100.0(Penetrate)
G01 X-59.721895 Y14.944783 Z-0.125000 F400.000000
G01 X-59.777800 Y14.869198 Z-0.125000
G01 X-59.752762 Y14.814703 Z-0.125000
G01 X-59.708757 Y14.798404 Z-0.125000
G01 X-59.638161 Y14.823779 Z-0.125000
G01 X-59.608548 Y14.866621 Z-0.125000
G01 X-59.605854 Y14.878568 Z-0.125000
G01 X-59.605145 Y14.890202 Z-0.125000
G01 X-59.605145 Y14.960995 Z-0.125000
G01 X-59.605193 Y14.960995 Z-0.125000
G00 Z5.000000

(End cutting path id: path5259)


(Start cutting path id: path5257)
(Change tool to Default tool)

G00 Z5.000000
G00 X-60.021151 Y15.002323

G01 Z-0.125000 F100.0(Penetrate)
G02 X-60.027734 Y15.132429 Z-0.125000 I18.528040 J1.002748 F400.000000
G02 X-60.030437 Y15.247328 Z-0.125000 I2.440407 J0.114899
G01 X-60.032042 Y15.247328 Z-0.125000
G02 X-60.063039 Y15.149383 Z-0.125000 I-5.982468 J1.839399
G02 X-60.103710 Y15.031788 Z-0.125000 I-3.236732 J1.053632
G01 X-60.203968 Y14.756347 Z-0.125000
G01 X-60.259542 Y14.756347 Z-0.125000
G01 X-60.352166 Y15.026731 Z-0.125000
G02 X-60.390339 Y15.147765 Z-0.125000 I3.626188 J1.210183
G02 X-60.416979 Y15.247376 Z-0.125000 I1.791804 J0.532574
G01 X-60.418632 Y15.247376 Z-0.125000
G02 X-60.422491 Y15.134019 Z-0.125000 I-5.683977 J0.136728
G02 X-60.429572 Y14.996489 Z-0.125000 I-9.240393 J0.406837
G01 X-60.444742 Y14.753041 Z-0.125000
G01 X-60.514660 Y14.753041 Z-0.125000
G01 X-60.475130 Y15.320649 Z-0.125000
G01 X-60.381631 Y15.320649 Z-0.125000
G01 X-60.284777 Y15.046131 Z-0.125000
G02 X-60.251607 Y14.941863 Z-0.125000 I-2.998162 J-1.011202
G02 X-60.227501 Y14.854951 Z-0.125000 I-2.144102 J-0.641486
G01 X-60.225799 Y14.854951 Z-0.125000
G02 X-60.201143 Y14.939247 Z-0.125000 I1.683228 J-0.446571
G02 X-60.165216 Y15.046131 Z-0.125000 I3.704702 J-1.185780
G01 X-60.064132 Y15.320649 Z-0.125000
G01 X-59.970682 Y15.320649 Z-0.125000
G01 X-59.935285 Y14.753041 Z-0.125000
G01 X-60.007731 Y14.753041 Z-0.125000
G01 X-60.021151 Y15.002323 Z-0.125000
G01 X-60.021151 Y15.002323 Z-0.125000
G00 Z5.000000

(End cutting path id: path5257)


(Start cutting path id: path5253)
(Change tool to Default tool)

G00 Z5.000000
G00 X-54.832839 Y26.262157

G01 Z-0.125000 F100.0(Penetrate)
G01 X-54.758740 Y26.262157 Z-0.125000 F400.000000
G01 X-54.758740 Y25.664209 Z-0.125000
G01 X-54.832839 Y25.664209 Z-0.125000
G01 X-54.832839 Y26.262157 Z-0.125000
G01 X-54.832839 Y26.262157 Z-0.125000
G00 Z5.000000

(End cutting path id: path5253)


(Start cutting path id: path5251)
(Change tool to Default tool)

G00 Z5.000000
G00 X-54.951525 Y25.761987

G01 Z-0.125000 F100.0(Penetrate)
G03 X-54.950046 Y25.707412 Z-0.125000 I1.007968 J-0.000000 F400.000000
G01 X-54.945641 Y25.664306 Z-0.125000
G01 X-55.012204 Y25.664306 Z-0.125000
G01 X-55.018914 Y25.715602 Z-0.125000
G01 X-55.021443 Y25.715602 Z-0.125000
G01 X-55.063646 Y25.676759 Z-0.125000
G01 X-55.146060 Y25.654971 Z-0.125000
G01 X-55.243163 Y25.698900 Z-0.125000
G01 X-55.270725 Y25.772003 Z-0.125000
G01 X-55.215999 Y25.870108 Z-0.125000
G01 X-55.025624 Y25.923605 Z-0.125000
G01 X-55.025624 Y25.931968 Z-0.125000
G01 X-55.035809 Y25.975655 Z-0.125000
G01 X-55.118248 Y26.026391 Z-0.125000
G01 X-55.177214 Y26.018277 Z-0.125000
G01 X-55.225167 Y25.996002 Z-0.125000
G01 X-55.242039 Y26.045645 Z-0.125000
G01 X-55.185905 Y26.070363 Z-0.125000
G01 X-55.107308 Y26.081042 Z-0.125000
G01 X-54.980614 Y26.012372 Z-0.125000
G01 X-54.951476 Y25.914270 Z-0.125000
G01 X-54.951476 Y25.761987 Z-0.125000
G01 X-54.951525 Y25.761987 Z-0.125000
G01 X-54.951525 Y25.761987 Z-0.125000
G00 Z5.000000

(End cutting path id: path5251)


(Start cutting path id: path5251)
(Change tool to Default tool)

G00 Z5.000000
G00 X-55.023971 Y25.872261

G01 Z-0.125000 F100.0(Penetrate)
G01 X-55.140797 Y25.856035 Z-0.125000 F400.000000
G01 X-55.196626 Y25.780560 Z-0.125000
G01 X-55.171574 Y25.726018 Z-0.125000
G01 X-55.127583 Y25.709719 Z-0.125000
G01 X-55.056935 Y25.735105 Z-0.125000
G01 X-55.027326 Y25.777935 Z-0.125000
G01 X-55.024646 Y25.789958 Z-0.125000
G01 X-55.023971 Y25.801516 Z-0.125000
G01 X-55.023971 Y25.872261 Z-0.125000
G01 X-55.023971 Y25.872261 Z-0.125000
G00 Z5.000000

(End cutting path id: path5251)


(Start cutting path id: path5249)
(Change tool to Default tool)

G00 Z5.000000
G00 X-55.428211 Y26.169533

G01 Z-0.125000 F100.0(Penetrate)
G01 X-55.428211 Y26.071852 Z-0.125000 F400.000000
G01 X-55.322118 Y26.071852 Z-0.125000
G01 X-55.322118 Y26.015402 Z-0.125000
G01 X-55.428211 Y26.015402 Z-0.125000
G01 X-55.428211 Y25.795536 Z-0.125000
G01 X-55.411636 Y25.738026 Z-0.125000
G01 X-55.372636 Y25.716477 Z-0.125000
G01 X-55.344995 Y25.718175 Z-0.125000
G01 X-55.329703 Y25.721436 Z-0.125000
G01 X-55.326348 Y25.665035 Z-0.125000
G01 X-55.348654 Y25.658991 Z-0.125000
G01 X-55.392036 Y25.654873 Z-0.125000
G01 X-55.441047 Y25.664454 Z-0.125000
G01 X-55.472019 Y25.686040 Z-0.125000
G01 X-55.492143 Y25.724068 Z-0.125000
G01 X-55.500657 Y25.793007 Z-0.125000
G01 X-55.500657 Y26.015305 Z-0.125000
G01 X-55.563816 Y26.015305 Z-0.125000
G01 X-55.563816 Y26.071755 Z-0.125000
G01 X-55.500657 Y26.071755 Z-0.125000
G01 X-55.500657 Y26.146632 Z-0.125000
G01 X-55.428211 Y26.169533 Z-0.125000
G01 X-55.428211 Y26.169533 Z-0.125000
G00 Z5.000000

(End cutting path id: path5249)


(Start cutting path id: path5247)
(Change tool to Default tool)

G00 Z5.000000
G00 X-55.981524 Y25.961530

G01 Z-0.125000 F100.0(Penetrate)
G03 X-55.982383 Y26.023342 Z-0.125000 I-2.223836 J0.000000 F400.000000
G03 X-55.984879 Y26.071852 Z-0.125000 I-1.028712 J-0.028604
G01 X-55.919191 Y26.071852 Z-0.125000
G01 X-55.914961 Y26.005289 Z-0.125000
G01 X-55.913308 Y26.005289 Z-0.125000
G01 X-55.871302 Y26.052296 Z-0.125000
G01 X-55.778578 Y26.081090 Z-0.125000
G01 X-55.710028 Y26.058299 Z-0.125000
G01 X-55.634561 Y25.907657 Z-0.125000
G01 X-55.634561 Y25.664257 Z-0.125000
G01 X-55.708660 Y25.664257 Z-0.125000
G01 X-55.708660 Y25.899246 Z-0.125000
G01 X-55.731674 Y25.980710 Z-0.125000
G01 X-55.802986 Y26.020605 Z-0.125000
G01 X-55.867024 Y25.997198 Z-0.125000
G01 X-55.902320 Y25.944804 Z-0.125000
G01 X-55.906108 Y25.929270 Z-0.125000
G01 X-55.907376 Y25.910283 Z-0.125000
G01 X-55.907376 Y25.664355 Z-0.125000
G01 X-55.981476 Y25.664355 Z-0.125000
G01 X-55.981476 Y25.961530 Z-0.125000
G01 X-55.981524 Y25.961530 Z-0.125000
G00 Z5.000000

(End cutting path id: path5247)


(Start cutting path id: path5245)
(Change tool to Default tool)

G00 Z5.000000
G00 X-56.277970 Y25.655019

G01 Z-0.125000 F100.0(Penetrate)
G01 X-56.409347 Y25.709649 Z-0.125000 F400.000000
G01 X-56.473331 Y25.864724 Z-0.125000
G01 X-56.405306 Y26.026450 Z-0.125000
G01 X-56.271212 Y26.081139 Z-0.125000
G01 X-56.133929 Y26.021563 Z-0.125000
G01 X-56.074975 Y25.872212 Z-0.125000
G01 X-56.156841 Y25.698258 Z-0.125000
G01 X-56.277095 Y25.654971 Z-0.125000
G01 X-56.277970 Y25.654971 Z-0.125000
G01 X-56.277970 Y25.655019 Z-0.125000
G01 X-56.277970 Y25.655019 Z-0.125000
G00 Z5.000000

(End cutting path id: path5245)


(Start cutting path id: path5245)
(Change tool to Default tool)

G00 Z5.000000
G00 X-56.275442 Y25.710642

G01 Z-0.125000 F100.0(Penetrate)
G01 X-56.192982 Y25.750628 Z-0.125000 F400.000000
G01 X-56.151651 Y25.869781 Z-0.125000
G01 X-56.176395 Y25.967522 Z-0.125000
G01 X-56.273788 Y26.025564 Z-0.125000
G01 X-56.369295 Y25.971694 Z-0.125000
G01 X-56.398406 Y25.867253 Z-0.125000
G01 X-56.359275 Y25.751700 Z-0.125000
G01 X-56.276268 Y25.710691 Z-0.125000
G01 X-56.275442 Y25.710642 Z-0.125000
G01 X-56.275442 Y25.710642 Z-0.125000
G01 X-56.275442 Y25.710642 Z-0.125000
G00 Z5.000000

(End cutting path id: path5245)


(Start cutting path id: path5243)
(Change tool to Default tool)

G00 Z5.000000
G00 X-56.713328 Y25.944755

G01 Z-0.125000 F100.0(Penetrate)
G03 X-56.714183 Y26.015701 Z-0.125000 I-2.941307 J0.000000 F400.000000
G03 X-56.716731 Y26.071901 Z-0.125000 I-1.327786 J-0.032036
G01 X-56.651870 Y26.071901 Z-0.125000
G01 X-56.648515 Y25.991870 Z-0.125000
G01 X-56.645987 Y25.991870 Z-0.125000
G01 X-56.598359 Y26.058558 Z-0.125000
G01 X-56.532309 Y26.081042 Z-0.125000
G01 X-56.521673 Y26.080360 Z-0.125000
G01 X-56.512131 Y26.078611 Z-0.125000
G01 X-56.512131 Y26.009568 Z-0.125000
G01 X-56.524005 Y26.010657 Z-0.125000
G01 X-56.538241 Y26.011221 Z-0.125000
G01 X-56.602195 Y25.984579 Z-0.125000
G01 X-56.637575 Y25.916895 Z-0.125000
G01 X-56.639457 Y25.900407 Z-0.125000
G01 X-56.640103 Y25.881547 Z-0.125000
G01 X-56.640103 Y25.664257 Z-0.125000
G01 X-56.714203 Y25.664257 Z-0.125000
G01 X-56.713328 Y25.944755 Z-0.125000
G01 X-56.713328 Y25.944755 Z-0.125000
G00 Z5.000000

(End cutting path id: path5243)


(Start cutting path id: path5241)
(Change tool to Default tool)

G00 Z5.000000
G00 X-57.100696 Y26.231914

G01 Z-0.125000 F100.0(Penetrate)
G01 X-56.795012 Y26.231914 Z-0.125000 F400.000000
G01 X-56.795012 Y26.170359 Z-0.125000
G01 X-57.026645 Y26.170359 Z-0.125000
G01 X-57.026645 Y25.981708 Z-0.125000
G01 X-56.812710 Y25.981708 Z-0.125000
G01 X-56.812710 Y25.921174 Z-0.125000
G01 X-57.026645 Y25.921174 Z-0.125000
G01 X-57.026645 Y25.664306 Z-0.125000
G01 X-57.100696 Y25.664306 Z-0.125000
G01 X-57.100696 Y26.231914 Z-0.125000
G01 X-57.100696 Y26.231914 Z-0.125000
G00 Z5.000000

(End cutting path id: path5241)


(Start cutting path id: path5237)
(Change tool to Default tool)

G00 Z5.000000
G00 X-42.997764 Y18.344328

G01 Z-0.125000 F100.0(Penetrate)
G01 X-42.923665 Y18.344328 Z-0.125000 F400.000000
G01 X-42.923665 Y17.746282 Z-0.125000
G01 X-42.997764 Y17.746282 Z-0.125000
G01 X-42.997764 Y18.344328 Z-0.125000
G01 X-42.997764 Y18.344328 Z-0.125000
G00 Z5.000000

(End cutting path id: path5237)


(Start cutting path id: path5235)
(Change tool to Default tool)

G00 Z5.000000
G00 X-43.116644 Y17.844012

G01 Z-0.125000 F100.0(Penetrate)
G03 X-43.115138 Y17.789478 Z-0.125000 I0.988224 J-0.000000 F400.000000
G01 X-43.110712 Y17.746331 Z-0.125000
G01 X-43.177178 Y17.746331 Z-0.125000
G01 X-43.183985 Y17.797675 Z-0.125000
G01 X-43.186513 Y17.797675 Z-0.125000
G01 X-43.228659 Y17.758900 Z-0.125000
G01 X-43.311081 Y17.737093 Z-0.125000
G01 X-43.408183 Y17.781037 Z-0.125000
G01 X-43.435747 Y17.854173 Z-0.125000
G01 X-43.380998 Y17.952302 Z-0.125000
G01 X-43.190646 Y18.005775 Z-0.125000
G01 X-43.190646 Y18.014138 Z-0.125000
G01 X-43.200877 Y18.057867 Z-0.125000
G01 X-43.283318 Y18.108513 Z-0.125000
G01 X-43.342213 Y18.100426 Z-0.125000
G01 X-43.390189 Y18.078124 Z-0.125000
G01 X-43.407012 Y18.127864 Z-0.125000
G01 X-43.350993 Y18.152492 Z-0.125000
G01 X-43.272281 Y18.163212 Z-0.125000
G01 X-43.145581 Y18.094519 Z-0.125000
G01 X-43.116449 Y17.996392 Z-0.125000
G01 X-43.116449 Y17.844012 Z-0.125000
G01 X-43.116644 Y17.844012 Z-0.125000
G01 X-43.116644 Y17.844012 Z-0.125000
G00 Z5.000000

(End cutting path id: path5235)


(Start cutting path id: path5235)
(Change tool to Default tool)

G00 Z5.000000
G00 X-43.189041 Y17.954431

G01 Z-0.125000 F100.0(Penetrate)
G01 X-43.305771 Y17.938188 Z-0.125000 F400.000000
G01 X-43.361696 Y17.862634 Z-0.125000
G01 X-43.336677 Y17.808154 Z-0.125000
G01 X-43.292654 Y17.791841 Z-0.125000
G01 X-43.221981 Y17.817280 Z-0.125000
G01 X-43.192396 Y17.860105 Z-0.125000
G01 X-43.189716 Y17.872093 Z-0.125000
G01 X-43.189041 Y17.883687 Z-0.125000
G01 X-43.189041 Y17.954431 Z-0.125000
G01 X-43.189041 Y17.954431 Z-0.125000
G01 X-43.189041 Y17.954431 Z-0.125000
G00 Z5.000000

(End cutting path id: path5235)


(Start cutting path id: path5233)
(Change tool to Default tool)

G00 Z5.000000
G00 X-43.673215 Y18.026829

G01 Z-0.125000 F100.0(Penetrate)
G03 X-43.674072 Y18.097918 Z-0.125000 I-2.947263 J0.000000 F400.000000
G03 X-43.676618 Y18.153974 Z-0.125000 I-1.319099 J-0.031826
G01 X-43.611757 Y18.153974 Z-0.125000
G01 X-43.608402 Y18.073992 Z-0.125000
G01 X-43.605874 Y18.073992 Z-0.125000
G01 X-43.558178 Y18.140734 Z-0.125000
G01 X-43.492197 Y18.163261 Z-0.125000
G01 X-43.481564 Y18.162547 Z-0.125000
G01 X-43.472019 Y18.160732 Z-0.125000
G01 X-43.472019 Y18.091690 Z-0.125000
G03 X-43.483864 Y18.092802 Z-0.125000 I-0.058023 J-0.554439
G01 X-43.498080 Y18.093392 Z-0.125000
G01 X-43.561975 Y18.066768 Z-0.125000
G01 X-43.597462 Y17.999066 Z-0.125000
G01 X-43.599301 Y17.982629 Z-0.125000
G01 X-43.599991 Y17.963669 Z-0.125000
G01 X-43.599991 Y17.746331 Z-0.125000
G01 X-43.674090 Y17.746331 Z-0.125000
G01 X-43.673215 Y18.026829 Z-0.125000
G01 X-43.673215 Y18.026829 Z-0.125000
G00 Z5.000000

(End cutting path id: path5233)


(Start cutting path id: path5231)
(Change tool to Default tool)

G00 Z5.000000
G00 X-43.970487 Y17.737093

G01 Z-0.125000 F100.0(Penetrate)
G01 X-44.101926 Y17.791781 Z-0.125000 F400.000000
G01 X-44.165849 Y17.946798 Z-0.125000
G01 X-44.097823 Y18.108524 Z-0.125000
G01 X-43.963729 Y18.163212 Z-0.125000
G01 X-43.826447 Y18.103637 Z-0.125000
G01 X-43.767492 Y17.954285 Z-0.125000
G01 X-43.849390 Y17.780270 Z-0.125000
G01 X-43.969612 Y17.736995 Z-0.125000
G01 X-43.970487 Y17.736995 Z-0.125000
G01 X-43.970487 Y17.737093 Z-0.125000
G01 X-43.970487 Y17.737093 Z-0.125000
G00 Z5.000000

(End cutting path id: path5231)


(Start cutting path id: path5231)
(Change tool to Default tool)

G00 Z5.000000
G00 X-43.967959 Y17.792667

G01 Z-0.125000 F100.0(Penetrate)
G01 X-43.885470 Y17.832702 Z-0.125000 F400.000000
G01 X-43.844168 Y17.951903 Z-0.125000
G01 X-43.868879 Y18.049559 Z-0.125000
G01 X-43.966306 Y18.107638 Z-0.125000
G01 X-44.061754 Y18.053788 Z-0.125000
G01 X-44.090874 Y17.949277 Z-0.125000
G01 X-44.051780 Y17.833744 Z-0.125000
G01 X-43.968785 Y17.792716 Z-0.125000
G01 X-43.967959 Y17.792716 Z-0.125000
G01 X-43.967959 Y17.792667 Z-0.125000
G01 X-43.967959 Y17.792667 Z-0.125000
G00 Z5.000000

(End cutting path id: path5231)


(Start cutting path id: path5229)
(Change tool to Default tool)

G00 Z5.000000
G00 X-44.616376 Y18.020897

G01 Z-0.125000 F100.0(Penetrate)
G03 X-44.617296 Y18.097252 Z-0.125000 I-3.170476 J0.000000 F400.000000
G03 X-44.619828 Y18.153974 Z-0.125000 I-1.382289 J-0.033300
G01 X-44.553265 Y18.153974 Z-0.125000
G01 X-44.548987 Y18.084105 Z-0.125000
G01 X-44.547382 Y18.084105 Z-0.125000
G01 X-44.490436 Y18.140368 Z-0.125000
G01 X-44.403414 Y18.163309 Z-0.125000
G01 X-44.287125 Y18.110072 Z-0.125000
G01 X-44.229835 Y17.956036 Z-0.125000
G01 X-44.302200 Y17.783385 Z-0.125000
G01 X-44.415180 Y17.737141 Z-0.125000
G01 X-44.491515 Y17.755472 Z-0.125000
G01 X-44.540672 Y17.801127 Z-0.125000
G01 X-44.542277 Y17.801127 Z-0.125000
G01 X-44.542277 Y17.579607 Z-0.125000
G01 X-44.616328 Y17.579607 Z-0.125000
G01 X-44.616328 Y18.020897 Z-0.125000
G01 X-44.616376 Y18.020897 Z-0.125000
G00 Z5.000000

(End cutting path id: path5229)


(Start cutting path id: path5229)
(Change tool to Default tool)

G00 Z5.000000
G00 X-44.542326 Y17.912276

G01 Z-0.125000 F100.0(Penetrate)
G01 X-44.541585 Y17.896522 Z-0.125000 F400.000000
G01 X-44.538922 Y17.881936 Z-0.125000
G01 X-44.498379 Y17.819230 Z-0.125000
G01 X-44.428600 Y17.795195 Z-0.125000
G01 X-44.343081 Y17.837935 Z-0.125000
G01 X-44.304809 Y17.952681 Z-0.125000
G01 X-44.337869 Y18.058467 Z-0.125000
G01 X-44.425245 Y18.104234 Z-0.125000
G01 X-44.493155 Y18.081181 Z-0.125000
G01 X-44.538096 Y18.013215 Z-0.125000
G01 X-44.540914 Y17.997352 Z-0.125000
G01 X-44.542326 Y17.982875 Z-0.125000
G01 X-44.542326 Y17.912276 Z-0.125000
G01 X-44.542326 Y17.912276 Z-0.125000
G00 Z5.000000

(End cutting path id: path5229)


(Start cutting path id: path5227)
(Change tool to Default tool)

G00 Z5.000000
G00 X-45.318764 Y18.043603

G01 Z-0.125000 F100.0(Penetrate)
G03 X-45.319985 Y18.105467 Z-0.125000 I-1.567598 J0.000000 F400.000000
G03 X-45.322167 Y18.153925 Z-0.125000 I-4.382244 J-0.173077
G01 X-45.257355 Y18.153925 Z-0.125000
G01 X-45.253902 Y18.088238 Z-0.125000
G01 X-45.251471 Y18.088238 Z-0.125000
G01 X-45.209725 Y18.134579 Z-0.125000
G01 X-45.122624 Y18.163212 Z-0.125000
G01 X-45.050694 Y18.139084 Z-0.125000
G01 X-45.008023 Y18.081528 Z-0.125000
G01 X-45.006419 Y18.081528 Z-0.125000
G01 X-44.983383 Y18.113672 Z-0.125000
G01 X-44.960082 Y18.134574 Z-0.125000
G01 X-44.923051 Y18.154404 Z-0.125000
G01 X-44.870813 Y18.163212 Z-0.125000
G01 X-44.807266 Y18.139907 Z-0.125000
G01 X-44.736083 Y17.986278 Z-0.125000
G01 X-44.736083 Y17.746234 Z-0.125000
G01 X-44.808529 Y17.746234 Z-0.125000
G01 X-44.808529 Y17.976992 Z-0.125000
G01 X-44.837294 Y18.070834 Z-0.125000
G01 X-44.896923 Y18.102484 Z-0.125000
G01 X-44.953692 Y18.081261 Z-0.125000
G01 X-44.985365 Y18.035969 Z-0.125000
G01 X-44.989585 Y18.018510 Z-0.125000
G01 X-44.991249 Y17.998968 Z-0.125000
G01 X-44.991249 Y17.746234 Z-0.125000
G01 X-45.063646 Y17.746234 Z-0.125000
G01 X-45.063646 Y17.990411 Z-0.125000
G01 X-45.088940 Y18.071164 Z-0.125000
G01 X-45.148734 Y18.102435 Z-0.125000
G01 X-45.209589 Y18.078009 Z-0.125000
G01 X-45.240580 Y18.028385 Z-0.125000
G01 X-45.245094 Y18.011248 Z-0.125000
G01 X-45.246512 Y17.992064 Z-0.125000
G01 X-45.246512 Y17.746136 Z-0.125000
G01 X-45.318861 Y17.746136 Z-0.125000
G01 X-45.318861 Y18.043603 Z-0.125000
G01 X-45.318764 Y18.043603 Z-0.125000
G01 X-45.318764 Y18.043603 Z-0.125000
G00 Z5.000000

(End cutting path id: path5227)


(Start cutting path id: path5225)
(Change tool to Default tool)

G00 Z5.000000
G00 X-45.698547 Y17.937462

G01 Z-0.125000 F100.0(Penetrate)
G01 X-45.646524 Y17.827783 Z-0.125000 F400.000000
G01 X-45.559586 Y17.795973 Z-0.125000
G01 X-45.485737 Y17.804065 Z-0.125000
G01 X-45.446833 Y17.816200 Z-0.125000
G01 X-45.433462 Y17.763980 Z-0.125000
G01 X-45.473908 Y17.749819 Z-0.125000
G01 X-45.569797 Y17.737871 Z-0.125000
G01 X-45.713041 Y17.799629 Z-0.125000
G01 X-45.770166 Y17.943345 Z-0.125000
G01 X-45.715021 Y18.098909 Z-0.125000
G01 X-45.578257 Y18.164087 Z-0.125000
G01 X-45.435715 Y18.076591 Z-0.125000
G01 X-45.410707 Y17.972081 Z-0.125000
G01 X-45.411494 Y17.949414 Z-0.125000
G01 X-45.413138 Y17.936733 Z-0.125000
G01 X-45.698547 Y17.937462 Z-0.125000
G01 X-45.698547 Y17.937462 Z-0.125000
G00 Z5.000000

(End cutting path id: path5225)


(Start cutting path id: path5225)
(Change tool to Default tool)

G00 Z5.000000
G00 X-45.482132 Y17.990557

G01 Z-0.125000 F100.0(Penetrate)
G01 X-45.496319 Y18.055836 Z-0.125000 F400.000000
G01 X-45.583994 Y18.111041 Z-0.125000
G01 X-45.672184 Y18.062599 Z-0.125000
G01 X-45.697672 Y17.990557 Z-0.125000
G01 X-45.482132 Y17.990557 Z-0.125000
G01 X-45.482132 Y17.990557 Z-0.125000
G00 Z5.000000

(End cutting path id: path5225)


(Start cutting path id: path5223)
(Change tool to Default tool)

G00 Z5.000000
G00 X-45.994944 Y18.251655

G01 Z-0.125000 F100.0(Penetrate)
G01 X-46.167550 Y18.251655 Z-0.125000 F400.000000
G01 X-46.167550 Y18.313988 Z-0.125000
G01 X-45.747266 Y18.313988 Z-0.125000
G01 X-45.747266 Y18.251655 Z-0.125000
G01 X-45.920845 Y18.251655 Z-0.125000
G01 X-45.920845 Y17.746379 Z-0.125000
G01 X-45.994944 Y17.746379 Z-0.125000
G01 X-45.994944 Y18.251655 Z-0.125000
G01 X-45.994944 Y18.251655 Z-0.125000
G00 Z5.000000

(End cutting path id: path5223)


(Start cutting path id: path5219)
(Change tool to Default tool)

G00 Z5.000000
G00 X-32.935626 Y28.369222

G01 Z-0.125000 F100.0(Penetrate)
G01 X-32.861575 Y28.369222 Z-0.125000 F400.000000
G01 X-32.861575 Y27.771274 Z-0.125000
G01 X-32.935626 Y27.771274 Z-0.125000
G01 X-32.935626 Y28.369222 Z-0.125000
G01 X-32.935626 Y28.369222 Z-0.125000
G00 Z5.000000

(End cutting path id: path5219)


(Start cutting path id: path5217)
(Change tool to Default tool)

G00 Z5.000000
G00 X-33.054457 Y27.869003

G01 Z-0.125000 F100.0(Penetrate)
G03 X-33.052977 Y27.814409 Z-0.125000 I1.007539 J-0.000000 F400.000000
G01 X-33.048574 Y27.771274 Z-0.125000
G01 X-33.114991 Y27.771274 Z-0.125000
G01 X-33.121846 Y27.822569 Z-0.125000
G01 X-33.124375 Y27.822569 Z-0.125000
G01 X-33.166514 Y27.783760 Z-0.125000
G01 X-33.248943 Y27.761938 Z-0.125000
G01 X-33.346013 Y27.805872 Z-0.125000
G01 X-33.373560 Y27.878970 Z-0.125000
G01 X-33.318833 Y27.977085 Z-0.125000
G01 X-33.128507 Y28.030572 Z-0.125000
G01 X-33.128507 Y28.038984 Z-0.125000
G01 X-33.138694 Y28.082665 Z-0.125000
G01 X-33.221132 Y28.133358 Z-0.125000
G01 X-33.280060 Y28.125261 Z-0.125000
G01 X-33.328002 Y28.102970 Z-0.125000
G01 X-33.344873 Y28.152661 Z-0.125000
G01 X-33.288760 Y28.177344 Z-0.125000
G01 X-33.210143 Y28.188009 Z-0.125000
G01 X-33.083469 Y28.119332 Z-0.125000
G01 X-33.054360 Y28.021286 Z-0.125000
G01 X-33.054360 Y27.868954 Z-0.125000
G01 X-33.054457 Y27.868954 Z-0.125000
G01 X-33.054457 Y27.869003 Z-0.125000
G00 Z5.000000

(End cutting path id: path5217)


(Start cutting path id: path5217)
(Change tool to Default tool)

G00 Z5.000000
G00 X-33.126806 Y27.979228

G01 Z-0.125000 F100.0(Penetrate)
G01 X-33.243649 Y27.963027 Z-0.125000 F400.000000
G01 X-33.299558 Y27.887479 Z-0.125000
G01 X-33.274484 Y27.832931 Z-0.125000
G01 X-33.230467 Y27.816637 Z-0.125000
G01 X-33.159848 Y27.842025 Z-0.125000
G01 X-33.130209 Y27.884854 Z-0.125000
G01 X-33.127505 Y27.896877 Z-0.125000
G01 X-33.126806 Y27.908435 Z-0.125000
G01 X-33.126806 Y27.979228 Z-0.125000
G01 X-33.126806 Y27.979228 Z-0.125000
G01 X-33.126806 Y27.979228 Z-0.125000
G00 Z5.000000

(End cutting path id: path5217)


(Start cutting path id: path5215)
(Change tool to Default tool)

G00 Z5.000000
G00 X-33.531045 Y28.276549

G01 Z-0.125000 F100.0(Penetrate)
G01 X-33.531045 Y28.178868 Z-0.125000 F400.000000
G01 X-33.424856 Y28.178868 Z-0.125000
G01 X-33.424856 Y28.122467 Z-0.125000
G01 X-33.531045 Y28.122467 Z-0.125000
G01 X-33.531045 Y27.902600 Z-0.125000
G01 X-33.514477 Y27.845058 Z-0.125000
G01 X-33.475471 Y27.823493 Z-0.125000
G01 X-33.447860 Y27.825196 Z-0.125000
G01 X-33.432538 Y27.828501 Z-0.125000
G01 X-33.429183 Y27.772100 Z-0.125000
G01 X-33.451489 Y27.766056 Z-0.125000
G01 X-33.494871 Y27.761938 Z-0.125000
G01 X-33.543989 Y27.771549 Z-0.125000
G01 X-33.574902 Y27.793105 Z-0.125000
G01 X-33.595025 Y27.831172 Z-0.125000
G01 X-33.603540 Y27.900072 Z-0.125000
G01 X-33.603540 Y28.122370 Z-0.125000
G01 X-33.666700 Y28.122370 Z-0.125000
G01 X-33.666700 Y28.178820 Z-0.125000
G01 X-33.603540 Y28.178820 Z-0.125000
G01 X-33.603540 Y28.253697 Z-0.125000
G01 X-33.531045 Y28.276549 Z-0.125000
G01 X-33.531045 Y28.276549 Z-0.125000
G00 Z5.000000

(End cutting path id: path5215)


(Start cutting path id: path5213)
(Change tool to Default tool)

G00 Z5.000000
G00 X-34.000098 Y27.962454

G01 Z-0.125000 F100.0(Penetrate)
G01 X-33.948039 Y27.852659 Z-0.125000 F400.000000
G01 X-33.861186 Y27.820868 Z-0.125000
G01 X-33.787218 Y27.829021 Z-0.125000
G01 X-33.748335 Y27.841143 Z-0.125000
G01 X-33.734916 Y27.788923 Z-0.125000
G01 X-33.775401 Y27.774776 Z-0.125000
G01 X-33.871397 Y27.762765 Z-0.125000
G01 X-34.014606 Y27.824501 Z-0.125000
G01 X-34.071766 Y27.968288 Z-0.125000
G01 X-34.016569 Y28.123800 Z-0.125000
G01 X-33.879759 Y28.188933 Z-0.125000
G01 X-33.737237 Y28.101470 Z-0.125000
G01 X-33.712209 Y27.996926 Z-0.125000
G01 X-33.713000 Y27.974351 Z-0.125000
G01 X-33.714689 Y27.961530 Z-0.125000
G01 X-34.000098 Y27.962454 Z-0.125000
G01 X-34.000098 Y27.962454 Z-0.125000
G00 Z5.000000

(End cutting path id: path5213)


(Start cutting path id: path5213)
(Change tool to Default tool)

G00 Z5.000000
G00 X-33.783635 Y28.015500

G01 Z-0.125000 F100.0(Penetrate)
G01 X-33.797859 Y28.080808 Z-0.125000 F400.000000
G01 X-33.885497 Y28.135935 Z-0.125000
G01 X-33.973750 Y28.087469 Z-0.125000
G01 X-33.999223 Y28.015500 Z-0.125000
G01 X-33.783635 Y28.015500 Z-0.125000
G01 X-33.783635 Y28.015500 Z-0.125000
G00 Z5.000000

(End cutting path id: path5213)


(Start cutting path id: path5211)
(Change tool to Default tool)

G00 Z5.000000
G00 X-34.203920 Y28.253745

G01 Z-0.125000 F100.0(Penetrate)
G01 X-34.237575 Y28.268750 Z-0.125000 F400.000000
